; LightBurn Pro 2.0.05
; GRBL device profile, absolute coords
; Bounds: X139.43 Y207.6 to X298.63 Y310
G00 G17 G40 G21 G54
G90
M4
; Image @ 6000 mm/min, 20% power
M8
G0 X164.626Y207.599
; Layer C00
G91
G1 X2.5F6000S0
G1 X43.5S200
G1 X8.1S0
G1 X1.9S200
G1 X0.2S0
G1 X1.6S200
G1 X0.2S0
G1 X0.1S200
G1 X0.4S0
G1 X12.1S200
G1 X0.1S0
G1 X7.4S200
G1 X32.4S0
G1 X4S200
G1 X2.5S0
G1 Y0.1
G1 X-2.5
G1 X-4S200
G1 X-32.4S0
G1 X-6.6S200
G1 X-0.1S0
G1 X-13.1S200
G1 X-0.2S0
G1 X-0.1S200
G1 X-0.2S0
G1 X-1.6S200
G1 X-0.2S0
G1 X-1.8S200
G1 X-8.2S0
G1 X-43.5S200
G1 X-2.5S0
G1 Y0.1
G1 X2.5
G1 X43.6S200
G1 X8.1S0
G1 X1.8S200
G1 X0.1S0
G1 X1.6S200
G1 X0.2S0
G1 X0.1S200
G1 X0.2S0
G1 X12.5S200
G1 X0.2S0
G1 X0.5S200
G1 X0.2S0
G1 X6.7S200
G1 X32.2S0
G1 X4S200
G1 X2.5S0
G1 Y0.1
G1 X-2.5
G1 X-4S200
G1 X-32.1S0
G1 X-6.7S200
G1 X-0.2S0
G1 X-0.6S200
G1 X-0.2S0
G1 X-12.3S200
G1 X-0.4S0
G1 X-0.1S200
G1 X-0.1S0
G1 X-1.6S200
G1 X-0.2S0
G1 X-1.8S200
G1 X-8.1S0
G1 X-6.3S200
G1 X-0.1S0
G1 X-7.7S200
G1 X-0.1S0
G1 X-29.4S200
G1 X-2.5S0
G1 Y0.1
G1 X2.5
G1 X9.2S200
G1 X0.1S0
G1 X0.2S200
G1 X0.1S0
G1 X1.6S200
G1 X0.1S0
G1 X1.5S200
G1 X0.1S0
G1 X1S200
G1 X0.1S0
G1 X1.8S200
G1 X0.1S0
G1 X3.3S200
G1 X0.1S0
G1 X7.2S200
G1 X0.1S0
G1 X5.2S200
G1 X0.1S0
G1 X0.2S200
G1 X0.1S0
G1 X0.2S200
G1 X0.1S0
G1 X0.7S200
G1 X0.1S0
G1 X0.5S200
G1 X0.1S0
G1 X3.7S200
G1 X0.1S0
G1 X1.9S200
G1 X0.1S0
G1 X0.5S200
G1 X0.1S0
G1 X0.2S200
G1 X0.1S0
G1 X0.2S200
G1 X0.1S0
G1 X0.2S200
G1 X0.1S0
G1 X2.4S200
G1 X8.1S0
G1 X1.8S200
G1 X0.2S0
G1 X1.6S200
G1 X0.2S0
G1 X0.2S200
G1 X0.1S0
G1 X12.5S200
G1 X0.3S0
G1 X0.5S200
G1 X0.1S0
G1 X6.7S200
G1 X32.1S0
G1 X4S200
G1 X2.5S0
G1 Y0.1
G1 X-2.5
G1 X-4.1S200
G1 X-31.9S0
G1 X-6.7S200
G1 X-0.1S0
G1 X-0.5S200
G1 X-0.2S0
G1 X-12.7S200
G1 X-0.2S0
G1 X-0.1S200
G1 X-0.3S0
G1 X-3.5S200
G1 X-8.1S0
G1 X-1S200
G1 X-0.1S0
G1 X-0.4S200
G1 X-0.1S0
G1 X-0.3S200
G1 X-0.1S0
G1 X-1.6S200
G1 X-0.1S0
G1 X-1S200
G1 X-0.1S0
G1 X-0.2S200
G1 X-0.1S0
G1 X-0.2S200
G1 X-0.1S0
G1 X-0.2S200
G1 X-0.1S0
G1 X-0.8S200
G1 X-0.1S0
G1 X-0.2S200
G1 X-0.1S0
G1 X-0.3S200
G1 X-0.1S0
G1 X-1.2S200
G1 X-0.1S0
G1 X-0.2S200
G1 X-0.1S0
G1 X-0.2S200
G1 X-0.1S0
G1 X-0.2S200
G1 X-0.1S0
G1 X-0.5S200
G1 X-0.1S0
G1 X-0.7S200
G1 X-0.1S0
G1 X-1.2S200
G1 X-0.1S0
G1 X-0.3S200
G1 X-0.1S0
G1 X-0.3S200
G1 X-0.1S0
G1 X-0.2S200
G1 X-0.1S0
G1 X-1S200
G1 X-0.1S0
G1 X-0.2S200
G1 X-0.1S0
G1 X-0.2S200
G1 X-0.1S0
G1 X-0.8S200
G1 X-0.1S0
G1 X-0.2S200
G1 X-0.1S0
G1 X-0.4S200
G1 X-0.1S0
G1 X-0.7S200
G1 X-0.1S0
G1 X-0.2S200
G1 X-0.1S0
G1 X-0.3S200
G1 X-0.1S0
G1 X-0.6S200
G1 X-0.1S0
G1 X-0.4S200
G1 X-0.1S0
G1 X-1S200
G1 X-0.1S0
G1 X-0.2S200
G1 X-0.1S0
G1 X-0.2S200
G1 X-0.1S0
G1 X-0.2S200
G1 X-0.1S0
G1 X-0.2S200
G1 X-0.1S0
G1 X-0.2S200
G1 X-0.1S0
G1 X-0.3S200
G1 X-0.1S0
G1 X-0.3S200
G1 X-0.1S0
G1 X-0.3S200
G1 X-0.1S0
G1 X-0.2S200
G1 X-0.1S0
G1 X-0.2S200
G1 X-0.1S0
G1 X-0.2S200
G1 X-0.1S0
G1 X-0.6S200
G1 X-0.1S0
G1 X-0.2S200
G1 X-0.1S0
G1 X-0.2S200
G1 X-0.1S0
G1 X-0.2S200
G1 X-0.1S0
G1 X-0.2S200
G1 X-0.1S0
G1 X-0.3S200
G1 X-0.1S0
G1 X-0.2S200
G1 X-0.1S0
G1 X-0.4S200
G1 X-0.1S0
G1 X-0.2S200
G1 X-0.1S0
G1 X-0.6S200
G1 X-0.1S0
G1 X-1.1S200
G1 X-0.1S0
G1 X-0.6S200
G1 X-0.1S0
G1 X-0.3S200
G1 X-0.1S0
G1 X-0.6S200
G1 X-0.1S0
G1 X-0.2S200
G1 X-0.1S0
G1 X-0.2S200
G1 X-0.1S0
G1 X-0.2S200
G1 X-0.1S0
G1 X-0.6S200
G1 X-0.1S0
G1 X-0.9S200
G1 X-0.1S0
G1 X-1S200
G1 X-0.1S0
G1 X-0.2S200
G1 X-0.1S0
G1 X-0.3S200
G1 X-0.1S0
G1 X-0.6S200
G1 X-0.1S0
G1 X-0.3S200
G1 X-0.1S0
G1 X-1S200
G1 X-0.1S0
G1 X-0.3S200
G1 X-0.1S0
G1 X-0.4S200
G1 X-0.1S0
G1 X-0.4S200
G1 X-0.1S0
G1 X-4.3S200
G1 X-2.5S0
G1 Y0.1
G1 X2.5
G1 X3.4S200
G1 X0.1S0
G1 X0.2S200
G1 X0.1S0
G1 X0.2S200
G1 X0.1S0
G1 X1.9S200
G1 X0.1S0
G1 X0.2S200
G1 X0.1S0
G1 X1.1S200
G1 X0.1S0
G1 X1.3S200
G1 X0.1S0
G1 X1S200
G1 X0.1S0
G1 X0.2S200
G1 X0.1S0
G1 X4S200
G1 X0.1S0
G1 X0.2S200
G1 X0.1S0
G1 X0.2S200
G1 X0.1S0
G1 X8.2S200
G1 X0.1S0
G1 X0.2S200
G1 X0.1S0
G1 X1.2S200
G1 X0.1S0
G1 X2.9S200
G1 X0.1S0
G1 X0.2S200
G1 X0.1S0
G1 X4.6S200
G1 X0.1S0
G1 X2.2S200
G1 X0.1S0
G1 X2S200
G1 X0.1S0
G1 X5.3S200
G1 X0.1S0
G1 X0.2S200
G1 X0.1S0
G1 X0.4S200
G1 X8.1S0
G1 X2.7S200
G1 X0.1S0
G1 X0.8S200
G1 X0.5S0
G1 X12.8S200
G1 X0.1S0
G1 X2.4S200
G1 X0.1S0
G1 X4.9S200
G1 X31.8S0
G1 X4.1S200
G1 X2.5S0
G1 X0.2Y0.1
G1 X-2.5
G1 X-4.4S200
G1 X-31.7S0
G1 X-2.3S200
G1 X-0.1S0
G1 X-2.5S200
G1 X-0.1S0
G1 X-1.7S200
G1 X-0.1S0
G1 X-13.4S200
G1 X-0.2S0
G1 X-0.1S200
G1 X-0.1S0
G1 X-0.2S200
G1 X-0.1S0
G1 X-0.1S200
G1 X-0.1S0
G1 X-0.5S200
G1 X-0.1S0
G1 X-2.7S200
G1 X-8.1S0
G1 X-0.2S200
G1 X-0.1S0
G1 X-1S200
G1 X-0.1S0
G1 X-0.8S200
G1 X-0.1S0
G1 X-0.3S200
G1 X-0.1S0
G1 X-0.4S200
G1 X-0.1S0
G1 X-0.9S200
G1 X-0.1S0
G1 X-7.1S200
G1 X-0.1S0
G1 X-0.4S200
G1 X-0.1S0
G1 X-4.5S200
G1 X-0.1S0
G1 X-0.6S200
G1 X-0.1S0
G1 X-1.8S200
G1 X-0.1S0
G1 X-0.4S200
G1 X-0.1S0
G1 X-4.8S200
G1 X-0.1S0
G1 X-2.3S200
G1 X-0.1S0
G1 X-0.9S200
G1 X-0.1S0
G1 X-1.8S200
G1 X-0.1S0
G1 X-1S200
G1 X-0.1S0
G1 X-1.5S200
G1 X-0.1S0
G1 X-4.3S200
G1 X-0.1S0
G1 X-1.4S200
G1 X-0.1S0
G1 X-0.4S200
G1 X-0.1S0
G1 X-4.5S200
G1 X-2.5S0
G1 Y0.1
G1 X2.5
G1 X5.4S200
G1 X0.1S0
G1 X1.3S200
G1 X0.1S0
G1 X0.2S200
G1 X0.1S0
G1 X0.5S200
G1 X0.1S0
G1 X0.2S200
G1 X0.1S0
G1 X0.2S200
G1 X0.1S0
G1 X0.7S200
G1 X0.1S0
G1 X0.2S200
G1 X0.1S0
G1 X1S200
G1 X0.1S0
G1 X0.7S200
G1 X0.1S0
G1 X0.4S200
G1 X0.1S0
G1 X0.3S200
G1 X0.1S0
G1 X0.6S200
G1 X0.1S0
G1 X0.2S200
G1 X0.1S0
G1 X0.7S200
G1 X0.1S0
G1 X1.7S200
G1 X0.1S0
G1 X0.3S200
G1 X0.1S0
G1 X0.7S200
G1 X0.1S0
G1 X0.2S200
G1 X0.1S0
G1 X0.4S200
G1 X0.1S0
G1 X0.4S200
G1 X0.1S0
G1 X1S200
G1 X0.1S0
G1 X0.4S200
G1 X0.1S0
G1 X0.3S200
G1 X0.1S0
G1 X0.2S200
G1 X0.1S0
G1 X0.2S200
G1 X0.1S0
G1 X0.2S200
G1 X0.1S0
G1 X1S200
G1 X0.1S0
G1 X0.4S200
G1 X0.1S0
G1 X2.1S200
G1 X0.1S0
G1 X0.2S200
G1 X0.1S0
G1 X0.2S200
G1 X0.1S0
G1 X0.8S200
G1 X0.1S0
G1 X0.7S200
G1 X0.1S0
G1 X1.6S200
G1 X0.1S0
G1 X0.2S200
G1 X0.1S0
G1 X0.5S200
G1 X0.1S0
G1 X0.2S200
G1 X0.1S0
G1 X0.2S200
G1 X0.1S0
G1 X0.2S200
G1 X0.1S0
G1 X0.2S200
G1 X0.1S0
G1 X1.1S200
G1 X0.1S0
G1 X0.7S200
G1 X0.1S0
G1 X0.3S200
G1 X0.1S0
G1 X0.2S200
G1 X0.1S0
G1 X0.8S200
G1 X0.1S0
G1 X1.2S200
G1 X0.1S0
G1 X0.2S200
G1 X0.1S0
G1 X0.4S200
G1 X0.1S0
G1 X0.7S200
G1 X0.1S0
G1 X0.7S200
G1 X0.1S0
G1 X0.2S200
G1 X0.1S0
G1 X0.7S200
G1 X0.1S0
G1 X0.3S200
G1 X0.1S0
G1 X1.4S200
G1 X0.1S0
G1 X0.2S200
G1 X0.1S0
G1 X1.6S200
G1 X8.1S0
G1 X2.8S200
G1 X0.1S0
G1 X0.4S200
G1 X0.4S0
G1 X0.1S200
G1 X0.1S0
G1 X0.1S200
G1 X0.1S0
G1 X12.9S200
G1 X0.1S0
G1 X2.3S200
G1 X0.3S0
G1 X4.7S200
G1 X31.7S0
G1 X4.4S200
G1 X2.5S0
G1 Y0.1
G1 X-2.5
G1 X-4.4S200
G1 X-31.5S0
G1 X-2.2S200
G1 X-0.1S0
G1 X-2.6S200
G1 X-0.2S0
G1 X-2.2S200
G1 X-0.2S0
G1 X-13.1S200
G1 X-0.4S0
G1 X-0.1S200
G1 X-0.1S0
G1 X-1.4S200
G1 X-0.1S0
G1 X-1.9S200
G1 X-8.2S0
G1 X-0.2S200
G1 X-0.1S0
G1 X-0.3S200
G1 X-0.1S0
G1 X-0.2S200
G1 X-0.1S0
G1 X-1.7S200
G1 X-0.1S0
G1 X-2.5S200
G1 X-0.1S0
G1 X-0.7S200
G1 X-0.1S0
G1 X-2.6S200
G1 X-0.1S0
G1 X-0.2S200
G1 X-0.1S0
G1 X-1.4S200
G1 X-0.1S0
G1 X-0.8S200
G1 X-0.1S0
G1 X-2.9S200
G1 X-0.1S0
G1 X-0.2S200
G1 X-0.1S0
G1 X-0.3S200
G1 X-0.1S0
G1 X-0.3S200
G1 X-0.1S0
G1 X-1.6S200
G1 X-0.1S0
G1 X-1.2S200
G1 X-0.1S0
G1 X-0.4S200
G1 X-0.1S0
G1 X-0.4S200
G1 X-0.1S0
G1 X-0.3S200
G1 X-0.1S0
G1 X-1.3S200
G1 X-0.1S0
G1 X-0.2S200
G1 X-0.1S0
G1 X-2.8S200
G1 X-0.1S0
G1 X-3.5S200
G1 X-0.1S0
G1 X-4.9S200
G1 X-0.1S0
G1 X-0.2S200
G1 X-0.1S0
G1 X-1S200
G1 X-0.1S0
G1 X-2.5S200
G1 X-0.1S0
G1 X-0.2S200
G1 X-0.1S0
G1 X-0.8S200
G1 X-0.1S0
G1 X-0.5S200
G1 X-0.1S0
G1 X-0.2S200
G1 X-0.1S0
G1 X-0.3S200
G1 X-0.1S0
G1 X-3.4S200
G1 X-2.5S0
G1 Y0.1
G1 X2.5
G1 X4.4S200
G1 X0.1S0
G1 X1.7S200
G1 X0.1S0
G1 X1S200
G1 X0.1S0
G1 X1.4S200
G1 X0.1S0
G1 X1.3S200
G1 X0.1S0
G1 X0.4S200
G1 X0.1S0
G1 X0.7S200
G1 X0.1S0
G1 X0.9S200
G1 X0.1S0
G1 X0.8S200
G1 X0.1S0
G1 X0.7S200
G1 X0.1S0
G1 X0.2S200
G1 X0.1S0
G1 X0.6S200
G1 X0.1S0
G1 X1.2S200
G1 X0.1S0
G1 X0.9S200
G1 X0.1S0
G1 X0.4S200
G1 X0.1S0
G1 X0.7S200
G1 X0.1S0
G1 X0.2S200
G1 X0.1S0
G1 X0.4S200
G1 X0.1S0
G1 X2.3S200
G1 X0.1S0
G1 X0.4S200
G1 X0.1S0
G1 X4.1S200
G1 X0.1S0
G1 X4.5S200
G1 X0.1S0
G1 X1.4S200
G1 X0.1S0
G1 X2S200
G1 X0.1S0
G1 X0.7S200
G1 X0.1S0
G1 X0.7S200
G1 X0.1S0
G1 X0.7S200
G1 X0.1S0
G1 X0.7S200
G1 X0.1S0
G1 X0.9S200
G1 X0.1S0
G1 X1.6S200
G1 X0.1S0
G1 X2.3S200
G1 X8.2S0
G1 X3.4S200
G1 X0.1S0
G1 X0.1S200
G1 X0.1S0
G1 X0.1S200
G1 X0.2S0
G1 X14S200
G1 X0.2S0
G1 X1.5S200
G1 X0.1S0
G1 X4.9S200
G1 X31.3S0
G1 X4.5S200
G1 X2.5S0
G1 X0.1Y0.1
G1 X-2.5
G1 X-4.6S200
G1 X-31.2S0
G1 X-2.3S200
G1 X-0.1S0
G1 X-4.1S200
G1 X-0.1S0
G1 X-14.2S200
G1 X-0.1S0
G1 X-0.1S200
G1 X-0.1S0
G1 X-0.1S200
G1 X-0.2S0
G1 X-3.4S200
G1 X-8.2S0
G1 X-0.1S200
G1 X-0.1S0
G1 X-1S200
G1 X-0.1S0
G1 X-0.2S200
G1 X-0.1S0
G1 X-0.4S200
G1 X-0.1S0
G1 X-0.9S200
G1 X-0.1S0
G1 X-0.2S200
G1 X-0.1S0
G1 X-0.2S200
G1 X-0.1S0
G1 X-0.9S200
G1 X-0.1S0
G1 X-2.2S200
G1 X-0.1S0
G1 X-2.4S200
G1 X-0.1S0
G1 X-0.4S200
G1 X-0.1S0
G1 X-0.9S200
G1 X-0.1S0
G1 X-0.2S200
G1 X-0.1S0
G1 X-0.8S200
G1 X-0.1S0
G1 X-1.1S200
G1 X-0.1S0
G1 X-0.5S200
G1 X-0.1S0
G1 X-2.1S200
G1 X-0.1S0
G1 X-0.5S200
G1 X-0.1S0
G1 X-0.2S200
G1 X-0.1S0
G1 X-1.2S200
G1 X-0.1S0
G1 X-1.8S200
G1 X-0.1S0
G1 X-1.7S200
G1 X-0.1S0
G1 X-1S200
G1 X-0.1S0
G1 X-2.7S200
G1 X-0.1S0
G1 X-0.3S200
G1 X-0.1S0
G1 X-0.5S200
G1 X-0.1S0
G1 X-0.3S200
G1 X-0.1S0
G1 X-0.2S200
G1 X-0.1S0
G1 X-1.7S200
G1 X-0.1S0
G1 X-0.6S200
G1 X-0.1S0
G1 X-1S200
G1 X-0.1S0
G1 X-0.8S200
G1 X-0.1S0
G1 X-1.6S200
G1 X-0.1S0
G1 X-1.5S200
G1 X-0.1S0
G1 X-1.1S200
G1 X-0.1S0
G1 X-1.1S200
G1 X-0.1S0
G1 X-0.2S200
G1 X-0.1S0
G1 X-1.3S200
G1 X-0.1S0
G1 X-3.6S200
G1 X-2.5S0
G1 X0.1Y0.1
G1 X2.5
G1 X6.7S200
G1 X0.1S0
G1 X0.2S200
G1 X0.1S0
G1 X0.8S200
G1 X0.1S0
G1 X0.2S200
G1 X0.1S0
G1 X1.4S200
G1 X0.1S0
G1 X0.6S200
G1 X0.1S0
G1 X0.7S200
G1 X0.1S0
G1 X0.8S200
G1 X0.1S0
G1 X1.7S200
G1 X0.1S0
G1 X0.7S200
G1 X0.1S0
G1 X3.4S200
G1 X0.1S0
G1 X1.9S200
G1 X0.1S0
G1 X0.2S200
G1 X0.1S0
G1 X0.9S200
G1 X0.1S0
G1 X0.6S200
G1 X0.1S0
G1 X0.9S200
G1 X0.1S0
G1 X0.2S200
G1 X0.1S0
G1 X0.2S200
G1 X0.1S0
G1 X0.2S200
G1 X0.1S0
G1 X0.2S200
G1 X0.1S0
G1 X0.5S200
G1 X0.1S0
G1 X0.2S200
G1 X0.1S0
G1 X0.2S200
G1 X0.1S0
G1 X1.5S200
G1 X0.1S0
G1 X0.2S200
G1 X0.1S0
G1 X0.2S200
G1 X0.1S0
G1 X0.2S200
G1 X0.1S0
G1 X0.3S200
G1 X0.1S0
G1 X0.2S200
G1 X0.1S0
G1 X1.1S200
G1 X0.1S0
G1 X0.2S200
G1 X0.1S0
G1 X0.2S200
G1 X0.1S0
G1 X3.5S200
G1 X0.1S0
G1 X0.2S200
G1 X0.1S0
G1 X0.4S200
G1 X0.1S0
G1 X1.6S200
G1 X0.1S0
G1 X0.7S200
G1 X0.1S0
G1 X0.9S200
G1 X0.1S0
G1 X1.8S200
G1 X0.1S0
G1 X1.7S200
G1 X0.1S0
G1 X0.3S200
G1 X0.1S0
G1 X0.4S200
G1 X8.2S0
G1 X1.9S200
G1 X0.1S0
G1 X1.3S200
G1 X0.4S0
G1 X0.1S200
G1 X0.2S0
G1 X13.6S200
G1 X0.1S0
G1 X0.6S200
G1 X0.1S0
G1 X6.4S200
G1 X31.2S0
G1 X4.7S200
G1 X2.5S0
G1 Y0.1
G1 X-2.5
G1 X-4.6S200
G1 X-31.3S0
G1 X-2.2S200
G1 X-0.1S0
G1 X-4.1S200
G1 X-0.1S0
G1 X-14.3S200
G1 X-0.2S0
G1 X-0.1S200
G1 X-0.2S0
G1 X-0.1S200
G1 X-0.1S0
G1 X-3.3S200
G1 X-8.2S0
G1 X-1.8S200
G1 X-0.1S0
G1 X-2S200
G1 X-0.1S0
G1 X-0.9S200
G1 X-0.1S0
G1 X-0.2S200
G1 X-0.1S0
G1 X-0.7S200
G1 X-0.1S0
G1 X-1S200
G1 X-0.1S0
G1 X-0.2S200
G1 X-0.1S0
G1 X-1.6S200
G1 X-0.1S0
G1 X-0.5S200
G1 X-0.1S0
G1 X-0.5S200
G1 X-0.1S0
G1 X-0.2S200
G1 X-0.1S0
G1 X-0.9S200
G1 X-0.1S0
G1 X-9.5S200
G1 X-0.1S0
G1 X-0.9S200
G1 X-0.1S0
G1 X-1.1S200
G1 X-0.1S0
G1 X-0.2S200
G1 X-0.1S0
G1 X-0.2S200
G1 X-0.1S0
G1 X-0.4S200
G1 X-0.1S0
G1 X-0.6S200
G1 X-0.1S0
G1 X-0.2S200
G1 X-0.1S0
G1 X-2.4S200
G1 X-0.1S0
G1 X-0.6S200
G1 X-0.1S0
G1 X-1S200
G1 X-0.1S0
G1 X-0.4S200
G1 X-0.1S0
G1 X-0.2S200
G1 X-0.1S0
G1 X-2.2S200
G1 X-0.1S0
G1 X-1.2S200
G1 X-0.1S0
G1 X-0.2S200
G1 X-0.1S0
G1 X-1S200
G1 X-0.1S0
G1 X-1.2S200
G1 X-0.1S0
G1 X-0.2S200
G1 X-0.1S0
G1 X-0.2S200
G1 X-0.1S0
G1 X-0.8S200
G1 X-0.1S0
G1 X-0.3S200
G1 X-0.1S0
G1 X-0.2S200
G1 X-0.1S0
G1 X-0.2S200
G1 X-0.1S0
G1 X-3.6S200
G1 X-2.5S0
G1 X0.1Y0.1
G1 X2.5
G1 X4.9S200
G1 X0.1S0
G1 X4S200
G1 X0.1S0
G1 X0.2S200
G1 X0.1S0
G1 X1.2S200
G1 X0.1S0
G1 X0.7S200
G1 X0.1S0
G1 X0.2S200
G1 X0.1S0
G1 X1.6S200
G1 X0.1S0
G1 X1.8S200
G1 X0.1S0
G1 X0.3S200
G1 X0.1S0
G1 X0.3S200
G1 X0.1S0
G1 X0.2S200
G1 X0.1S0
G1 X0.2S200
G1 X0.1S0
G1 X0.3S200
G1 X0.1S0
G1 X3.9S200
G1 X0.1S0
G1 X1.2S200
G1 X0.1S0
G1 X0.2S200
G1 X0.1S0
G1 X3S200
G1 X0.1S0
G1 X0.3S200
G1 X0.1S0
G1 X0.2S200
G1 X0.1S0
G1 X0.2S200
G1 X0.1S0
G1 X2.2S200
G1 X0.1S0
G1 X1.8S200
G1 X0.1S0
G1 X0.5S200
G1 X0.1S0
G1 X1.2S200
G1 X0.1S0
G1 X1.7S200
G1 X0.1S0
G1 X1.4S200
G1 X0.1S0
G1 X3.6S200
G1 X0.1S0
G1 X0.6S200
G1 X0.1S0
G1 X1S200
G1 X0.1S0
G1 X0.9S200
G1 X0.1S0
G1 X0.1S200
G1 X8.2S0
G1 X3.4S200
G1 X0.2S0
G1 X0.1S200
G1 X0.2S0
G1 X0.1S200
G1 X0.1S0
G1 X14.4S200
G1 X0.1S0
G1 X6.4S200
G1 X31.2S0
G1 X3.2S200
G1 X0.2S0
G1 X0.5S200
G1 X0.1S0
G1 X0.6S200
G1 X2.5S0
G1 Y0.1
G1 X-2.5
G1 X-0.6S200
G1 X-0.1S0
G1 X-0.5S200
G1 X-0.1S0
G1 X-3.3S200
G1 X-31.2S0
G1 X-2.3S200
G1 X-0.2S0
G1 X-3.8S200
G1 X-0.2S0
G1 X-14.4S200
G1 X-0.1S0
G1 X-0.1S200
G1 X-0.2S0
G1 X-0.1S200
G1 X-0.3S0
G1 X-3.3S200
G1 X-8.2S0
G1 X-0.5S200
G1 X-0.1S0
G1 X-0.2S200
G1 X-0.1S0
G1 X-0.5S200
G1 X-0.1S0
G1 X-0.4S200
G1 X-0.1S0
G1 X-0.6S200
G1 X-0.1S0
G1 X-0.5S200
G1 X-0.1S0
G1 X-0.2S200
G1 X-0.1S0
G1 X-0.9S200
G1 X-0.1S0
G1 X-1S200
G1 X-0.1S0
G1 X-0.6S200
G1 X-0.1S0
G1 X-2S200
G1 X-0.1S0
G1 X-0.8S200
G1 X-0.1S0
G1 X-1.5S200
G1 X-0.1S0
G1 X-1.2S200
G1 X-0.1S0
G1 X-0.3S200
G1 X-0.1S0
G1 X-0.4S200
G1 X-0.1S0
G1 X-0.8S200
G1 X-0.1S0
G1 X-0.4S200
G1 X-0.1S0
G1 X-0.2S200
G1 X-0.1S0
G1 X-2.6S200
G1 X-0.1S0
G1 X-0.4S200
G1 X-0.1S0
G1 X-0.2S200
G1 X-0.1S0
G1 X-0.4S200
G1 X-0.1S0
G1 X-0.9S200
G1 X-0.1S0
G1 X-0.9S200
G1 X-0.1S0
G1 X-1.5S200
G1 X-0.1S0
G1 X-0.2S200
G1 X-0.1S0
G1 X-0.2S200
G1 X-0.1S0
G1 X-1S200
G1 X-0.1S0
G1 X-0.6S200
G1 X-0.1S0
G1 X-3.4S200
G1 X-0.1S0
G1 X-0.6S200
G1 X-0.1S0
G1 X-2.8S200
G1 X-0.1S0
G1 X-1.2S200
G1 X-0.1S0
G1 X-1.8S200
G1 X-0.1S0
G1 X-0.9S200
G1 X-0.1S0
G1 X-0.3S200
G1 X-0.1S0
G1 X-6.2S200
G1 X-2.5S0
G1 Y0.1
G1 X2.5
G1 X3.5S200
G1 X0.1S0
G1 X0.3S200
G1 X0.1S0
G1 X0.2S200
G1 X0.1S0
G1 X0.2S200
G1 X0.1S0
G1 X0.5S200
G1 X0.1S0
G1 X0.2S200
G1 X0.1S0
G1 X0.4S200
G1 X0.1S0
G1 X0.9S200
G1 X0.1S0
G1 X0.2S200
G1 X0.1S0
G1 X0.6S200
G1 X0.1S0
G1 X0.2S200
G1 X0.1S0
G1 X1.6S200
G1 X0.1S0
G1 X0.2S200
G1 X0.1S0
G1 X0.8S200
G1 X0.1S0
G1 X0.7S200
G1 X0.1S0
G1 X0.5S200
G1 X0.1S0
G1 X0.2S200
G1 X0.1S0
G1 X1.1S200
G1 X0.1S0
G1 X0.6S200
G1 X0.1S0
G1 X2.8S200
G1 X0.1S0
G1 X0.6S200
G1 X0.1S0
G1 X0.9S200
G1 X0.1S0
G1 X1.3S200
G1 X0.1S0
G1 X0.5S200
G1 X0.1S0
G1 X0.2S200
G1 X0.1S0
G1 X1.5S200
G1 X0.1S0
G1 X0.2S200
G1 X0.1S0
G1 X3.4S200
G1 X0.1S0
G1 X0.2S200
G1 X0.1S0
G1 X0.2S200
G1 X0.1S0
G1 X4.4S200
G1 X0.1S0
G1 X1.6S200
G1 X0.1S0
G1 X1.9S200
G1 X0.1S0
G1 X0.9S200
G1 X0.1S0
G1 X0.5S200
G1 X0.1S0
G1 X0.4S200
G1 X0.1S0
G1 X0.3S200
G1 X0.1S0
G1 X0.4S200
G1 X0.1S0
G1 X3.8S200
G1 X8.3S0
G1 X2.4S200
G1 X0.2S0
G1 X0.6S200
G1 X0.2S0
G1 X0.1S200
G1 X0.1S0
G1 X0.1S200
G1 X0.1S0
G1 X0.1S200
G1 X0.2S0
G1 X14S200
G1 X0.1S0
G1 X2S200
G1 X0.1S0
G1 X2.3S200
G1 X0.3S0
G1 X2.3S200
G1 X31S0
G1 X3.9S200
G1 X0.1S0
G1 X0.6S200
G1 X2.5S0
G1 X0.1Y0.1
G1 X-2.5
G1 X-1.4S200
G1 X-0.1S0
G1 X-3.2S200
G1 X-31S0
G1 X-2.3S200
G1 X-0.3S0
G1 X-2.3S200
G1 X-0.2S0
G1 X-1.2S200
G1 X-0.1S0
G1 X-14.7S200
G1 X-0.3S0
G1 X-0.1S200
G1 X-0.3S0
G1 X-0.1S200
G1 X-0.1S0
G1 X-0.7S200
G1 X-0.2S0
G1 X-0.3S200
G1 X-0.1S0
G1 X-1.9S200
G1 X-8.2S0
G1 X-2.3S200
G1 X-0.1S0
G1 X-5S200
G1 X-0.1S0
G1 X-0.4S200
G1 X-0.1S0
G1 X-0.6S200
G1 X-0.1S0
G1 X-0.9S200
G1 X-0.1S0
G1 X-0.3S200
G1 X-0.1S0
G1 X-0.2S200
G1 X-0.1S0
G1 X-0.9S200
G1 X-0.1S0
G1 X-0.2S200
G1 X-0.1S0
G1 X-0.2S200
G1 X-0.1S0
G1 X-0.8S200
G1 X-0.1S0
G1 X-1.3S200
G1 X-0.1S0
G1 X-2.1S200
G1 X-0.1S0
G1 X-0.4S200
G1 X-0.1S0
G1 X-0.2S200
G1 X-0.1S0
G1 X-0.4S200
G1 X-0.1S0
G1 X-0.7S200
G1 X-0.1S0
G1 X-1.9S200
G1 X-0.1S0
G1 X-1.1S200
G1 X-0.1S0
G1 X-2S200
G1 X-0.1S0
G1 X-1.5S200
G1 X-0.1S0
G1 X-0.3S200
G1 X-0.1S0
G1 X-0.2S200
G1 X-0.1S0
G1 X-0.6S200
G1 X-0.1S0
G1 X-0.2S200
G1 X-0.1S0
G1 X-0.2S200
G1 X-0.1S0
G1 X-0.2S200
G1 X-0.1S0
G1 X-1.5S200
G1 X-0.1S0
G1 X-0.2S200
G1 X-0.1S0
G1 X-0.8S200
G1 X-0.1S0
G1 X-0.5S200
G1 X-0.1S0
G1 X-2.7S200
G1 X-0.1S0
G1 X-0.2S200
G1 X-0.1S0
G1 X-8.4S200
G1 X-2.5S0
G1 X0.1Y0.1
G1 X2.5
G1 X4.6S200
G1 X0.1S0
G1 X0.8S200
G1 X0.1S0
G1 X0.5S200
G1 X0.1S0
G1 X0.2S200
G1 X0.1S0
G1 X0.8S200
G1 X0.1S0
G1 X1.5S200
G1 X0.1S0
G1 X0.2S200
G1 X0.1S0
G1 X1S200
G1 X0.1S0
G1 X0.2S200
G1 X0.1S0
G1 X3.4S200
G1 X0.1S0
G1 X1.8S200
G1 X0.1S0
G1 X1.7S200
G1 X0.1S0
G1 X1.5S200
G1 X0.1S0
G1 X0.7S200
G1 X0.1S0
G1 X2S200
G1 X0.1S0
G1 X0.2S200
G1 X0.1S0
G1 X0.9S200
G1 X0.1S0
G1 X0.8S200
G1 X0.1S0
G1 X1.8S200
G1 X0.1S0
G1 X1.5S200
G1 X0.1S0
G1 X0.7S200
G1 X0.1S0
G1 X0.5S200
G1 X0.1S0
G1 X0.6S200
G1 X0.1S0
G1 X1.4S200
G1 X0.1S0
G1 X1.5S200
G1 X0.1S0
G1 X1S200
G1 X0.1S0
G1 X1S200
G1 X0.1S0
G1 X0.4S200
G1 X0.1S0
G1 X0.2S200
G1 X0.1S0
G1 X1.1S200
G1 X0.1S0
G1 X1.4S200
G1 X0.1S0
G1 X0.3S200
G1 X0.1S0
G1 X0.2S200
G1 X0.1S0
G1 X0.2S200
G1 X0.1S0
G1 X0.5S200
G1 X0.1S0
G1 X0.2S200
G1 X0.1S0
G1 X0.2S200
G1 X0.1S0
G1 X0.2S200
G1 X0.1S0
G1 X0.5S200
G1 X0.1S0
G1 X0.2S200
G1 X0.1S0
G1 X0.2S200
G1 X8.2S0
G1 X1.9S200
G1 X0.2S0
G1 X0.1S200
G1 X0.2S0
G1 X0.8S200
G1 X0.2S0
G1 X0.1S200
G1 X0.2S0
G1 X0.1S200
G1 X0.1S0
G1 X0.1S200
G1 X0.1S0
G1 X16.2S200
G1 X0.2S0
G1 X2.2S200
G1 X0.2S0
G1 X2.3S200
G1 X30.9S0
G1 X1.6S200
G1 X0.1S0
G1 X1.7S200
G1 X0.1S0
G1 X1.3S200
G1 X2.5S0
G1 Y0.1
G1 X-2.5
G1 X-4.8S200
G1 X-30.8S0
G1 X-2.2S200
G1 X-0.4S0
G1 X-2S200
G1 X-0.3S0
G1 X-1.3S200
G1 X-0.1S0
G1 X-14.9S200
G1 X-0.2S0
G1 X-0.1S200
G1 X-0.2S0
G1 X-0.1S200
G1 X-0.1S0
G1 X-0.1S200
G1 X-0.2S0
G1 X-0.7S200
G1 X-0.1S0
G1 X-0.1S200
G1 X-0.3S0
G1 X-1.9S200
G1 X-8.2S0
G1 X-0.8S200
G1 X-0.1S0
G1 X-3.4S200
G1 X-0.1S0
G1 X-0.2S200
G1 X-0.1S0
G1 X-0.7S200
G1 X-0.1S0
G1 X-0.2S200
G1 X-0.1S0
G1 X-0.2S200
G1 X-0.1S0
G1 X-2.9S200
G1 X-0.1S0
G1 X-3S200
G1 X-0.1S0
G1 X-2.8S200
G1 X-0.1S0
G1 X-0.3S200
G1 X-0.1S0
G1 X-0.3S200
G1 X-0.1S0
G1 X-0.8S200
G1 X-0.1S0
G1 X-2.4S200
G1 X-0.1S0
G1 X-0.2S200
G1 X-0.1S0
G1 X-1.4S200
G1 X-0.1S0
G1 X-1.7S200
G1 X-0.1S0
G1 X-0.6S200
G1 X-0.1S0
G1 X-0.7S200
G1 X-0.1S0
G1 X-3.6S200
G1 X-0.1S0
G1 X-0.6S200
G1 X-0.1S0
G1 X-0.2S200
G1 X-0.1S0
G1 X-0.8S200
G1 X-0.1S0
G1 X-1.5S200
G1 X-0.1S0
G1 X-0.9S200
G1 X-0.1S0
G1 X-0.4S200
G1 X-0.1S0
G1 X-1.7S200
G1 X-0.1S0
G1 X-0.6S200
G1 X-0.1S0
G1 X-2S200
G1 X-0.1S0
G1 X-0.5S200
G1 X-0.1S0
G1 X-0.7S200
G1 X-0.1S0
G1 X-3.5S200
G1 X-2.5S0
G1 X0.1Y0.1
G1 X2.5
G1 X2.6S200
G1 X0.1S0
G1 X1S200
G1 X0.1S0
G1 X1.3S200
G1 X0.1S0
G1 X0.5S200
G1 X0.1S0
G1 X0.8S200
G1 X0.1S0
G1 X1.2S200
G1 X0.1S0
G1 X0.3S200
G1 X0.1S0
G1 X2.8S200
G1 X0.1S0
G1 X0.2S200
G1 X0.1S0
G1 X0.2S200
G1 X0.1S0
G1 X0.2S200
G1 X0.1S0
G1 X0.9S200
G1 X0.1S0
G1 X3S200
G1 X0.1S0
G1 X0.4S200
G1 X0.1S0
G1 X0.2S200
G1 X0.1S0
G1 X0.2S200
G1 X0.1S0
G1 X1S200
G1 X0.1S0
G1 X1.4S200
G1 X0.1S0
G1 X0.4S200
G1 X0.1S0
G1 X0.3S200
G1 X0.1S0
G1 X0.2S200
G1 X0.1S0
G1 X0.5S200
G1 X0.1S0
G1 X2S200
G1 X0.1S0
G1 X0.2S200
G1 X0.1S0
G1 X0.6S200
G1 X0.1S0
G1 X0.2S200
G1 X0.1S0
G1 X2.5S200
G1 X0.1S0
G1 X0.5S200
G1 X0.1S0
G1 X1.4S200
G1 X0.1S0
G1 X1.2S200
G1 X0.1S0
G1 X0.6S200
G1 X0.1S0
G1 X0.2S200
G1 X0.1S0
G1 X0.3S200
G1 X0.1S0
G1 X0.2S200
G1 X0.1S0
G1 X0.8S200
G1 X0.1S0
G1 X0.8S200
G1 X0.1S0
G1 X3.8S200
G1 X0.1S0
G1 X3.8S200
G1 X8.2S0
G1 X2.1S200
G1 X0.1S0
G1 X1S200
G1 X0.3S0
G1 X0.1S200
G1 X0.2S0
G1 X0.1S200
G1 X0.2S0
G1 X16.5S200
G1 X0.1S0
G1 X2.1S200
G1 X0.1S0
G1 X0.1S200
G1 X0.1S0
G1 X2.3S200
G1 X30.8S0
G1 X5S200
G1 X2.5S0
G1 Y0.1
G1 X-2.5
G1 X-2.1S200
G1 X-0.1S0
G1 X-2.8S200
G1 X-30.8S0
G1 X-2.2S200
G1 X-0.2S0
G1 X-18.9S200
G1 X-0.2S0
G1 X-0.1S200
G1 X-0.1S0
G1 X-0.1S200
G1 X-0.2S0
G1 X-0.1S200
G1 X-0.3S0
G1 X-3S200
G1 X-8.4S0
G1 X-0.8S200
G1 X-0.1S0
G1 X-0.4S200
G1 X-0.1S0
G1 X-0.5S200
G1 X-0.1S0
G1 X-0.2S200
G1 X-0.1S0
G1 X-0.7S200
G1 X-0.1S0
G1 X-0.2S200
G1 X-0.1S0
G1 X-0.8S200
G1 X-0.1S0
G1 X-0.4S200
G1 X-0.1S0
G1 X-1.6S200
G1 X-0.1S0
G1 X-0.2S200
G1 X-0.1S0
G1 X-0.2S200
G1 X-0.1S0
G1 X-1S200
G1 X-0.1S0
G1 X-2.5S200
G1 X-0.1S0
G1 X-0.7S200
G1 X-0.1S0
G1 X-1S200
G1 X-0.1S0
G1 X-0.8S200
G1 X-0.1S0
G1 X-2.2S200
G1 X-0.1S0
G1 X-0.2S200
G1 X-0.1S0
G1 X-0.5S200
G1 X-0.1S0
G1 X-0.8S200
G1 X-0.1S0
G1 X-1.9S200
G1 X-0.1S0
G1 X-0.4S200
G1 X-0.1S0
G1 X-2.7S200
G1 X-0.1S0
G1 X-0.4S200
G1 X-0.1S0
G1 X-1S200
G1 X-0.1S0
G1 X-1.6S200
G1 X-0.1S0
G1 X-0.2S200
G1 X-0.1S0
G1 X-0.2S200
G1 X-0.1S0
G1 X-0.2S200
G1 X-0.1S0
G1 X-0.2S200
G1 X-0.1S0
G1 X-0.5S200
G1 X-0.1S0
G1 X-1.2S200
G1 X-0.1S0
G1 X-2.2S200
G1 X-0.1S0
G1 X-0.8S200
G1 X-0.1S0
G1 X-0.8S200
G1 X-0.1S0
G1 X-1.3S200
G1 X-0.1S0
G1 X-0.9S200
G1 X-0.1S0
G1 X-2.2S200
G1 X-0.1S0
G1 X-4S200
G1 X-19.6S0
G1 X-0.1S200
G1 X-2.5S0
G1 X-0.6Y0.1
G1 X2.5
G1 X1S200
G1 X5.7S0
G1 X1.6S200
G1 X12.1S0
G1 X3.5S200
G1 X0.1S0
G1 X0.7S200
G1 X0.1S0
G1 X0.2S200
G1 X0.1S0
G1 X0.6S200
G1 X0.1S0
G1 X0.5S200
G1 X0.1S0
G1 X2.9S200
G1 X0.1S0
G1 X0.2S200
G1 X0.1S0
G1 X0.6S200
G1 X0.1S0
G1 X0.8S200
G1 X0.1S0
G1 X1.4S200
G1 X0.1S0
G1 X1.3S200
G1 X0.1S0
G1 X2.6S200
G1 X0.1S0
G1 X1.3S200
G1 X0.1S0
G1 X1.6S200
G1 X0.1S0
G1 X3.1S200
G1 X0.1S0
G1 X0.5S200
G1 X0.1S0
G1 X2.2S200
G1 X0.1S0
G1 X0.9S200
G1 X0.1S0
G1 X0.2S200
G1 X0.1S0
G1 X0.2S200
G1 X0.1S0
G1 X0.6S200
G1 X0.1S0
G1 X2.1S200
G1 X0.1S0
G1 X0.6S200
G1 X0.1S0
G1 X2.1S200
G1 X0.1S0
G1 X1.1S200
G1 X0.1S0
G1 X1.6S200
G1 X0.1S0
G1 X0.2S200
G1 X0.1S0
G1 X0.7S200
G1 X0.1S0
G1 X2.2S200
G1 X0.1S0
G1 X1S200
G1 X0.1S0
G1 X1.1S200
G1 X0.1S0
G1 X0.2S200
G1 X0.1S0
G1 X0.1S200
G1 X8.4S0
G1 X2.9S200
G1 X0.3S0
G1 X0.1S200
G1 X0.1S0
G1 X0.1S200
G1 X0.2S0
G1 X0.1S200
G1 X0.2S0
G1 X15.3S200
G1 X0.1S0
G1 X3.6S200
G1 X0.3S0
G1 X2.1S200
G1 X30.8S0
G1 X2.8S200
G1 X0.1S0
G1 X2.2S200
G1 X2.5S0
G1 Y0.1
G1 X-2.5
G1 X-1.5S200
G1 X-0.1S0
G1 X-0.5S200
G1 X-0.2S0
G1 X-2.8S200
G1 X-30.7S0
G1 X-2.1S200
G1 X-0.3S0
G1 X-3.5S200
G1 X-0.2S0
G1 X-15.3S200
G1 X-0.3S0
G1 X-0.1S200
G1 X-0.2S0
G1 X-0.1S200
G1 X-0.2S0
G1 X-0.2S200
G1 X-0.2S0
G1 X-2.8S200
G1 X-8.4S0
G1 X-1S200
G1 X-0.1S0
G1 X-1.3S200
G1 X-0.1S0
G1 X-1.6S200
G1 X-0.1S0
G1 X-0.3S200
G1 X-0.1S0
G1 X-0.9S200
G1 X-0.1S0
G1 X-3.1S200
G1 X-0.1S0
G1 X-0.6S200
G1 X-0.1S0
G1 X-0.4S200
G1 X-0.1S0
G1 X-0.4S200
G1 X-0.1S0
G1 X-1.7S200
G1 X-0.1S0
G1 X-0.5S200
G1 X-0.1S0
G1 X-1.6S200
G1 X-0.1S0
G1 X-2.5S200
G1 X-0.1S0
G1 X-0.8S200
G1 X-0.1S0
G1 X-0.3S200
G1 X-0.1S0
G1 X-0.5S200
G1 X-0.1S0
G1 X-0.8S200
G1 X-0.1S0
G1 X-0.4S200
G1 X-0.1S0
G1 X-0.2S200
G1 X-0.1S0
G1 X-0.2S200
G1 X-0.1S0
G1 X-0.4S200
G1 X-0.1S0
G1 X-0.2S200
G1 X-0.1S0
G1 X-0.2S200
G1 X-0.1S0
G1 X-0.9S200
G1 X-0.1S0
G1 X-0.7S200
G1 X-0.1S0
G1 X-0.8S200
G1 X-0.1S0
G1 X-2.8S200
G1 X-0.1S0
G1 X-1S200
G1 X-0.1S0
G1 X-1.1S200
G1 X-0.1S0
G1 X-1.7S200
G1 X-0.1S0
G1 X-2S200
G1 X-0.1S0
G1 X-0.2S200
G1 X-0.1S0
G1 X-0.2S200
G1 X-0.1S0
G1 X-0.4S200
G1 X-0.1S0
G1 X-0.2S200
G1 X-0.1S0
G1 X-1S200
G1 X-0.1S0
G1 X-0.5S200
G1 X-0.1S0
G1 X-1.3S200
G1 X-0.1S0
G1 X-1.4S200
G1 X-0.1S0
G1 X-2S200
G1 X-12S0
G1 X-2.1S200
G1 X-5.4S0
G1 X-1.3S200
G1 X-2.5S0
G1 Y0.1
G1 X2.5
G1 X1.3S200
G1 X5.2S0
G1 X2.6S200
G1 X11.8S0
G1 X1.6S200
G1 X0.1S0
G1 X1.9S200
G1 X0.1S0
G1 X2.5S200
G1 X0.1S0
G1 X1.9S200
G1 X0.1S0
G1 X1.1S200
G1 X0.1S0
G1 X1.4S200
G1 X0.1S0
G1 X0.2S200
G1 X0.1S0
G1 X0.2S200
G1 X0.1S0
G1 X0.8S200
G1 X0.1S0
G1 X0.8S200
G1 X0.1S0
G1 X1.1S200
G1 X0.1S0
G1 X0.3S200
G1 X0.1S0
G1 X0.3S200
G1 X0.1S0
G1 X0.4S200
G1 X0.1S0
G1 X0.6S200
G1 X0.1S0
G1 X1.6S200
G1 X0.1S0
G1 X5.8S200
G1 X0.1S0
G1 X0.9S200
G1 X0.1S0
G1 X0.8S200
G1 X0.1S0
G1 X1.9S200
G1 X0.1S0
G1 X0.2S200
G1 X0.1S0
G1 X0.2S200
G1 X0.1S0
G1 X1.5S200
G1 X0.1S0
G1 X0.6S200
G1 X0.1S0
G1 X2.4S200
G1 X0.1S0
G1 X0.2S200
G1 X0.1S0
G1 X0.5S200
G1 X0.1S0
G1 X0.9S200
G1 X0.1S0
G1 X1.2S200
G1 X0.1S0
G1 X1.6S200
G1 X0.1S0
G1 X3.5S200
G1 X8.4S0
G1 X2.7S200
G1 X0.2S0
G1 X0.1S200
G1 X0.3S0
G1 X0.1S200
G1 X0.2S0
G1 X0.1S200
G1 X0.1S0
G1 X0.1S200
G1 X0.2S0
G1 X14.8S200
G1 X0.1S0
G1 X0.5S200
G1 X0.2S0
G1 X3.5S200
G1 X0.2S0
G1 X2.1S200
G1 X30.7S0
G1 X3S200
G1 X0.1S0
G1 X2S200
G1 X2.5S0
G1 X0.1Y0.1
G1 X-2.5
G1 X-2S200
G1 X-0.1S0
G1 X-3.1S200
G1 X-30.6S0
G1 X-2.1S200
G1 X-0.1S0
G1 X-0.1S200
G1 X-0.1S0
G1 X-3.4S200
G1 X-0.2S0
G1 X-15.5S200
G1 X-0.1S0
G1 X-0.1S200
G1 X-0.1S0
G1 X-0.1S200
G1 X-0.2S0
G1 X-0.1S200
G1 X-0.2S0
G1 X-0.1S200
G1 X-0.2S0
G1 X-0.1S200
G1 X-0.2S0
G1 X-2.6S200
G1 X-8.4S0
G1 X-0.4S200
G1 X-0.1S0
G1 X-0.2S200
G1 X-0.1S0
G1 X-0.6S200
G1 X-0.1S0
G1 X-0.3S200
G1 X-0.1S0
G1 X-0.2S200
G1 X-0.1S0
G1 X-0.7S200
G1 X-0.1S0
G1 X-0.2S200
G1 X-0.1S0
G1 X-0.9S200
G1 X-0.1S0
G1 X-1.8S200
G1 X-0.1S0
G1 X-0.8S200
G1 X-0.1S0
G1 X-2S200
G1 X-0.1S0
G1 X-0.5S200
G1 X-0.1S0
G1 X-0.4S200
G1 X-0.1S0
G1 X-0.9S200
G1 X-0.1S0
G1 X-1.2S200
G1 X-0.1S0
G1 X-1.6S200
G1 X-0.1S0
G1 X-0.6S200
G1 X-0.1S0
G1 X-0.5S200
G1 X-0.1S0
G1 X-0.6S200
G1 X-0.1S0
G1 X-1.1S200
G1 X-0.1S0
G1 X-1.9S200
G1 X-0.1S0
G1 X-0.2S200
G1 X-0.1S0
G1 X-1.5S200
G1 X-0.1S0
G1 X-1.1S200
G1 X-0.1S0
G1 X-0.2S200
G1 X-0.1S0
G1 X-0.4S200
G1 X-0.1S0
G1 X-0.8S200
G1 X-0.1S0
G1 X-0.2S200
G1 X-0.1S0
G1 X-0.4S200
G1 X-0.1S0
G1 X-0.6S200
G1 X-0.1S0
G1 X-2.2S200
G1 X-0.1S0
G1 X-1S200
G1 X-0.1S0
G1 X-2S200
G1 X-0.1S0
G1 X-0.2S200
G1 X-0.1S0
G1 X-1.3S200
G1 X-0.1S0
G1 X-0.3S200
G1 X-0.1S0
G1 X-2.5S200
G1 X-0.1S0
G1 X-1.4S200
G1 X-0.1S0
G1 X-0.4S200
G1 X-0.1S0
G1 X-2.7S200
G1 X-0.1S0
G1 X-0.6S200
G1 X-0.1S0
G1 X-0.4S200
G1 X-11.6S0
G1 X-3.2S200
G1 X-4.8S0
G1 X-1.4S200
G1 X-2.5S0
G1 X0.1Y0.1
G1 X2.5
G1 X1.3S200
G1 X4.2S0
G1 X4.1S200
G1 X11.4S0
G1 X2.8S200
G1 X0.1S0
G1 X1.7S200
G1 X0.1S0
G1 X0.2S200
G1 X0.1S0
G1 X0.2S200
G1 X0.1S0
G1 X1.4S200
G1 X0.1S0
G1 X0.2S200
G1 X0.1S0
G1 X0.4S200
G1 X0.1S0
G1 X2S200
G1 X0.1S0
G1 X0.2S200
G1 X0.1S0
G1 X1.9S200
G1 X0.1S0
G1 X0.9S200
G1 X0.1S0
G1 X1S200
G1 X0.1S0
G1 X1.4S200
G1 X0.1S0
G1 X3.9S200
G1 X0.1S0
G1 X0.4S200
G1 X0.1S0
G1 X0.8S200
G1 X0.1S0
G1 X0.4S200
G1 X0.1S0
G1 X0.2S200
G1 X0.1S0
G1 X1S200
G1 X0.1S0
G1 X0.2S200
G1 X0.1S0
G1 X0.2S200
G1 X0.1S0
G1 X1.1S200
G1 X0.1S0
G1 X1.8S200
G1 X0.1S0
G1 X0.6S200
G1 X0.1S0
G1 X2.3S200
G1 X0.1S0
G1 X1.4S200
G1 X0.1S0
G1 X1.1S200
G1 X0.1S0
G1 X0.6S200
G1 X0.1S0
G1 X0.8S200
G1 X0.1S0
G1 X1S200
G1 X0.1S0
G1 X0.8S200
G1 X0.1S0
G1 X0.2S200
G1 X0.1S0
G1 X0.5S200
G1 X0.1S0
G1 X0.2S200
G1 X0.1S0
G1 X1.9S200
G1 X0.1S0
G1 X1.4S200
G1 X0.1S0
G1 X1.1S200
G1 X8.4S0
G1 X2.5S200
G1 X0.2S0
G1 X0.1S200
G1 X0.2S0
G1 X0.2S200
G1 X0.2S0
G1 X0.1S200
G1 X0.2S0
G1 X0.1S200
G1 X0.2S0
G1 X15.7S200
G1 X0.1S0
G1 X3.5S200
G1 X0.2S0
G1 X2.1S200
G1 X30.6S0
G1 X3.2S200
G1 X0.1S0
G1 X2S200
G1 X2.5S0
G1 Y0.1
G1 X-2.5
G1 X-2S200
G1 X-0.1S0
G1 X-0.5S200
G1 X-0.2S0
G1 X-2.5S200
G1 X-30.6S0
G1 X-2.1S200
G1 X-0.2S0
G1 X-3.3S200
G1 X-0.2S0
G1 X-0.5S200
G1 X-0.1S0
G1 X-15.1S200
G1 X-0.2S0
G1 X-0.1S200
G1 X-0.2S0
G1 X-0.1S200
G1 X-0.2S0
G1 X-0.1S200
G1 X-0.2S0
G1 X-0.1S200
G1 X-0.2S0
G1 X-0.1S200
G1 X-0.2S0
G1 X-2.4S200
G1 X-8.4S0
G1 X-2.3S200
G1 X-0.1S0
G1 X-1.1S200
G1 X-0.1S0
G1 X-0.5S200
G1 X-0.1S0
G1 X-4S200
G1 X-0.1S0
G1 X-1.6S200
G1 X-0.1S0
G1 X-1.5S200
G1 X-0.1S0
G1 X-0.2S200
G1 X-0.1S0
G1 X-1.5S200
G1 X-0.1S0
G1 X-0.4S200
G1 X-0.1S0
G1 X-1.9S200
G1 X-0.1S0
G1 X-0.5S200
G1 X-0.1S0
G1 X-0.2S200
G1 X-0.1S0
G1 X-0.8S200
G1 X-0.1S0
G1 X-0.2S200
G1 X-0.1S0
G1 X-5.5S200
G1 X-0.1S0
G1 X-0.2S200
G1 X-0.1S0
G1 X-1.4S200
G1 X-0.1S0
G1 X-1S200
G1 X-0.1S0
G1 X-0.2S200
G1 X-0.1S0
G1 X-0.2S200
G1 X-0.1S0
G1 X-0.2S200
G1 X-0.1S0
G1 X-0.9S200
G1 X-0.1S0
G1 X-1S200
G1 X-0.1S0
G1 X-0.6S200
G1 X-0.1S0
G1 X-0.4S200
G1 X-0.1S0
G1 X-1.8S200
G1 X-0.1S0
G1 X-0.9S200
G1 X-0.1S0
G1 X-0.2S200
G1 X-0.1S0
G1 X-1.4S200
G1 X-0.1S0
G1 X-0.7S200
G1 X-0.1S0
G1 X-1.4S200
G1 X-0.1S0
G1 X-0.3S200
G1 X-0.1S0
G1 X-3.5S200
G1 X-11.5S0
G1 X-4.7S200
G1 X-4.1S0
G1 X-0.6S200
G1 X-2.5S0
G1 X4.5Y0.1
G1 X2.5
G1 X5.1S200
G1 X11.4S0
G1 X5.6S200
G1 X0.1S0
G1 X1.3S200
G1 X0.1S0
G1 X1.2S200
G1 X0.1S0
G1 X0.2S200
G1 X0.1S0
G1 X0.5S200
G1 X0.1S0
G1 X1S200
G1 X0.1S0
G1 X2S200
G1 X0.1S0
G1 X0.9S200
G1 X0.1S0
G1 X2.1S200
G1 X0.1S0
G1 X0.7S200
G1 X0.1S0
G1 X0.2S200
G1 X0.1S0
G1 X0.2S200
G1 X0.1S0
G1 X1.2S200
G1 X0.1S0
G1 X0.2S200
G1 X0.1S0
G1 X0.3S200
G1 X0.1S0
G1 X0.5S200
G1 X0.1S0
G1 X0.4S200
G1 X0.1S0
G1 X0.2S200
G1 X0.1S0
G1 X0.5S200
G1 X0.1S0
G1 X1S200
G1 X0.1S0
G1 X0.2S200
G1 X0.1S0
G1 X2.8S200
G1 X0.1S0
G1 X1.3S200
G1 X0.1S0
G1 X2.1S200
G1 X0.1S0
G1 X1.4S200
G1 X0.1S0
G1 X0.2S200
G1 X0.1S0
G1 X0.4S200
G1 X0.1S0
G1 X1.2S200
G1 X0.1S0
G1 X1.4S200
G1 X0.1S0
G1 X0.4S200
G1 X0.1S0
G1 X0.5S200
G1 X0.1S0
G1 X0.2S200
G1 X0.1S0
G1 X0.8S200
G1 X0.1S0
G1 X2.1S200
G1 X0.1S0
G1 X1.1S200
G1 X0.1S0
G1 X0.2S200
G1 X0.1S0
G1 X0.6S200
G1 X0.1S0
G1 X0.4S200
G1 X0.1S0
G1 X0.3S200
G1 X8.4S0
G1 X2.4S200
G1 X0.2S0
G1 X0.1S200
G1 X0.2S0
G1 X0.1S200
G1 X0.2S0
G1 X0.1S200
G1 X0.2S0
G1 X0.1S200
G1 X0.2S0
G1 X0.1S200
G1 X0.2S0
G1 X15.2S200
G1 X0.1S0
G1 X0.5S200
G1 X0.1S0
G1 X3.4S200
G1 X0.1S0
G1 X2.1S200
G1 X30.6S0
G1 X2.4S200
G1 X0.3S0
G1 X0.8S200
G1 X0.1S0
G1 X0.5S200
G1 X0.2S0
G1 X1S200
G1 X2.5S0
G1 Y0.1
G1 X-2.5
G1 X-1.1S200
G1 X-0.2S0
G1 X-1.2S200
G1 X-0.1S0
G1 X-0.1S200
G1 X-0.2S0
G1 X-2.4S200
G1 X-30.6S0
G1 X-21.5S200
G1 X-0.1S0
G1 X-0.1S200
G1 X-0.2S0
G1 X-0.1S200
G1 X-0.1S0
G1 X-0.1S200
G1 X-0.2S0
G1 X-0.1S200
G1 X-0.2S0
G1 X-0.1S200
G1 X-0.2S0
G1 X-0.1S200
G1 X-0.1S0
G1 X-2.4S200
G1 X-8.4S0
G1 X-1.2S200
G1 X-0.1S0
G1 X-1.3S200
G1 X-0.1S0
G1 X-1.5S200
G1 X-0.1S0
G1 X-0.2S200
G1 X-0.1S0
G1 X-0.2S200
G1 X-0.1S0
G1 X-0.6S200
G1 X-0.1S0
G1 X-2.3S200
G1 X-0.1S0
G1 X-0.6S200
G1 X-0.1S0
G1 X-0.8S200
G1 X-0.1S0
G1 X-2.7S200
G1 X-0.1S0
G1 X-1.3S200
G1 X-0.1S0
G1 X-0.5S200
G1 X-0.1S0
G1 X-0.9S200
G1 X-0.1S0
G1 X-0.2S200
G1 X-0.1S0
G1 X-1.7S200
G1 X-0.1S0
G1 X-0.8S200
G1 X-0.1S0
G1 X-1.5S200
G1 X-0.1S0
G1 X-0.8S200
G1 X-0.1S0
G1 X-3.3S200
G1 X-0.1S0
G1 X-1.3S200
G1 X-0.1S0
G1 X-2S200
G1 X-0.1S0
G1 X-2.1S200
G1 X-0.1S0
G1 X-0.4S200
G1 X-0.1S0
G1 X-0.4S200
G1 X-0.1S0
G1 X-0.7S200
G1 X-0.1S0
G1 X-3.3S200
G1 X-0.1S0
G1 X-0.4S200
G1 X-0.1S0
G1 X-1.7S200
G1 X-0.1S0
G1 X-4.1S200
G1 X-11.2S0
G1 X-5.6S200
G1 X-2.5S0
G1 X-0.1Y0.1
G1 X2.5
G1 X5.8S200
G1 X11.2S0
G1 X3.3S200
G1 X0.1S0
G1 X0.2S200
G1 X0.1S0
G1 X0.6S200
G1 X0.1S0
G1 X0.2S200
G1 X0.1S0
G1 X0.2S200
G1 X0.1S0
G1 X0.2S200
G1 X0.1S0
G1 X1.3S200
G1 X0.1S0
G1 X0.5S200
G1 X0.1S0
G1 X0.4S200
G1 X0.1S0
G1 X1.6S200
G1 X0.1S0
G1 X0.5S200
G1 X0.1S0
G1 X1.7S200
G1 X0.1S0
G1 X0.7S200
G1 X0.1S0
G1 X0.2S200
G1 X0.1S0
G1 X2S200
G1 X0.1S0
G1 X2.5S200
G1 X0.1S0
G1 X1.5S200
G1 X0.1S0
G1 X1.9S200
G1 X0.1S0
G1 X0.5S200
G1 X0.1S0
G1 X0.7S200
G1 X0.1S0
G1 X1S200
G1 X0.1S0
G1 X0.5S200
G1 X0.1S0
G1 X0.5S200
G1 X0.1S0
G1 X2.4S200
G1 X0.1S0
G1 X0.6S200
G1 X0.1S0
G1 X1.2S200
G1 X0.1S0
G1 X0.3S200
G1 X0.1S0
G1 X1S200
G1 X0.1S0
G1 X0.4S200
G1 X0.1S0
G1 X1.6S200
G1 X0.1S0
G1 X1.5S200
G1 X0.1S0
G1 X0.8S200
G1 X0.1S0
G1 X2.2S200
G1 X0.1S0
G1 X0.2S200
G1 X0.1S0
G1 X0.9S200
G1 X0.1S0
G1 X1.5S200
G1 X0.1S0
G1 X0.6S200
G1 X8.4S0
G1 X2.4S200
G1 X0.2S0
G1 X0.1S200
G1 X0.1S0
G1 X0.1S200
G1 X0.2S0
G1 X0.1S200
G1 X0.2S0
G1 X0.1S200
G1 X0.2S0
G1 X0.1S200
G1 X0.2S0
G1 X15.5S200
G1 X0.1S0
G1 X0.4S200
G1 X0.1S0
G1 X5.5S200
G1 X30.6S0
G1 X2.6S200
G1 X0.2S0
G1 X1.2S200
G1 X0.2S0
G1 X1.1S200
G1 X2.5S0
G1 Y0.1
G1 X-2.5
G1 X-1.2S200
G1 X-0.1S0
G1 X-4S200
G1 X-30.6S0
G1 X-5.4S200
G1 X-0.1S0
G1 X-16S200
G1 X-0.1S0
G1 X-0.1S200
G1 X-0.2S0
G1 X-0.1S200
G1 X-0.2S0
G1 X-0.1S200
G1 X-0.1S0
G1 X-0.1S200
G1 X-0.2S0
G1 X-0.1S200
G1 X-0.2S0
G1 X-0.1S200
G1 X-0.1S0
G1 X-2.4S200
G1 X-8.5S0
G1 X-0.8S200
G1 X-0.1S0
G1 X-0.9S200
G1 X-0.1S0
G1 X-3.1S200
G1 X-0.1S0
G1 X-1.2S200
G1 X-0.1S0
G1 X-0.5S200
G1 X-0.1S0
G1 X-0.5S200
G1 X-0.1S0
G1 X-1.2S200
G1 X-0.1S0
G1 X-0.2S200
G1 X-0.1S0
G1 X-0.4S200
G1 X-0.1S0
G1 X-1S200
G1 X-0.1S0
G1 X-0.4S200
G1 X-0.1S0
G1 X-1.3S200
G1 X-0.1S0
G1 X-1.7S200
G1 X-0.1S0
G1 X-0.2S200
G1 X-0.1S0
G1 X-0.2S200
G1 X-0.1S0
G1 X-0.8S200
G1 X-0.1S0
G1 X-0.7S200
G1 X-0.1S0
G1 X-1.1S200
G1 X-0.1S0
G1 X-0.4S200
G1 X-0.1S0
G1 X-2.5S200
G1 X-0.1S0
G1 X-0.4S200
G1 X-0.1S0
G1 X-0.2S200
G1 X-0.1S0
G1 X-0.5S200
G1 X-0.1S0
G1 X-0.2S200
G1 X-0.1S0
G1 X-0.3S200
G1 X-0.1S0
G1 X-0.2S200
G1 X-0.1S0
G1 X-1.7S200
G1 X-0.1S0
G1 X-0.7S200
G1 X-0.1S0
G1 X-0.6S200
G1 X-0.1S0
G1 X-0.2S200
G1 X-0.1S0
G1 X-0.2S200
G1 X-0.1S0
G1 X-0.7S200
G1 X-0.1S0
G1 X-1S200
G1 X-0.1S0
G1 X-0.7S200
G1 X-0.1S0
G1 X-2.1S200
G1 X-0.1S0
G1 X-0.2S200
G1 X-0.1S0
G1 X-0.2S200
G1 X-0.1S0
G1 X-0.4S200
G1 X-0.1S0
G1 X-1S200
G1 X-0.1S0
G1 X-4.6S200
G1 X-0.1S0
G1 X-2.2S200
G1 X-11S0
G1 X-6.1S200
G1 X-2.5S0
G1 Y0.1
G1 X2.5
G1 X6.1S200
G1 X11.1S0
G1 X0.3S200
G1 X0.1S0
G1 X3.4S200
G1 X0.1S0
G1 X1.5S200
G1 X0.1S0
G1 X0.3S200
G1 X0.1S0
G1 X0.2S200
G1 X0.1S0
G1 X1.1S200
G1 X0.1S0
G1 X2.8S200
G1 X0.1S0
G1 X0.3S200
G1 X0.1S0
G1 X0.2S200
G1 X0.1S0
G1 X1.3S200
G1 X0.1S0
G1 X1S200
G1 X0.1S0
G1 X2S200
G1 X0.1S0
G1 X0.7S200
G1 X0.1S0
G1 X0.2S200
G1 X0.1S0
G1 X0.2S200
G1 X0.1S0
G1 X0.2S200
G1 X0.1S0
G1 X3.4S200
G1 X0.1S0
G1 X1.2S200
G1 X0.1S0
G1 X0.2S200
G1 X0.1S0
G1 X3.2S200
G1 X0.1S0
G1 X2S200
G1 X0.1S0
G1 X1.2S200
G1 X0.1S0
G1 X4.2S200
G1 X0.1S0
G1 X1.8S200
G1 X0.1S0
G1 X3.1S200
G1 X0.1S0
G1 X0.2S200
G1 X0.1S0
G1 X0.9S200
G1 X0.1S0
G1 X0.2S200
G1 X0.1S0
G1 X0.9S200
G1 X0.1S0
G1 X0.2S200
G1 X8.5S0
G1 X2.4S200
G1 X0.2S0
G1 X0.1S200
G1 X0.2S0
G1 X0.1S200
G1 X0.2S0
G1 X0.1S200
G1 X0.2S0
G1 X0.1S200
G1 X0.2S0
G1 X0.1S200
G1 X0.2S0
G1 X15.5S200
G1 X0.1S0
G1 X5.9S200
G1 X30.6S0
G1 X4S200
G1 X0.1S0
G1 X1.4S200
G1 X2.5S0
G1 X0.1Y0.1
G1 X-2.5
G1 X-1.5S200
G1 X-0.1S0
G1 X-4S200
G1 X-30.4S0
G1 X-6.1S200
G1 X-0.1S0
G1 X-15.6S200
G1 X-0.2S0
G1 X-0.1S200
G1 X-0.1S0
G1 X-0.1S200
G1 X-0.2S0
G1 X-0.1S200
G1 X-0.2S0
G1 X-0.1S200
G1 X-0.2S0
G1 X-0.1S200
G1 X-0.2S0
G1 X-2.3S200
G1 X-8.7S0
G1 X-2.1S200
G1 X-0.1S0
G1 X-1.2S200
G1 X-0.1S0
G1 X-0.8S200
G1 X-0.1S0
G1 X-0.2S200
G1 X-0.1S0
G1 X-0.5S200
G1 X-0.1S0
G1 X-0.2S200
G1 X-0.1S0
G1 X-2.5S200
G1 X-0.1S0
G1 X-0.2S200
G1 X-0.1S0
G1 X-1.4S200
G1 X-0.1S0
G1 X-0.2S200
G1 X-0.1S0
G1 X-0.6S200
G1 X-0.1S0
G1 X-0.4S200
G1 X-0.1S0
G1 X-0.2S200
G1 X-0.1S0
G1 X-1.2S200
G1 X-0.1S0
G1 X-0.9S200
G1 X-0.1S0
G1 X-1.1S200
G1 X-0.1S0
G1 X-0.9S200
G1 X-0.1S0
G1 X-0.7S200
G1 X-0.1S0
G1 X-0.2S200
G1 X-0.1S0
G1 X-2.1S200
G1 X-0.1S0
G1 X-0.2S200
G1 X-0.1S0
G1 X-0.2S200
G1 X-0.1S0
G1 X-1S200
G1 X-0.1S0
G1 X-4S200
G1 X-0.1S0
G1 X-0.9S200
G1 X-0.1S0
G1 X-1S200
G1 X-0.1S0
G1 X-0.8S200
G1 X-0.1S0
G1 X-1.1S200
G1 X-0.1S0
G1 X-1.8S200
G1 X-0.1S0
G1 X-0.2S200
G1 X-0.1S0
G1 X-1.2S200
G1 X-0.1S0
G1 X-1.5S200
G1 X-0.1S0
G1 X-1.4S200
G1 X-0.1S0
G1 X-0.4S200
G1 X-0.1S0
G1 X-0.3S200
G1 X-0.1S0
G1 X-4S200
G1 X-11S0
G1 X-6.3S200
G1 X-2.5S0
G1 Y0.1
G1 X2.5
G1 X6.4S200
G1 X10.9S0
G1 X0.9S200
G1 X0.1S0
G1 X2.5S200
G1 X0.1S0
G1 X3.3S200
G1 X0.1S0
G1 X0.5S200
G1 X0.1S0
G1 X0.9S200
G1 X0.1S0
G1 X0.4S200
G1 X0.1S0
G1 X2.1S200
G1 X0.1S0
G1 X0.6S200
G1 X0.1S0
G1 X2.1S200
G1 X0.1S0
G1 X0.2S200
G1 X0.1S0
G1 X0.5S200
G1 X0.1S0
G1 X2.3S200
G1 X0.1S0
G1 X0.3S200
G1 X0.1S0
G1 X0.3S200
G1 X0.1S0
G1 X0.5S200
G1 X0.1S0
G1 X0.2S200
G1 X0.1S0
G1 X1S200
G1 X0.1S0
G1 X2.2S200
G1 X0.1S0
G1 X0.2S200
G1 X0.1S0
G1 X0.2S200
G1 X0.1S0
G1 X0.2S200
G1 X0.1S0
G1 X0.8S200
G1 X0.1S0
G1 X0.7S200
G1 X0.1S0
G1 X1.1S200
G1 X0.1S0
G1 X0.9S200
G1 X0.1S0
G1 X1.2S200
G1 X0.1S0
G1 X1.8S200
G1 X0.1S0
G1 X0.9S200
G1 X0.1S0
G1 X0.2S200
G1 X0.1S0
G1 X0.3S200
G1 X0.1S0
G1 X1.2S200
G1 X0.1S0
G1 X0.8S200
G1 X0.1S0
G1 X0.2S200
G1 X0.1S0
G1 X3.1S200
G1 X0.1S0
G1 X1.3S200
G1 X0.1S0
G1 X0.8S200
G1 X0.1S0
G1 X0.3S200
G1 X0.1S0
G1 X0.4S200
G1 X8.7S0
G1 X2.3S200
G1 X0.1S0
G1 X0.1S200
G1 X0.1S0
G1 X0.1S200
G1 X0.1S0
G1 X0.1S200
G1 X0.2S0
G1 X0.1S200
G1 X0.1S0
G1 X0.1S200
G1 X0.2S0
G1 X0.1S200
G1 X0.3S0
G1 X15.6S200
G1 X0.2S0
G1 X6S200
G1 X30.3S0
G1 X5.7S200
G1 X2.5S0
G1 Y0.1
G1 X-2.5
G1 X-5.7S200
G1 X-30.3S0
G1 X-5.9S200
G1 X-0.2S0
G1 X-15.7S200
G1 X-0.1S0
G1 X-0.1S200
G1 X-0.1S0
G1 X-0.1S200
G1 X-0.2S0
G1 X-0.1S200
G1 X-0.2S0
G1 X-0.1S200
G1 X-0.1S0
G1 X-0.1S200
G1 X-0.2S0
G1 X-0.1S200
G1 X-0.2S0
G1 X-2.3S200
G1 X-8.7S0
G1 X-1.2S200
G1 X-0.1S0
G1 X-1.5S200
G1 X-0.1S0
G1 X-1.2S200
G1 X-0.1S0
G1 X-0.7S200
G1 X-0.1S0
G1 X-0.9S200
G1 X-0.1S0
G1 X-6S200
G1 X-0.1S0
G1 X-1.2S200
G1 X-0.1S0
G1 X-1S200
G1 X-0.1S0
G1 X-1.1S200
G1 X-0.1S0
G1 X-0.7S200
G1 X-0.1S0
G1 X-2.7S200
G1 X-0.1S0
G1 X-1.2S200
G1 X-0.1S0
G1 X-1S200
G1 X-0.1S0
G1 X-0.8S200
G1 X-0.1S0
G1 X-1.3S200
G1 X-0.1S0
G1 X-0.5S200
G1 X-0.1S0
G1 X-0.3S200
G1 X-0.1S0
G1 X-0.7S200
G1 X-0.1S0
G1 X-1.9S200
G1 X-0.1S0
G1 X-0.2S200
G1 X-0.1S0
G1 X-0.6S200
G1 X-0.1S0
G1 X-1.7S200
G1 X-0.1S0
G1 X-0.2S200
G1 X-0.1S0
G1 X-0.2S200
G1 X-0.1S0
G1 X-2S200
G1 X-0.1S0
G1 X-1.8S200
G1 X-0.1S0
G1 X-0.3S200
G1 X-0.1S0
G1 X-0.2S200
G1 X-0.1S0
G1 X-0.5S200
G1 X-0.1S0
G1 X-3S200
G1 X-0.1S0
G1 X-1.4S200
G1 X-11S0
G1 X-6.3S200
G1 X-2.5S0
G1 Y0.1
G1 X2.5
G1 X6.3S200
G1 X11S0
G1 X2.5S200
G1 X0.1S0
G1 X1S200
G1 X0.1S0
G1 X0.2S200
G1 X0.1S0
G1 X0.2S200
G1 X0.1S0
G1 X1.8S200
G1 X0.1S0
G1 X0.2S200
G1 X0.1S0
G1 X0.6S200
G1 X0.1S0
G1 X0.8S200
G1 X0.1S0
G1 X0.6S200
G1 X0.1S0
G1 X0.7S200
G1 X0.1S0
G1 X1.1S200
G1 X0.1S0
G1 X0.7S200
G1 X0.1S0
G1 X0.9S200
G1 X0.1S0
G1 X1S200
G1 X0.1S0
G1 X1.9S200
G1 X0.1S0
G1 X1S200
G1 X0.1S0
G1 X2.8S200
G1 X0.1S0
G1 X1.1S200
G1 X0.1S0
G1 X0.5S200
G1 X0.1S0
G1 X0.5S200
G1 X0.1S0
G1 X3.5S200
G1 X0.1S0
G1 X0.2S200
G1 X0.1S0
G1 X0.8S200
G1 X0.1S0
G1 X2.5S200
G1 X0.1S0
G1 X0.2S200
G1 X0.1S0
G1 X0.2S200
G1 X0.1S0
G1 X0.9S200
G1 X0.1S0
G1 X1.3S200
G1 X0.1S0
G1 X0.4S200
G1 X0.1S0
G1 X0.2S200
G1 X0.1S0
G1 X0.4S200
G1 X0.1S0
G1 X1.5S200
G1 X0.1S0
G1 X0.3S200
G1 X0.1S0
G1 X0.5S200
G1 X0.1S0
G1 X2S200
G1 X0.1S0
G1 X0.2S200
G1 X0.1S0
G1 X2S200
G1 X0.1S0
G1 X0.1S200
G1 X8.7S0
G1 X2.3S200
G1 X0.2S0
G1 X0.1S200
G1 X0.3S0
G1 X0.1S200
G1 X0.2S0
G1 X0.1S200
G1 X0.2S0
G1 X0.1S200
G1 X0.2S0
G1 X0.1S200
G1 X0.1S0
G1 X16.4S200
G1 X0.1S0
G1 X5.4S200
G1 X30.2S0
G1 X5.7S200
G1 X2.5S0
G1 Y0.1
G1 X-2.5
G1 X-5.7S200
G1 X-30.2S0
G1 X-5.3S200
G1 X-0.1S0
G1 X-16.5S200
G1 X-0.2S0
G1 X-0.1S200
G1 X-0.2S0
G1 X-0.1S200
G1 X-0.2S0
G1 X-0.1S200
G1 X-0.2S0
G1 X-0.1S200
G1 X-0.2S0
G1 X-0.1S200
G1 X-0.2S0
G1 X-2.3S200
G1 X-8.7S0
G1 X-0.6S200
G1 X-0.1S0
G1 X-0.2S200
G1 X-0.1S0
G1 X-0.6S200
G1 X-0.1S0
G1 X-0.2S200
G1 X-0.1S0
G1 X-1.1S200
G1 X-0.1S0
G1 X-0.2S200
G1 X-0.1S0
G1 X-2.7S200
G1 X-0.1S0
G1 X-0.4S200
G1 X-0.1S0
G1 X-2.1S200
G1 X-0.1S0
G1 X-0.2S200
G1 X-0.1S0
G1 X-0.3S200
G1 X-0.1S0
G1 X-0.5S200
G1 X-0.1S0
G1 X-0.3S200
G1 X-0.1S0
G1 X-1.6S200
G1 X-0.1S0
G1 X-0.6S200
G1 X-0.1S0
G1 X-0.6S200
G1 X-0.1S0
G1 X-2.3S200
G1 X-0.1S0
G1 X-0.6S200
G1 X-0.1S0
G1 X-0.2S200
G1 X-0.1S0
G1 X-0.2S200
G1 X-0.1S0
G1 X-0.4S200
G1 X-0.1S0
G1 X-0.6S200
G1 X-0.1S0
G1 X-1.1S200
G1 X-0.1S0
G1 X-1.1S200
G1 X-0.1S0
G1 X-1.8S200
G1 X-0.1S0
G1 X-0.2S200
G1 X-0.1S0
G1 X-0.2S200
G1 X-0.1S0
G1 X-2.6S200
G1 X-0.1S0
G1 X-0.2S200
G1 X-0.1S0
G1 X-0.4S200
G1 X-0.1S0
G1 X-1.9S200
G1 X-0.1S0
G1 X-0.8S200
G1 X-0.1S0
G1 X-1.7S200
G1 X-0.1S0
G1 X-0.8S200
G1 X-0.1S0
G1 X-0.8S200
G1 X-0.1S0
G1 X-0.6S200
G1 X-0.1S0
G1 X-1.8S200
G1 X-0.1S0
G1 X-4.8S200
G1 X-10.8S0
G1 X-6.5S200
G1 X-2.5S0
G1 X0.1Y0.1
G1 X2.5
G1 X6.4S200
G1 X10.9S0
G1 X3.6S200
G1 X0.1S0
G1 X1.5S200
G1 X0.1S0
G1 X0.2S200
G1 X0.1S0
G1 X4.3S200
G1 X0.1S0
G1 X2.7S200
G1 X0.1S0
G1 X0.4S200
G1 X0.1S0
G1 X1.6S200
G1 X0.1S0
G1 X0.2S200
G1 X0.1S0
G1 X0.5S200
G1 X0.1S0
G1 X0.2S200
G1 X0.1S0
G1 X2.1S200
G1 X0.1S0
G1 X0.2S200
G1 X0.1S0
G1 X0.2S200
G1 X0.1S0
G1 X0.2S200
G1 X0.1S0
G1 X0.8S200
G1 X0.1S0
G1 X0.2S200
G1 X0.1S0
G1 X2S200
G1 X0.1S0
G1 X1.8S200
G1 X0.1S0
G1 X0.5S200
G1 X0.1S0
G1 X1S200
G1 X0.1S0
G1 X0.2S200
G1 X0.1S0
G1 X0.9S200
G1 X0.1S0
G1 X1.4S200
G1 X0.1S0
G1 X3.5S200
G1 X0.1S0
G1 X3.9S200
G1 X0.1S0
G1 X2.9S200
G1 X0.1S0
G1 X0.9S200
G1 X0.1S0
G1 X0.3S200
G1 X8.7S0
G1 X2.2S200
G1 X0.2S0
G1 X0.1S200
G1 X0.2S0
G1 X0.2S200
G1 X0.2S0
G1 X0.1S200
G1 X0.2S0
G1 X0.1S200
G1 X0.2S0
G1 X0.1S200
G1 X0.2S0
G1 X16.6S200
G1 X0.1S0
G1 X5.2S200
G1 X30.2S0
G1 X5.7S200
G1 X2.5S0
G1 X0.1Y0.1
G1 X-2.5
G1 X-5.9S200
G1 X-30.1S0
G1 X-5.1S200
G1 X-0.1S0
G1 X-17S200
G1 X-0.2S0
G1 X-0.1S200
G1 X-0.1S0
G1 X-0.1S200
G1 X-0.2S0
G1 X-0.1S200
G1 X-0.3S0
G1 X-0.1S200
G1 X-0.2S0
G1 X-2.3S200
G1 X-8.7S0
G1 X-2.5S200
G1 X-0.1S0
G1 X-0.2S200
G1 X-0.1S0
G1 X-1.7S200
G1 X-0.1S0
G1 X-0.2S200
G1 X-0.1S0
G1 X-0.2S200
G1 X-0.1S0
G1 X-0.3S200
G1 X-0.1S0
G1 X-0.2S200
G1 X-0.1S0
G1 X-0.4S200
G1 X-0.1S0
G1 X-1S200
G1 X-0.1S0
G1 X-0.3S200
G1 X-0.1S0
G1 X-0.6S200
G1 X-0.1S0
G1 X-2.2S200
G1 X-0.1S0
G1 X-0.6S200
G1 X-0.1S0
G1 X-2.3S200
G1 X-0.1S0
G1 X-0.9S200
G1 X-0.1S0
G1 X-0.4S200
G1 X-0.1S0
G1 X-2S200
G1 X-0.1S0
G1 X-1.3S200
G1 X-0.1S0
G1 X-0.2S200
G1 X-0.1S0
G1 X-4.3S200
G1 X-0.1S0
G1 X-0.2S200
G1 X-0.1S0
G1 X-0.3S200
G1 X-0.1S0
G1 X-2.2S200
G1 X-0.1S0
G1 X-1.6S200
G1 X-0.1S0
G1 X-0.2S200
G1 X-0.1S0
G1 X-0.6S200
G1 X-0.1S0
G1 X-0.2S200
G1 X-0.1S0
G1 X-0.5S200
G1 X-0.1S0
G1 X-0.2S200
G1 X-0.1S0
G1 X-0.5S200
G1 X-0.1S0
G1 X-0.7S200
G1 X-0.1S0
G1 X-0.2S200
G1 X-0.1S0
G1 X-0.8S200
G1 X-0.1S0
G1 X-0.6S200
G1 X-0.1S0
G1 X-0.5S200
G1 X-0.1S0
G1 X-0.4S200
G1 X-0.1S0
G1 X-0.8S200
G1 X-0.1S0
G1 X-0.5S200
G1 X-0.1S0
G1 X-4.3S200
G1 X-10.9S0
G1 X-6.3S200
G1 X-2.5S0
G1 X0.1Y0.1
G1 X2.5
G1 X6.2S200
G1 X11S0
G1 X1.8S200
G1 X0.1S0
G1 X1.7S200
G1 X0.1S0
G1 X0.2S200
G1 X0.1S0
G1 X0.5S200
G1 X0.1S0
G1 X2.5S200
G1 X0.1S0
G1 X0.6S200
G1 X0.1S0
G1 X0.2S200
G1 X0.1S0
G1 X0.9S200
G1 X0.1S0
G1 X2.4S200
G1 X0.1S0
G1 X1.2S200
G1 X0.1S0
G1 X0.4S200
G1 X0.1S0
G1 X0.2S200
G1 X0.1S0
G1 X1.6S200
G1 X0.1S0
G1 X2.3S200
G1 X0.1S0
G1 X1.5S200
G1 X0.1S0
G1 X0.2S200
G1 X0.1S0
G1 X0.8S200
G1 X0.1S0
G1 X0.3S200
G1 X0.1S0
G1 X1S200
G1 X0.1S0
G1 X0.5S200
G1 X0.1S0
G1 X0.8S200
G1 X0.1S0
G1 X0.3S200
G1 X0.1S0
G1 X3.5S200
G1 X0.1S0
G1 X0.5S200
G1 X0.1S0
G1 X0.2S200
G1 X0.1S0
G1 X0.8S200
G1 X0.1S0
G1 X0.7S200
G1 X0.1S0
G1 X0.2S200
G1 X0.1S0
G1 X0.2S200
G1 X0.1S0
G1 X0.2S200
G1 X0.1S0
G1 X0.2S200
G1 X0.1S0
G1 X0.3S200
G1 X0.1S0
G1 X5.7S200
G1 X0.1S0
G1 X0.8S200
G1 X0.1S0
G1 X0.2S200
G1 X0.1S0
G1 X0.8S200
G1 X0.1S0
G1 X1S200
G1 X8.7S0
G1 X1.8S200
G1 X0.1S0
G1 X0.4S200
G1 X0.2S0
G1 X0.1S200
G1 X0.2S0
G1 X0.1S200
G1 X0.2S0
G1 X0.1S200
G1 X0.2S0
G1 X0.1S200
G1 X0.4S0
G1 X10S200
G1 X0.3S0
G1 X6.6S200
G1 X0.1S0
G1 X5S200
G1 X30.1S0
G1 X5.9S200
G1 X2.5S0
G1 Y0.1
G1 X-2.5
G1 X-3.4S200
G1 X-0.1S0
G1 X-2.5S200
G1 X-30S0
G1 X-4.9S200
G1 X-0.2S0
G1 X-6.5S200
G1 X-0.5S0
G1 X-9.9S200
G1 X-0.1S0
G1 X-0.1S200
G1 X-0.1S0
G1 X-0.2S200
G1 X-0.2S0
G1 X-0.1S200
G1 X-0.2S0
G1 X-0.1S200
G1 X-0.1S0
G1 X-0.1S200
G1 X-0.1S0
G1 X-0.1S200
G1 X-0.1S0
G1 X-0.4S200
G1 X-0.1S0
G1 X-1.8S200
G1 X-8.7S0
G1 X-0.4S200
G1 X-0.1S0
G1 X-0.2S200
G1 X-0.1S0
G1 X-0.5S200
G1 X-0.1S0
G1 X-0.2S200
G1 X-0.1S0
G1 X-1.7S200
G1 X-0.1S0
G1 X-0.7S200
G1 X-0.1S0
G1 X-2.4S200
G1 X-0.1S0
G1 X-0.5S200
G1 X-0.1S0
G1 X-0.8S200
G1 X-0.1S0
G1 X-5.1S200
G1 X-0.1S0
G1 X-0.2S200
G1 X-0.1S0
G1 X-0.7S200
G1 X-0.1S0
G1 X-0.6S200
G1 X-0.1S0
G1 X-0.5S200
G1 X-0.1S0
G1 X-0.3S200
G1 X-0.1S0
G1 X-4.2S200
G1 X-0.1S0
G1 X-1.4S200
G1 X-0.1S0
G1 X-0.5S200
G1 X-0.1S0
G1 X-0.7S200
G1 X-0.1S0
G1 X-1.3S200
G1 X-0.1S0
G1 X-0.7S200
G1 X-0.1S0
G1 X-0.4S200
G1 X-0.1S0
G1 X-0.2S200
G1 X-0.1S0
G1 X-3.5S200
G1 X-0.1S0
G1 X-4.1S200
G1 X-0.1S0
G1 X-0.5S200
G1 X-0.1S0
G1 X-2.9S200
G1 X-0.1S0
G1 X-2.9S200
G1 X-11S0
G1 X-6.1S200
G1 X-2.5S0
G1 X0.1Y0.1
G1 X2.5
G1 X3S200
G1 X0.1S0
G1 X0.5S200
G1 X0.1S0
G1 X2.3S200
G1 X11.1S0
G1 X0.2S200
G1 X0.1S0
G1 X0.4S200
G1 X0.1S0
G1 X4.1S200
G1 X0.1S0
G1 X0.2S200
G1 X0.1S0
G1 X0.2S200
G1 X0.1S0
G1 X0.5S200
G1 X0.1S0
G1 X1.1S200
G1 X0.1S0
G1 X1.2S200
G1 X0.1S0
G1 X0.6S200
G1 X0.1S0
G1 X0.2S200
G1 X0.1S0
G1 X0.2S200
G1 X0.1S0
G1 X0.3S200
G1 X0.1S0
G1 X0.6S200
G1 X0.1S0
G1 X0.7S200
G1 X0.1S0
G1 X0.4S200
G1 X0.1S0
G1 X0.2S200
G1 X0.1S0
G1 X3.5S200
G1 X0.1S0
G1 X0.2S200
G1 X0.1S0
G1 X0.9S200
G1 X0.1S0
G1 X0.7S200
G1 X0.1S0
G1 X0.5S200
G1 X0.1S0
G1 X2.2S200
G1 X0.1S0
G1 X0.4S200
G1 X0.1S0
G1 X0.5S200
G1 X0.1S0
G1 X0.5S200
G1 X0.1S0
G1 X0.2S200
G1 X0.1S0
G1 X2.5S200
G1 X0.1S0
G1 X0.5S200
G1 X0.1S0
G1 X2.2S200
G1 X0.1S0
G1 X0.2S200
G1 X0.1S0
G1 X0.5S200
G1 X0.1S0
G1 X3.1S200
G1 X0.1S0
G1 X1.3S200
G1 X0.1S0
G1 X0.2S200
G1 X0.1S0
G1 X0.3S200
G1 X0.1S0
G1 X0.2S200
G1 X0.1S0
G1 X0.8S200
G1 X0.1S0
G1 X4.3S200
G1 X0.1S0
G1 X0.1S200
G1 X8.7S0
G1 X1.8S200
G1 X0.1S0
G1 X0.4S200
G1 X0.4S0
G1 X0.1S200
G1 X0.2S0
G1 X0.1S200
G1 X0.1S0
G1 X0.1S200
G1 X0.3S0
G1 X0.1S200
G1 X0.1S0
G1 X10S200
G1 X0.1S0
G1 X0.2S200
G1 X0.3S0
G1 X0.2S200
G1 X0.1S0
G1 X6.3S200
G1 X0.1S0
G1 X4.8S200
G1 X30S0
G1 X6.2S200
G1 X2.5S0
G1 Y0.1
G1 X-2.5
G1 X-6.2S200
G1 X-29.9S0
G1 X-4.8S200
G1 X-0.1S0
G1 X-6.3S200
G1 X-0.5S0
G1 X-0.1S200
G1 X-0.1S0
G1 X-0.1S200
G1 X-0.2S0
G1 X-10S200
G1 X-0.3S0
G1 X-0.1S200
G1 X-0.2S0
G1 X-0.1S200
G1 X-0.2S0
G1 X-0.1S200
G1 X-0.2S0
G1 X-0.1S200
G1 X-0.1S0
G1 X-0.5S200
G1 X-0.1S0
G1 X-1.8S200
G1 X-8.7S0
G1 X-2.3S200
G1 X-0.1S0
G1 X-0.2S200
G1 X-0.1S0
G1 X-0.2S200
G1 X-0.1S0
G1 X-1.8S200
G1 X-0.1S0
G1 X-0.2S200
G1 X-0.1S0
G1 X-2.3S200
G1 X-0.1S0
G1 X-0.9S200
G1 X-0.1S0
G1 X-0.2S200
G1 X-0.1S0
G1 X-0.3S200
G1 X-0.1S0
G1 X-1.4S200
G1 X-0.1S0
G1 X-3.1S200
G1 X-0.1S0
G1 X-1.5S200
G1 X-0.1S0
G1 X-0.8S200
G1 X-0.1S0
G1 X-0.2S200
G1 X-0.1S0
G1 X-0.2S200
G1 X-0.1S0
G1 X-0.9S200
G1 X-0.1S0
G1 X-1.8S200
G1 X-0.1S0
G1 X-0.2S200
G1 X-0.1S0
G1 X-0.4S200
G1 X-0.1S0
G1 X-0.2S200
G1 X-0.1S0
G1 X-0.3S200
G1 X-0.1S0
G1 X-2.3S200
G1 X-0.1S0
G1 X-1.3S200
G1 X-0.1S0
G1 X-0.5S200
G1 X-0.1S0
G1 X-0.9S200
G1 X-0.1S0
G1 X-0.4S200
G1 X-0.1S0
G1 X-0.2S200
G1 X-0.1S0
G1 X-1.6S200
G1 X-0.1S0
G1 X-2.3S200
G1 X-0.1S0
G1 X-0.7S200
G1 X-0.1S0
G1 X-0.3S200
G1 X-0.1S0
G1 X-0.6S200
G1 X-0.1S0
G1 X-0.2S200
G1 X-0.1S0
G1 X-2S200
G1 X-0.1S0
G1 X-0.3S200
G1 X-0.1S0
G1 X-0.2S200
G1 X-0.1S0
G1 X-3.8S200
G1 X-11.2S0
G1 X-1.8S200
G1 X-0.1S0
G1 X-1.4S200
G1 X-0.1S0
G1 X-2.4S200
G1 X-2.5S0
G1 X0.2Y0.1
G1 X2.5
G1 X1.9S200
G1 X0.1S0
G1 X2.3S200
G1 X0.1S0
G1 X1.2S200
G1 X11.4S0
G1 X1S200
G1 X0.1S0
G1 X7S200
G1 X0.1S0
G1 X2.2S200
G1 X0.1S0
G1 X1.2S200
G1 X0.1S0
G1 X2S200
G1 X0.1S0
G1 X0.3S200
G1 X0.1S0
G1 X1.1S200
G1 X0.1S0
G1 X1.3S200
G1 X0.1S0
G1 X0.6S200
G1 X0.1S0
G1 X3.1S200
G1 X0.1S0
G1 X0.4S200
G1 X0.1S0
G1 X0.4S200
G1 X0.1S0
G1 X2.4S200
G1 X0.1S0
G1 X0.2S200
G1 X0.1S0
G1 X0.6S200
G1 X0.1S0
G1 X1.7S200
G1 X0.1S0
G1 X0.9S200
G1 X0.1S0
G1 X0.9S200
G1 X0.1S0
G1 X0.8S200
G1 X0.1S0
G1 X0.2S200
G1 X0.1S0
G1 X0.2S200
G1 X0.1S0
G1 X0.2S200
G1 X0.1S0
G1 X1.3S200
G1 X0.1S0
G1 X3.9S200
G1 X0.1S0
G1 X0.7S200
G1 X0.1S0
G1 X1.2S200
G1 X0.1S0
G1 X0.2S200
G1 X0.1S0
G1 X0.4S200
G1 X0.1S0
G1 X0.2S200
G1 X0.1S0
G1 X0.4S200
G1 X0.1S0
G1 X0.4S200
G1 X8.7S0
G1 X1.8S200
G1 X0.1S0
G1 X0.6S200
G1 X0.1S0
G1 X0.1S200
G1 X0.2S0
G1 X0.1S200
G1 X0.2S0
G1 X0.1S200
G1 X0.1S0
G1 X0.1S200
G1 X0.2S0
G1 X0.1S200
G1 X0.1S0
G1 X9.9S200
G1 X0.3S0
G1 X0.1S200
G1 X0.2S0
G1 X0.1S200
G1 X0.1S0
G1 X0.1S200
G1 X0.2S0
G1 X11.1S200
G1 X29.8S0
G1 X2.7S200
G1 X0.1S0
G1 X3.5S200
G1 X2.5S0
G1 Y0.1
G1 X-2.5
G1 X-6.3S200
G1 X-29.6S0
G1 X-0.3S200
G1 X-0.1S0
G1 X-5.1S200
G1 X-0.2S0
G1 X-5.5S200
G1 X-0.1S0
G1 X-0.1S200
G1 X-0.2S0
G1 X-0.1S200
G1 X-0.2S0
G1 X-0.1S200
G1 X-0.2S0
G1 X-0.1S200
G1 X-0.1S0
G1 X-10S200
G1 X-0.2S0
G1 X-0.1S200
G1 X-0.2S0
G1 X-0.1S200
G1 X-0.2S0
G1 X-0.1S200
G1 X-0.2S0
G1 X-0.1S200
G1 X-0.2S0
G1 X-2.4S200
G1 X-8.7S0
G1 X-5.6S200
G1 X-0.1S0
G1 X-0.3S200
G1 X-0.1S0
G1 X-0.2S200
G1 X-0.1S0
G1 X-0.3S200
G1 X-0.1S0
G1 X-4.8S200
G1 X-0.1S0
G1 X-0.3S200
G1 X-0.1S0
G1 X-0.9S200
G1 X-0.1S0
G1 X-0.5S200
G1 X-0.1S0
G1 X-0.7S200
G1 X-0.1S0
G1 X-0.2S200
G1 X-0.1S0
G1 X-2.6S200
G1 X-0.1S0
G1 X-0.8S200
G1 X-0.1S0
G1 X-3.4S200
G1 X-0.1S0
G1 X-0.2S200
G1 X-0.1S0
G1 X-0.3S200
G1 X-0.1S0
G1 X-0.6S200
G1 X-0.1S0
G1 X-0.8S200
G1 X-0.1S0
G1 X-0.4S200
G1 X-0.1S0
G1 X-0.8S200
G1 X-0.1S0
G1 X-1.4S200
G1 X-0.1S0
G1 X-1S200
G1 X-0.1S0
G1 X-0.9S200
G1 X-0.1S0
G1 X-1.1S200
G1 X-0.1S0
G1 X-0.3S200
G1 X-0.1S0
G1 X-0.6S200
G1 X-0.1S0
G1 X-1.7S200
G1 X-0.1S0
G1 X-0.9S200
G1 X-0.1S0
G1 X-0.2S200
G1 X-0.1S0
G1 X-0.3S200
G1 X-0.1S0
G1 X-0.4S200
G1 X-0.1S0
G1 X-2.8S200
G1 X-0.1S0
G1 X-1.9S200
G1 X-11.5S0
G1 X-3.9S200
G1 X-0.1S0
G1 X-1.3S200
G1 X-2.5S0
G1 X0.4Y0.1
G1 X2.5
G1 X0.4S200
G1 X0.1S0
G1 X4.4S200
G1 X11.6S0
G1 X3.3S200
G1 X0.1S0
G1 X0.3S200
G1 X0.1S0
G1 X0.2S200
G1 X0.1S0
G1 X0.2S200
G1 X0.1S0
G1 X1.9S200
G1 X0.1S0
G1 X0.9S200
G1 X0.1S0
G1 X0.8S200
G1 X0.1S0
G1 X0.7S200
G1 X0.1S0
G1 X1.4S200
G1 X0.1S0
G1 X0.7S200
G1 X0.1S0
G1 X0.9S200
G1 X0.1S0
G1 X0.3S200
G1 X0.1S0
G1 X5.9S200
G1 X0.1S0
G1 X0.2S200
G1 X0.1S0
G1 X0.4S200
G1 X0.1S0
G1 X0.2S200
G1 X0.1S0
G1 X1.4S200
G1 X0.1S0
G1 X0.9S200
G1 X0.1S0
G1 X0.6S200
G1 X0.1S0
G1 X1.6S200
G1 X0.1S0
G1 X1.2S200
G1 X0.1S0
G1 X3S200
G1 X0.1S0
G1 X0.2S200
G1 X0.1S0
G1 X1.5S200
G1 X0.1S0
G1 X0.4S200
G1 X0.1S0
G1 X0.7S200
G1 X0.1S0
G1 X0.2S200
G1 X0.1S0
G1 X2.2S200
G1 X0.1S0
G1 X0.3S200
G1 X0.1S0
G1 X0.2S200
G1 X0.1S0
G1 X0.8S200
G1 X0.1S0
G1 X0.5S200
G1 X0.1S0
G1 X0.4S200
G1 X0.1S0
G1 X1S200
G1 X0.1S0
G1 X0.7S200
G1 X0.1S0
G1 X0.4S200
G1 X0.1S0
G1 X0.1S200
G1 X8.7S0
G1 X2.5S200
G1 X0.2S0
G1 X0.1S200
G1 X0.1S0
G1 X0.1S200
G1 X0.2S0
G1 X0.1S200
G1 X0.2S0
G1 X0.1S200
G1 X0.2S0
G1 X10S200
G1 X0.2S0
G1 X0.1S200
G1 X0.1S0
G1 X0.1S200
G1 X0.2S0
G1 X0.1S200
G1 X0.2S0
G1 X0.1S200
G1 X0.2S0
G1 X5.6S200
G1 X0.1S0
G1 X0.4S200
G1 X0.1S0
G1 X4.4S200
G1 X0.2S0
G1 X0.3S200
G1 X29.6S0
G1 X6.3S200
G1 X2.5S0
G1 Y0.1
G1 X-2.5
G1 X-6.3S200
G1 X-29.6S0
G1 X-0.2S200
G1 X-0.2S0
G1 X-4.5S200
G1 X-0.1S0
G1 X-0.4S200
G1 X-0.1S0
G1 X-5.4S200
G1 X-0.6S0
G1 X-0.1S200
G1 X-0.2S0
G1 X-0.1S200
G1 X-0.2S0
G1 X-0.1S200
G1 X-0.2S0
G1 X-10S200
G1 X-0.2S0
G1 X-0.1S200
G1 X-0.2S0
G1 X-0.1S200
G1 X-0.2S0
G1 X-0.1S200
G1 X-0.2S0
G1 X-0.1S200
G1 X-0.2S0
G1 X-2.4S200
G1 X-8.7S0
G1 X-0.9S200
G1 X-0.1S0
G1 X-0.7S200
G1 X-0.1S0
G1 X-0.4S200
G1 X-0.1S0
G1 X-1S200
G1 X-0.1S0
G1 X-0.8S200
G1 X-0.1S0
G1 X-4S200
G1 X-0.1S0
G1 X-1S200
G1 X-0.1S0
G1 X-0.3S200
G1 X-0.1S0
G1 X-0.3S200
G1 X-0.1S0
G1 X-4.7S200
G1 X-0.1S0
G1 X-0.6S200
G1 X-0.1S0
G1 X-0.4S200
G1 X-0.1S0
G1 X-0.2S200
G1 X-0.1S0
G1 X-0.2S200
G1 X-0.1S0
G1 X-2.2S200
G1 X-0.1S0
G1 X-0.2S200
G1 X-0.1S0
G1 X-0.2S200
G1 X-0.1S0
G1 X-0.2S200
G1 X-0.1S0
G1 X-2.8S200
G1 X-0.1S0
G1 X-0.5S200
G1 X-0.1S0
G1 X-0.2S200
G1 X-0.1S0
G1 X-0.5S200
G1 X-0.1S0
G1 X-0.5S200
G1 X-0.1S0
G1 X-0.2S200
G1 X-0.1S0
G1 X-0.6S200
G1 X-0.1S0
G1 X-0.3S200
G1 X-0.1S0
G1 X-0.2S200
G1 X-0.1S0
G1 X-1.7S200
G1 X-0.1S0
G1 X-0.7S200
G1 X-0.1S0
G1 X-0.6S200
G1 X-0.1S0
G1 X-2.1S200
G1 X-0.1S0
G1 X-0.2S200
G1 X-0.1S0
G1 X-0.9S200
G1 X-0.1S0
G1 X-1.5S200
G1 X-0.1S0
G1 X-2.2S200
G1 X-0.1S0
G1 X-2.5S200
G1 X-11.8S0
G1 X-4.8S200
G1 X-2.5S0
G1 X0.2Y0.1
G1 X2.5
G1 X4.6S200
G1 X11.9S0
G1 X3.2S200
G1 X0.1S0
G1 X1S200
G1 X0.1S0
G1 X0.7S200
G1 X0.1S0
G1 X0.4S200
G1 X0.1S0
G1 X1S200
G1 X0.1S0
G1 X1.4S200
G1 X0.1S0
G1 X0.7S200
G1 X0.1S0
G1 X0.2S200
G1 X0.1S0
G1 X2.2S200
G1 X0.1S0
G1 X1S200
G1 X0.1S0
G1 X1.3S200
G1 X0.1S0
G1 X0.9S200
G1 X0.1S0
G1 X0.5S200
G1 X0.1S0
G1 X1.5S200
G1 X0.1S0
G1 X0.2S200
G1 X0.1S0
G1 X0.4S200
G1 X0.1S0
G1 X0.8S200
G1 X0.1S0
G1 X2.3S200
G1 X0.1S0
G1 X0.2S200
G1 X0.1S0
G1 X0.5S200
G1 X0.1S0
G1 X3.5S200
G1 X0.1S0
G1 X0.2S200
G1 X0.1S0
G1 X0.2S200
G1 X0.1S0
G1 X0.9S200
G1 X0.1S0
G1 X0.2S200
G1 X0.1S0
G1 X0.2S200
G1 X0.1S0
G1 X0.2S200
G1 X0.1S0
G1 X2.4S200
G1 X0.1S0
G1 X0.8S200
G1 X0.1S0
G1 X1.2S200
G1 X0.1S0
G1 X0.2S200
G1 X0.1S0
G1 X0.4S200
G1 X0.1S0
G1 X0.2S200
G1 X0.1S0
G1 X2.8S200
G1 X0.1S0
G1 X2.7S200
G1 X8.7S0
G1 X2.4S200
G1 X0.2S0
G1 X0.1S200
G1 X0.2S0
G1 X0.1S200
G1 X0.1S0
G1 X0.1S200
G1 X0.2S0
G1 X0.1S200
G1 X0.1S0
G1 X0.1S200
G1 X0.2S0
G1 X9.7S200
G1 X0.3S0
G1 X0.1S200
G1 X0.2S0
G1 X0.1S200
G1 X0.2S0
G1 X0.1S200
G1 X0.1S0
G1 X0.2S200
G1 X0.1S0
G1 X0.1S200
G1 X0.4S0
G1 X5.2S200
G1 X0.1S0
G1 X0.6S200
G1 X0.1S0
G1 X4.4S200
G1 X0.1S0
G1 X0.3S200
G1 X29.5S0
G1 X6.4S200
G1 X2.5S0
G1 Y0.1
G1 X-2.5
G1 X-6.4S200
G1 X-29.3S0
G1 X-4.9S200
G1 X-0.1S0
G1 X-0.4S200
G1 X-0.3S0
G1 X-5.4S200
G1 X-0.2S0
G1 X-0.2S200
G1 X-0.1S0
G1 X-0.1S200
G1 X-0.3S0
G1 X-0.1S200
G1 X-0.1S0
G1 X-0.1S200
G1 X-0.2S0
G1 X-0.1S200
G1 X-0.2S0
G1 X-10S200
G1 X-0.1S0
G1 X-0.1S200
G1 X-0.2S0
G1 X-0.1S200
G1 X-0.2S0
G1 X-0.1S200
G1 X-0.2S0
G1 X-0.1S200
G1 X-0.2S0
G1 X-2.4S200
G1 X-8.8S0
G1 X-0.1S200
G1 X-0.1S0
G1 X-0.2S200
G1 X-0.1S0
G1 X-0.7S200
G1 X-0.1S0
G1 X-0.5S200
G1 X-0.1S0
G1 X-2.5S200
G1 X-0.1S0
G1 X-0.4S200
G1 X-0.1S0
G1 X-0.2S200
G1 X-0.1S0
G1 X-2.1S200
G1 X-0.1S0
G1 X-2.8S200
G1 X-0.1S0
G1 X-0.2S200
G1 X-0.1S0
G1 X-0.3S200
G1 X-0.1S0
G1 X-1.8S200
G1 X-0.1S0
G1 X-1.3S200
G1 X-0.1S0
G1 X-0.2S200
G1 X-0.1S0
G1 X-0.4S200
G1 X-0.1S0
G1 X-0.6S200
G1 X-0.1S0
G1 X-1.1S200
G1 X-0.1S0
G1 X-0.6S200
G1 X-0.1S0
G1 X-0.8S200
G1 X-0.1S0
G1 X-1.5S200
G1 X-0.1S0
G1 X-0.8S200
G1 X-0.1S0
G1 X-1.9S200
G1 X-0.1S0
G1 X-4.3S200
G1 X-0.1S0
G1 X-0.2S200
G1 X-0.1S0
G1 X-1S200
G1 X-0.1S0
G1 X-0.6S200
G1 X-0.1S0
G1 X-0.4S200
G1 X-0.1S0
G1 X-1S200
G1 X-0.1S0
G1 X-2.5S200
G1 X-0.1S0
G1 X-1.8S200
G1 X-0.1S0
G1 X-3.9S200
G1 X-12S0
G1 X-0.4S200
G1 X-0.1S0
G1 X-4S200
G1 X-2.5S0
G1 X-0.1Y0.1
G1 X2.5
G1 X4.6S200
G1 X12.1S0
G1 X0.9S200
G1 X0.1S0
G1 X1.2S200
G1 X0.1S0
G1 X0.2S200
G1 X0.1S0
G1 X0.5S200
G1 X0.1S0
G1 X0.2S200
G1 X0.1S0
G1 X0.9S200
G1 X0.1S0
G1 X0.6S200
G1 X0.1S0
G1 X0.9S200
G1 X0.1S0
G1 X0.6S200
G1 X0.1S0
G1 X0.2S200
G1 X0.1S0
G1 X0.4S200
G1 X0.1S0
G1 X0.9S200
G1 X0.1S0
G1 X1.6S200
G1 X0.1S0
G1 X0.6S200
G1 X0.1S0
G1 X1.2S200
G1 X0.1S0
G1 X0.4S200
G1 X0.1S0
G1 X0.4S200
G1 X0.1S0
G1 X0.2S200
G1 X0.1S0
G1 X0.5S200
G1 X0.1S0
G1 X1.8S200
G1 X0.1S0
G1 X0.6S200
G1 X0.1S0
G1 X0.8S200
G1 X0.1S0
G1 X2S200
G1 X0.1S0
G1 X0.6S200
G1 X0.1S0
G1 X2.4S200
G1 X0.1S0
G1 X2.4S200
G1 X0.1S0
G1 X4S200
G1 X0.1S0
G1 X0.2S200
G1 X0.1S0
G1 X0.3S200
G1 X0.1S0
G1 X0.6S200
G1 X0.1S0
G1 X0.2S200
G1 X0.1S0
G1 X2.1S200
G1 X0.1S0
G1 X2.6S200
G1 X0.1S0
G1 X0.3S200
G1 X0.1S0
G1 X0.5S200
G1 X0.1S0
G1 X1.3S200
G1 X0.1S0
G1 X0.9S200
G1 X8.8S0
G1 X2.4S200
G1 X0.2S0
G1 X0.1S200
G1 X0.2S0
G1 X0.1S200
G1 X0.2S0
G1 X0.1S200
G1 X0.2S0
G1 X0.1S200
G1 X0.3S0
G1 X9.7S200
G1 X0.1S0
G1 X0.1S200
G1 X0.2S0
G1 X0.1S200
G1 X0.2S0
G1 X0.1S200
G1 X0.2S0
G1 X0.1S200
G1 X0.5S0
G1 X0.1S200
G1 X0.3S0
G1 X5.3S200
G1 X0.1S0
G1 X0.5S200
G1 X0.1S0
G1 X4.9S200
G1 X29.3S0
G1 X6.5S200
G1 X2.5S0
G1 X0.1Y0.1
G1 X-2.5
G1 X-6.6S200
G1 X-29.3S0
G1 X-4.8S200
G1 X-0.1S0
G1 X-5.7S200
G1 X-0.6S0
G1 X-0.1S200
G1 X-0.2S0
G1 X-0.1S200
G1 X-0.1S0
G1 X-0.2S200
G1 X-0.2S0
G1 X-0.1S200
G1 X-0.2S0
G1 X-0.1S200
G1 X-0.1S0
G1 X-0.1S200
G1 X-0.3S0
G1 X-9.7S200
G1 X-0.2S0
G1 X-0.1S200
G1 X-0.2S0
G1 X-0.1S200
G1 X-0.2S0
G1 X-0.1S200
G1 X-0.2S0
G1 X-0.1S200
G1 X-0.2S0
G1 X-2.4S200
G1 X-8.8S0
G1 X-1.5S200
G1 X-0.1S0
G1 X-1S200
G1 X-0.1S0
G1 X-1.4S200
G1 X-0.1S0
G1 X-0.4S200
G1 X-0.1S0
G1 X-1.8S200
G1 X-0.2S0
G1 X-0.5S200
G1 X-0.1S0
G1 X-0.5S200
G1 X-0.1S0
G1 X-1S200
G1 X-0.1S0
G1 X-3.2S200
G1 X-0.1S0
G1 X-0.9S200
G1 X-0.1S0
G1 X-2.2S200
G1 X-0.1S0
G1 X-0.6S200
G1 X-0.1S0
G1 X-1S200
G1 X-0.1S0
G1 X-2S200
G1 X-0.1S0
G1 X-1S200
G1 X-0.1S0
G1 X-0.2S200
G1 X-0.1S0
G1 X-0.5S200
G1 X-0.1S0
G1 X-0.6S200
G1 X-0.1S0
G1 X-1.7S200
G1 X-0.1S0
G1 X-0.3S200
G1 X-0.1S0
G1 X-0.3S200
G1 X-0.1S0
G1 X-0.2S200
G1 X-0.1S0
G1 X-3S200
G1 X-0.1S0
G1 X-3.4S200
G1 X-0.1S0
G1 X-1.4S200
G1 X-0.1S0
G1 X-1.6S200
G1 X-0.1S0
G1 X-2.8S200
G1 X-0.1S0
G1 X-1.7S200
G1 X-12.2S0
G1 X-2.3S200
G1 X-0.1S0
G1 X-2.2S200
G1 X-2.5S0
G1 X-0.1Y0.1
G1 X2.5
G1 X2.9S200
G1 X0.1S0
G1 X0.4S200
G1 X0.1S0
G1 X1.2S200
G1 X12.3S0
G1 X3.1S200
G1 X0.1S0
G1 X0.3S200
G1 X0.1S0
G1 X0.2S200
G1 X0.1S0
G1 X1.2S200
G1 X0.1S0
G1 X0.2S200
G1 X0.1S0
G1 X1.7S200
G1 X0.1S0
G1 X0.7S200
G1 X0.1S0
G1 X0.6S200
G1 X0.1S0
G1 X0.2S200
G1 X0.1S0
G1 X0.2S200
G1 X0.1S0
G1 X0.2S200
G1 X0.1S0
G1 X0.2S200
G1 X0.1S0
G1 X0.5S200
G1 X0.1S0
G1 X2.3S200
G1 X0.1S0
G1 X0.7S200
G1 X0.1S0
G1 X1.9S200
G1 X0.1S0
G1 X0.5S200
G1 X0.1S0
G1 X0.5S200
G1 X0.1S0
G1 X1.2S200
G1 X0.1S0
G1 X0.9S200
G1 X0.1S0
G1 X1.4S200
G1 X0.1S0
G1 X0.2S200
G1 X0.1S0
G1 X0.2S200
G1 X0.1S0
G1 X0.3S200
G1 X0.1S0
G1 X0.6S200
G1 X0.1S0
G1 X0.9S200
G1 X0.1S0
G1 X0.6S200
G1 X0.1S0
G1 X0.2S200
G1 X0.1S0
G1 X0.2S200
G1 X0.1S0
G1 X0.8S200
G1 X0.1S0
G1 X0.8S200
G1 X0.1S0
G1 X0.8S200
G1 X0.1S0
G1 X0.2S200
G1 X0.1S0
G1 X0.2S200
G1 X0.1S0
G1 X0.2S200
G1 X0.1S0
G1 X0.2S200
G1 X0.1S0
G1 X0.4S200
G1 X0.1S0
G1 X2.6S200
G1 X0.1S0
G1 X1.7S200
G1 X0.1S0
G1 X0.2S200
G1 X0.1S0
G1 X0.4S200
G1 X0.1S0
G1 X2.8S200
G1 X0.1S0
G1 X1.3S200
G1 X0.1S0
G1 X0.6S200
G1 X8.8S0
G1 X1.9S200
G1 X0.1S0
G1 X0.4S200
G1 X0.2S0
G1 X0.1S200
G1 X0.1S0
G1 X0.1S200
G1 X0.2S0
G1 X0.1S200
G1 X0.1S0
G1 X0.1S200
G1 X0.2S0
G1 X0.1S200
G1 X0.1S0
G1 X9.7S200
G1 X0.2S0
G1 X0.1S200
G1 X0.2S0
G1 X0.1S200
G1 X0.2S0
G1 X0.1S200
G1 X0.4S0
G1 X0.1S200
G1 X0.1S0
G1 X0.1S200
G1 X0.2S0
G1 X0.2S200
G1 X0.1S0
G1 X0.1S200
G1 X0.1S0
G1 X5.3S200
G1 X0.1S0
G1 X0.4S200
G1 X0.1S0
G1 X4.8S200
G1 X29.3S0
G1 X6.6S200
G1 X2.5S0
G1 Y0.1
G1 X-2.5
G1 X-6.6S200
G1 X-29.1S0
G1 X-10.6S200
G1 X-0.1S0
G1 X-0.1S200
G1 X-0.2S0
G1 X-0.1S200
G1 X-0.2S0
G1 X-0.1S200
G1 X-0.2S0
G1 X-0.1S200
G1 X-0.4S0
G1 X-0.2S200
G1 X-0.1S0
G1 X-0.1S200
G1 X-0.2S0
G1 X-0.1S200
G1 X-0.2S0
G1 X-0.1S200
G1 X-0.1S0
G1 X-9.6S200
G1 X-0.2S0
G1 X-0.1S200
G1 X-0.2S0
G1 X-0.1S200
G1 X-0.2S0
G1 X-0.1S200
G1 X-0.2S0
G1 X-0.1S200
G1 X-0.2S0
G1 X-2.5S200
G1 X-8.8S0
G1 X-0.3S200
G1 X-0.1S0
G1 X-0.5S200
G1 X-0.1S0
G1 X-0.2S200
G1 X-0.1S0
G1 X-0.4S200
G1 X-0.1S0
G1 X-1.1S200
G1 X-0.1S0
G1 X-0.2S200
G1 X-0.1S0
G1 X-0.2S200
G1 X-0.1S0
G1 X-2.6S200
G1 X-0.1S0
G1 X-1.8S200
G1 X-0.1S0
G1 X-0.4S200
G1 X-0.1S0
G1 X-0.6S200
G1 X-0.1S0
G1 X-0.2S200
G1 X-0.1S0
G1 X-3.7S200
G1 X-0.1S0
G1 X-0.5S200
G1 X-0.1S0
G1 X-0.2S200
G1 X-0.1S0
G1 X-2.2S200
G1 X-0.1S0
G1 X-2.4S200
G1 X-0.1S0
G1 X-0.6S200
G1 X-0.1S0
G1 X-1.8S200
G1 X-0.1S0
G1 X-3.5S200
G1 X-0.1S0
G1 X-0.5S200
G1 X-0.1S0
G1 X-0.9S200
G1 X-0.1S0
G1 X-0.2S200
G1 X-0.1S0
G1 X-0.2S200
G1 X-0.1S0
G1 X-0.2S200
G1 X-0.1S0
G1 X-0.5S200
G1 X-0.1S0
G1 X-2.4S200
G1 X-0.1S0
G1 X-1.4S200
G1 X-0.1S0
G1 X-0.3S200
G1 X-0.1S0
G1 X-0.7S200
G1 X-0.1S0
G1 X-0.8S200
G1 X-0.1S0
G1 X-0.6S200
G1 X-0.1S0
G1 X-1.7S200
G1 X-0.1S0
G1 X-2.2S200
G1 X-12.4S0
G1 X-4.8S200
G1 X-2.5S0
G1 Y0.1
G1 X2.5
G1 X4.8S200
G1 X12.5S0
G1 X4.2S200
G1 X0.1S0
G1 X1.5S200
G1 X0.1S0
G1 X1.4S200
G1 X0.1S0
G1 X2.6S200
G1 X0.1S0
G1 X2.4S200
G1 X0.1S0
G1 X1.7S200
G1 X0.1S0
G1 X0.2S200
G1 X0.1S0
G1 X0.2S200
G1 X0.1S0
G1 X0.2S200
G1 X0.1S0
G1 X0.5S200
G1 X0.1S0
G1 X0.5S200
G1 X0.1S0
G1 X2.2S200
G1 X0.1S0
G1 X0.9S200
G1 X0.1S0
G1 X0.5S200
G1 X0.1S0
G1 X1.6S200
G1 X0.1S0
G1 X0.8S200
G1 X0.1S0
G1 X0.5S200
G1 X0.1S0
G1 X3.3S200
G1 X0.1S0
G1 X1.7S200
G1 X0.1S0
G1 X0.4S200
G1 X0.1S0
G1 X0.9S200
G1 X0.1S0
G1 X2.2S200
G1 X0.1S0
G1 X0.6S200
G1 X0.1S0
G1 X0.6S200
G1 X0.1S0
G1 X0.6S200
G1 X0.1S0
G1 X0.2S200
G1 X0.1S0
G1 X1.7S200
G1 X0.1S0
G1 X2.4S200
G1 X8.9S0
G1 X2.3S200
G1 X0.2S0
G1 X0.1S200
G1 X0.2S0
G1 X0.1S200
G1 X0.2S0
G1 X0.1S200
G1 X0.2S0
G1 X0.1S200
G1 X0.2S0
G1 X9.7S200
G1 X0.2S0
G1 X0.1S200
G1 X0.1S0
G1 X0.1S200
G1 X0.2S0
G1 X0.1S200
G1 X0.2S0
G1 X0.1S200
G1 X0.1S0
G1 X0.2S200
G1 X0.2S0
G1 X0.1S200
G1 X0.3S0
G1 X0.1S200
G1 X0.5S0
G1 X10.3S200
G1 X0.1S0
G1 X0.3S200
G1 X28.9S0
G1 X6.7S200
G1 X2.5S0
G1 Y0.1
G1 X-2.5
G1 X-6.8S200
G1 X-28.8S0
G1 X-0.2S200
G1 X-0.2S0
G1 X-10.3S200
G1 X-0.1S0
G1 X-0.1S200
G1 X-0.1S0
G1 X-0.2S200
G1 X-0.1S0
G1 X-0.1S200
G1 X-0.1S0
G1 X-0.1S200
G1 X-0.1S0
G1 X-0.1S200
G1 X-0.2S0
G1 X-0.1S200
G1 X-0.4S0
G1 X-0.1S200
G1 X-0.2S0
G1 X-0.1S200
G1 X-0.2S0
G1 X-0.1S200
G1 X-0.2S0
G1 X-9.7S200
G1 X-0.2S0
G1 X-0.1S200
G1 X-0.2S0
G1 X-0.1S200
G1 X-0.2S0
G1 X-0.1S200
G1 X-0.2S0
G1 X-0.1S200
G1 X-0.1S0
G1 X-2.3S200
G1 X-8.9S0
G1 X-0.1S200
G1 X-0.1S0
G1 X-1.9S200
G1 X-0.1S0
G1 X-2.6S200
G1 X-0.1S0
G1 X-1.6S200
G1 X-0.1S0
G1 X-0.6S200
G1 X-0.1S0
G1 X-0.2S200
G1 X-0.1S0
G1 X-0.2S200
G1 X-0.1S0
G1 X-0.4S200
G1 X-0.1S0
G1 X-2.4S200
G1 X-0.1S0
G1 X-0.5S200
G1 X-0.1S0
G1 X-0.3S200
G1 X-0.1S0
G1 X-0.9S200
G1 X-0.1S0
G1 X-0.2S200
G1 X-0.1S0
G1 X-1.6S200
G1 X-0.1S0
G1 X-0.4S200
G1 X-0.1S0
G1 X-2S200
G1 X-0.1S0
G1 X-0.3S200
G1 X-0.1S0
G1 X-0.2S200
G1 X-0.1S0
G1 X-2.5S200
G1 X-0.1S0
G1 X-0.2S200
G1 X-0.1S0
G1 X-0.3S200
G1 X-0.1S0
G1 X-0.6S200
G1 X-0.1S0
G1 X-0.2S200
G1 X-0.1S0
G1 X-3.7S200
G1 X-0.1S0
G1 X-1.8S200
G1 X-0.1S0
G1 X-0.5S200
G1 X-0.1S0
G1 X-0.6S200
G1 X-0.1S0
G1 X-0.8S200
G1 X-0.1S0
G1 X-0.8S200
G1 X-0.1S0
G1 X-0.2S200
G1 X-0.1S0
G1 X-1.4S200
G1 X-0.1S0
G1 X-0.8S200
G1 X-0.1S0
G1 X-1.9S200
G1 X-0.1S0
G1 X-0.7S200
G1 X-0.1S0
G1 X-0.4S200
G1 X-0.1S0
G1 X-1.8S200
G1 X-12.6S0
G1 X-4.9S200
G1 X-2.5S0
G1 Y0.1
G1 X2.5
G1 X2.1S200
G1 X0.1S0
G1 X2.7S200
G1 X12.6S0
G1 X0.9S200
G1 X0.1S0
G1 X2.4S200
G1 X0.1S0
G1 X0.2S200
G1 X0.1S0
G1 X0.6S200
G1 X0.1S0
G1 X0.2S200
G1 X0.1S0
G1 X1.6S200
G1 X0.1S0
G1 X0.3S200
G1 X0.1S0
G1 X1.3S200
G1 X0.1S0
G1 X0.7S200
G1 X0.1S0
G1 X0.2S200
G1 X0.1S0
G1 X1.9S200
G1 X0.1S0
G1 X0.7S200
G1 X0.1S0
G1 X1S200
G1 X0.1S0
G1 X0.2S200
G1 X0.1S0
G1 X0.2S200
G1 X0.1S0
G1 X1.5S200
G1 X0.1S0
G1 X0.5S200
G1 X0.1S0
G1 X1.1S200
G1 X0.1S0
G1 X1.6S200
G1 X0.1S0
G1 X0.2S200
G1 X0.1S0
G1 X1.2S200
G1 X0.1S0
G1 X1.7S200
G1 X0.1S0
G1 X0.7S200
G1 X0.1S0
G1 X1.3S200
G1 X0.1S0
G1 X0.5S200
G1 X0.1S0
G1 X0.2S200
G1 X0.1S0
G1 X2.4S200
G1 X0.1S0
G1 X1.7S200
G1 X0.1S0
G1 X3.6S200
G1 X0.1S0
G1 X1.5S200
G1 X0.1S0
G1 X1S200
G1 X0.1S0
G1 X1S200
G1 X0.1S0
G1 X0.2S200
G1 X0.1S0
G1 X0.2S200
G1 X0.1S0
G1 X0.3S200
G1 X0.1S0
G1 X0.2S200
G1 X0.1S0
G1 X0.5S200
G1 X8.9S0
G1 X2.4S200
G1 X0.2S0
G1 X0.1S200
G1 X0.1S0
G1 X0.1S200
G1 X0.1S0
G1 X0.1S200
G1 X0.1S0
G1 X0.1S200
G1 X0.2S0
G1 X0.1S200
G1 X0.2S0
G1 X9.3S200
G1 X0.3S0
G1 X0.1S200
G1 X0.2S0
G1 X0.1S200
G1 X0.2S0
G1 X0.1S200
G1 X0.1S0
G1 X0.2S200
G1 X0.3S0
G1 X0.1S200
G1 X0.2S0
G1 X0.1S200
G1 X0.2S0
G1 X0.1S200
G1 X0.3S0
G1 X0.1S200
G1 X0.5S0
G1 X4.8S200
G1 X0.2S0
G1 X0.5S200
G1 X0.1S0
G1 X4.4S200
G1 X0.1S0
G1 X0.3S200
G1 X28.7S0
G1 X6.9S200
G1 X2.5S0
G1 Y0.1
G1 X-2.5
G1 X-6.9S200
G1 X-28.6S0
G1 X-0.2S200
G1 X-0.1S0
G1 X-4.5S200
G1 X-0.1S0
G1 X-0.4S200
G1 X-0.2S0
G1 X-5S200
G1 X-0.2S0
G1 X-0.2S200
G1 X-0.2S0
G1 X-0.1S200
G1 X-0.2S0
G1 X-0.1S200
G1 X-0.2S0
G1 X-0.1S200
G1 X-0.2S0
G1 X-0.1S200
G1 X-0.1S0
G1 X-0.1S200
G1 X-0.1S0
G1 X-0.1S200
G1 X-0.2S0
G1 X-0.1S200
G1 X-0.2S0
G1 X-0.1S200
G1 X-0.2S0
G1 X-0.1S200
G1 X-0.2S0
G1 X-9.5S200
G1 X-0.2S0
G1 X-0.1S200
G1 X-0.2S0
G1 X-0.1S200
G1 X-0.3S0
G1 X-0.1S200
G1 X-0.2S0
G1 X-0.6S200
G1 X-0.1S0
G1 X-1.8S200
G1 X-8.9S0
G1 X-2.6S200
G1 X-0.1S0
G1 X-0.7S200
G1 X-0.1S0
G1 X-1.8S200
G1 X-0.1S0
G1 X-0.6S200
G1 X-0.1S0
G1 X-0.2S200
G1 X-0.1S0
G1 X-1.6S200
G1 X-0.1S0
G1 X-0.5S200
G1 X-0.1S0
G1 X-0.2S200
G1 X-0.1S0
G1 X-0.6S200
G1 X-0.1S0
G1 X-0.2S200
G1 X-0.1S0
G1 X-0.2S200
G1 X-0.1S0
G1 X-0.2S200
G1 X-0.1S0
G1 X-1.6S200
G1 X-0.1S0
G1 X-1.9S200
G1 X-0.1S0
G1 X-0.7S200
G1 X-0.1S0
G1 X-1.3S200
G1 X-0.1S0
G1 X-0.5S200
G1 X-0.1S0
G1 X-1.8S200
G1 X-0.1S0
G1 X-0.2S200
G1 X-0.1S0
G1 X-0.2S200
G1 X-0.1S0
G1 X-3.1S200
G1 X-0.1S0
G1 X-1.1S200
G1 X-0.1S0
G1 X-0.9S200
G1 X-0.1S0
G1 X-1.4S200
G1 X-0.1S0
G1 X-0.9S200
G1 X-0.1S0
G1 X-0.9S200
G1 X-0.1S0
G1 X-2S200
G1 X-0.1S0
G1 X-1.3S200
G1 X-0.1S0
G1 X-1.3S200
G1 X-0.1S0
G1 X-0.2S200
G1 X-0.1S0
G1 X-1.2S200
G1 X-0.1S0
G1 X-3.7S200
G1 X-0.1S0
G1 X-0.2S200
G1 X-12.7S0
G1 X-0.7S200
G1 X-0.1S0
G1 X-3.6S200
G1 X-0.1S0
G1 X-0.4S200
G1 X-2.5S0
G1 Y0.1
G1 X2.5
G1 X1S200
G1 X0.1S0
G1 X4S200
G1 X12.5S0
G1 X1.8S200
G1 X0.1S0
G1 X0.2S200
G1 X0.1S0
G1 X0.2S200
G1 X0.1S0
G1 X0.5S200
G1 X0.1S0
G1 X1.8S200
G1 X0.1S0
G1 X1S200
G1 X0.1S0
G1 X1.3S200
G1 X0.1S0
G1 X0.3S200
G1 X0.1S0
G1 X1.8S200
G1 X0.1S0
G1 X0.2S200
G1 X0.1S0
G1 X0.7S200
G1 X0.1S0
G1 X0.9S200
G1 X0.1S0
G1 X2.4S200
G1 X0.1S0
G1 X0.2S200
G1 X0.1S0
G1 X0.9S200
G1 X0.1S0
G1 X1.1S200
G1 X0.1S0
G1 X0.5S200
G1 X0.1S0
G1 X0.2S200
G1 X0.1S0
G1 X0.4S200
G1 X0.1S0
G1 X0.2S200
G1 X0.1S0
G1 X2.1S200
G1 X0.1S0
G1 X0.4S200
G1 X0.1S0
G1 X0.2S200
G1 X0.1S0
G1 X1.2S200
G1 X0.1S0
G1 X0.4S200
G1 X0.1S0
G1 X0.2S200
G1 X0.1S0
G1 X1.9S200
G1 X0.1S0
G1 X0.3S200
G1 X0.1S0
G1 X0.2S200
G1 X0.1S0
G1 X0.6S200
G1 X0.1S0
G1 X0.2S200
G1 X0.1S0
G1 X3.2S200
G1 X0.1S0
G1 X1.7S200
G1 X0.1S0
G1 X1.4S200
G1 X0.1S0
G1 X0.2S200
G1 X0.1S0
G1 X0.2S200
G1 X0.1S0
G1 X1.2S200
G1 X0.1S0
G1 X0.7S200
G1 X0.1S0
G1 X1.9S200
G1 X0.1S0
G1 X0.3S200
G1 X8.9S0
G1 X1.8S200
G1 X0.1S0
G1 X0.3S200
G1 X0.1S0
G1 X0.2S200
G1 X0.2S0
G1 X0.1S200
G1 X0.2S0
G1 X0.1S200
G1 X0.2S0
G1 X0.1S200
G1 X0.2S0
G1 X0.1S200
G1 X0.1S0
G1 X9.4S200
G1 X0.2S0
G1 X0.1S200
G1 X0.2S0
G1 X0.1S200
G1 X0.2S0
G1 X0.1S200
G1 X0.3S0
G1 X0.1S200
G1 X0.2S0
G1 X0.1S200
G1 X0.2S0
G1 X0.1S200
G1 X0.2S0
G1 X0.1S200
G1 X0.2S0
G1 X0.1S200
G1 X0.2S0
G1 X0.1S200
G1 X0.2S0
G1 X0.1S200
G1 X0.2S0
G1 X4.9S200
G1 X0.1S0
G1 X0.4S200
G1 X0.2S0
G1 X4.5S200
G1 X0.1S0
G1 X0.2S200
G1 X28.5S0
G1 X6.9S200
G1 X2.5S0
G1 Y0.1
G1 X-2.5
G1 X-6.9S200
G1 X-28.5S0
G1 X-0.2S200
G1 X-0.1S0
G1 X-4.5S200
G1 X-0.1S0
G1 X-0.5S200
G1 X-0.1S0
G1 X-4.9S200
G1 X-0.2S0
G1 X-0.1S200
G1 X-0.2S0
G1 X-0.1S200
G1 X-0.2S0
G1 X-0.1S200
G1 X-0.2S0
G1 X-0.1S200
G1 X-0.2S0
G1 X-0.1S200
G1 X-0.2S0
G1 X-0.1S200
G1 X-0.2S0
G1 X-0.1S200
G1 X-0.2S0
G1 X-0.1S200
G1 X-0.2S0
G1 X-0.1S200
G1 X-0.2S0
G1 X-0.1S200
G1 X-0.1S0
G1 X-0.1S200
G1 X-0.2S0
G1 X-9.5S200
G1 X-0.1S0
G1 X-0.1S200
G1 X-0.1S0
G1 X-0.1S200
G1 X-0.2S0
G1 X-0.1S200
G1 X-0.1S0
G1 X-0.1S200
G1 X-0.2S0
G1 X-0.6S200
G1 X-0.1S0
G1 X-1.8S200
G1 X-8.9S0
G1 X-0.6S200
G1 X-0.1S0
G1 X-0.4S200
G1 X-0.1S0
G1 X-0.3S200
G1 X-0.1S0
G1 X-0.4S200
G1 X-0.1S0
G1 X-2S200
G1 X-0.1S0
G1 X-1.5S200
G1 X-0.1S0
G1 X-1.6S200
G1 X-0.1S0
G1 X-0.2S200
G1 X-0.1S0
G1 X-1.4S200
G1 X-0.1S0
G1 X-1.7S200
G1 X-0.1S0
G1 X-0.2S200
G1 X-0.1S0
G1 X-2.2S200
G1 X-0.1S0
G1 X-0.9S200
G1 X-0.1S0
G1 X-3.9S200
G1 X-0.1S0
G1 X-1.3S200
G1 X-0.1S0
G1 X-2.3S200
G1 X-0.1S0
G1 X-0.5S200
G1 X-0.1S0
G1 X-2.7S200
G1 X-0.1S0
G1 X-0.2S200
G1 X-0.1S0
G1 X-0.5S200
G1 X-0.1S0
G1 X-1S200
G1 X-0.1S0
G1 X-0.7S200
G1 X-0.1S0
G1 X-0.9S200
G1 X-0.1S0
G1 X-0.4S200
G1 X-0.1S0
G1 X-2S200
G1 X-0.1S0
G1 X-0.2S200
G1 X-0.1S0
G1 X-2.7S200
G1 X-0.1S0
G1 X-3.5S200
G1 X-12.6S0
G1 X-2.2S200
G1 X-0.1S0
G1 X-1S200
G1 X-0.1S0
G1 X-1.7S200
G1 X-2.5S0
G1 X0.1Y0.1
G1 X2.5
G1 X4.6S200
G1 X0.1S0
G1 X0.3S200
G1 X12.7S0
G1 X3.1S200
G1 X0.1S0
G1 X0.5S200
G1 X0.1S0
G1 X0.3S200
G1 X0.1S0
G1 X0.2S200
G1 X0.1S0
G1 X0.5S200
G1 X0.1S0
G1 X0.4S200
G1 X0.1S0
G1 X1.3S200
G1 X0.1S0
G1 X0.9S200
G1 X0.1S0
G1 X0.2S200
G1 X0.1S0
G1 X3S200
G1 X0.1S0
G1 X0.9S200
G1 X0.1S0
G1 X0.8S200
G1 X0.1S0
G1 X0.2S200
G1 X0.1S0
G1 X0.2S200
G1 X0.1S0
G1 X0.8S200
G1 X0.1S0
G1 X0.3S200
G1 X0.1S0
G1 X1.7S200
G1 X0.1S0
G1 X0.7S200
G1 X0.1S0
G1 X1.2S200
G1 X0.1S0
G1 X0.7S200
G1 X0.1S0
G1 X0.9S200
G1 X0.1S0
G1 X0.8S200
G1 X0.1S0
G1 X0.2S200
G1 X0.1S0
G1 X0.2S200
G1 X0.1S0
G1 X0.5S200
G1 X0.1S0
G1 X0.8S200
G1 X0.1S0
G1 X0.6S200
G1 X0.1S0
G1 X0.2S200
G1 X0.1S0
G1 X1S200
G1 X0.1S0
G1 X2S200
G1 X0.1S0
G1 X0.4S200
G1 X0.1S0
G1 X0.6S200
G1 X0.1S0
G1 X4S200
G1 X0.1S0
G1 X1.9S200
G1 X0.1S0
G1 X0.5S200
G1 X0.1S0
G1 X2.5S200
G1 X0.1S0
G1 X0.2S200
G1 X8.9S0
G1 X1.8S200
G1 X0.1S0
G1 X0.6S200
G1 X0.2S0
G1 X0.1S200
G1 X0.2S0
G1 X0.1S200
G1 X0.2S0
G1 X0.1S200
G1 X0.2S0
G1 X9.4S200
G1 X0.2S0
G1 X0.1S200
G1 X0.2S0
G1 X0.1S200
G1 X0.2S0
G1 X0.1S200
G1 X0.2S0
G1 X0.1S200
G1 X0.1S0
G1 X0.1S200
G1 X0.2S0
G1 X0.1S200
G1 X0.2S0
G1 X0.1S200
G1 X0.1S0
G1 X0.1S200
G1 X0.2S0
G1 X0.1S200
G1 X0.1S0
G1 X0.1S200
G1 X0.2S0
G1 X0.1S200
G1 X0.2S0
G1 X0.1S200
G1 X0.4S0
G1 X4.8S200
G1 X0.1S0
G1 X0.6S200
G1 X0.1S0
G1 X4.4S200
G1 X0.1S0
G1 X0.1S200
G1 X28.5S0
G1 X6.9S200
G1 X2.5S0
G1 X0.3Y0.1
G1 X-2.5
G1 X-7.3S200
G1 X-28.5S0
G1 X-5S200
G1 X-0.2S0
G1 X-4.7S200
G1 X-0.2S0
G1 X-0.1S200
G1 X-0.2S0
G1 X-0.1S200
G1 X-0.2S0
G1 X-0.1S200
G1 X-0.2S0
G1 X-0.1S200
G1 X-0.2S0
G1 X-0.1S200
G1 X-0.2S0
G1 X-0.1S200
G1 X-0.2S0
G1 X-0.1S200
G1 X-0.2S0
G1 X-0.1S200
G1 X-0.2S0
G1 X-0.1S200
G1 X-0.2S0
G1 X-0.1S200
G1 X-0.1S0
G1 X-0.1S200
G1 X-0.2S0
G1 X-0.1S200
G1 X-0.2S0
G1 X-0.1S200
G1 X-0.2S0
G1 X-9.3S200
G1 X-0.2S0
G1 X-0.1S200
G1 X-0.2S0
G1 X-0.1S200
G1 X-0.2S0
G1 X-0.1S200
G1 X-0.2S0
G1 X-0.2S200
G1 X-0.1S0
G1 X-2.2S200
G1 X-8.9S0
G1 X-0.3S200
G1 X-0.1S0
G1 X-0.5S200
G1 X-0.1S0
G1 X-0.8S200
G1 X-0.1S0
G1 X-0.6S200
G1 X-0.1S0
G1 X-1.8S200
G1 X-0.1S0
G1 X-0.5S200
G1 X-0.1S0
G1 X-0.8S200
G1 X-0.1S0
G1 X-0.2S200
G1 X-0.1S0
G1 X-0.9S200
G1 X-0.1S0
G1 X-0.9S200
G1 X-0.1S0
G1 X-0.3S200
G1 X-0.1S0
G1 X-0.2S200
G1 X-0.1S0
G1 X-0.9S200
G1 X-0.1S0
G1 X-3.2S200
G1 X-0.1S0
G1 X-1.9S200
G1 X-0.1S0
G1 X-2S200
G1 X-0.1S0
G1 X-0.9S200
G1 X-0.1S0
G1 X-1S200
G1 X-0.1S0
G1 X-1S200
G1 X-0.1S0
G1 X-0.8S200
G1 X-0.1S0
G1 X-1.2S200
G1 X-0.1S0
G1 X-0.5S200
G1 X-0.1S0
G1 X-1S200
G1 X-0.1S0
G1 X-2.5S200
G1 X-0.1S0
G1 X-1.2S200
G1 X-0.1S0
G1 X-0.5S200
G1 X-0.1S0
G1 X-0.3S200
G1 X-0.1S0
G1 X-0.4S200
G1 X-0.1S0
G1 X-1.2S200
G1 X-0.1S0
G1 X-0.2S200
G1 X-0.1S0
G1 X-1.3S200
G1 X-0.1S0
G1 X-3.4S200
G1 X-0.1S0
G1 X-0.3S200
G1 X-0.1S0
G1 X-0.4S200
G1 X-0.1S0
G1 X-1.4S200
G1 X-12.8S0
G1 X-1.5S200
G1 X-0.1S0
G1 X-3.3S200
G1 X-2.5S0
G1 X0.1Y0.1
G1 X2.5
G1 X4.8S200
G1 X12.8S0
G1 X1.1S200
G1 X0.1S0
G1 X3.4S200
G1 X0.1S0
G1 X0.5S200
G1 X0.1S0
G1 X1S200
G1 X0.1S0
G1 X2S200
G1 X0.1S0
G1 X2.1S200
G1 X0.1S0
G1 X0.2S200
G1 X0.1S0
G1 X5.3S200
G1 X0.1S0
G1 X2S200
G1 X0.1S0
G1 X1S200
G1 X0.1S0
G1 X1.4S200
G1 X0.1S0
G1 X1.4S200
G1 X0.1S0
G1 X0.5S200
G1 X0.1S0
G1 X0.9S200
G1 X0.1S0
G1 X2.3S200
G1 X0.1S0
G1 X0.2S200
G1 X0.1S0
G1 X0.2S200
G1 X0.1S0
G1 X0.9S200
G1 X0.1S0
G1 X2.5S200
G1 X0.1S0
G1 X0.3S200
G1 X0.1S0
G1 X0.9S200
G1 X0.1S0
G1 X1.7S200
G1 X0.1S0
G1 X1.5S200
G1 X0.1S0
G1 X0.8S200
G1 X0.1S0
G1 X0.7S200
G1 X0.1S0
G1 X1.4S200
G1 X8.9S0
G1 X2.5S200
G1 X0.2S0
G1 X0.1S200
G1 X0.2S0
G1 X0.1S200
G1 X0.1S0
G1 X0.1S200
G1 X0.2S0
G1 X9.4S200
G1 X0.2S0
G1 X0.1S200
G1 X0.2S0
G1 X0.1S200
G1 X0.1S0
G1 X0.1S200
G1 X0.2S0
G1 X0.1S200
G1 X0.2S0
G1 X0.1S200
G1 X0.2S0
G1 X0.1S200
G1 X0.1S0
G1 X0.1S200
G1 X0.2S0
G1 X0.1S200
G1 X0.2S0
G1 X0.1S200
G1 X0.2S0
G1 X0.1S200
G1 X0.1S0
G1 X0.1S200
G1 X0.1S0
G1 X0.1S200
G1 X0.2S0
G1 X0.2S200
G1 X0.1S0
G1 X0.1S200
G1 X0.2S0
G1 X10.2S200
G1 X28.1S0
G1 X3.9S200
G1 X0.1S0
G1 X3.4S200
G1 X2.5S0
G1 Y0.1
G1 X-2.5
G1 X-3.4S200
G1 X-0.2S0
G1 X-3.8S200
G1 X-28S0
G1 X-10.2S200
G1 X-0.2S0
G1 X-0.1S200
G1 X-0.4S0
G1 X-0.1S200
G1 X-0.2S0
G1 X-0.1S200
G1 X-0.3S0
G1 X-0.1S200
G1 X-0.2S0
G1 X-0.1S200
G1 X-0.1S0
G1 X-0.1S200
G1 X-0.2S0
G1 X-0.1S200
G1 X-0.2S0
G1 X-0.1S200
G1 X-0.2S0
G1 X-0.1S200
G1 X-0.1S0
G1 X-0.1S200
G1 X-0.2S0
G1 X-0.1S200
G1 X-0.2S0
G1 X-0.1S200
G1 X-0.1S0
G1 X-0.1S200
G1 X-0.2S0
G1 X-9.3S200
G1 X-0.3S0
G1 X-0.1S200
G1 X-0.2S0
G1 X-0.1S200
G1 X-0.1S0
G1 X-0.1S200
G1 X-0.2S0
G1 X-2.5S200
G1 X-8.9S0
G1 X-0.6S200
G1 X-0.1S0
G1 X-0.4S200
G1 X-0.1S0
G1 X-2.2S200
G1 X-0.1S0
G1 X-2S200
G1 X-0.1S0
G1 X-3.6S200
G1 X-0.1S0
G1 X-0.3S200
G1 X-0.1S0
G1 X-1.2S200
G1 X-0.1S0
G1 X-0.2S200
G1 X-0.1S0
G1 X-1.2S200
G1 X-0.1S0
G1 X-0.3S200
G1 X-0.1S0
G1 X-0.5S200
G1 X-0.1S0
G1 X-0.2S200
G1 X-0.1S0
G1 X-2.5S200
G1 X-0.1S0
G1 X-1.5S200
G1 X-0.1S0
G1 X-0.6S200
G1 X-0.1S0
G1 X-1.1S200
G1 X-0.1S0
G1 X-0.8S200
G1 X-0.1S0
G1 X-0.2S200
G1 X-0.1S0
G1 X-0.5S200
G1 X-0.1S0
G1 X-0.2S200
G1 X-0.1S0
G1 X-0.9S200
G1 X-0.1S0
G1 X-0.7S200
G1 X-0.1S0
G1 X-0.2S200
G1 X-0.1S0
G1 X-0.6S200
G1 X-0.1S0
G1 X-0.3S200
G1 X-0.1S0
G1 X-0.4S200
G1 X-0.1S0
G1 X-0.2S200
G1 X-0.1S0
G1 X-0.2S200
G1 X-0.1S0
G1 X-0.3S200
G1 X-0.1S0
G1 X-0.5S200
G1 X-0.1S0
G1 X-1.2S200
G1 X-0.1S0
G1 X-0.8S200
G1 X-0.1S0
G1 X-0.9S200
G1 X-0.1S0
G1 X-1.1S200
G1 X-0.1S0
G1 X-0.2S200
G1 X-0.1S0
G1 X-2.1S200
G1 X-0.2S0
G1 X-0.4S200
G1 X-0.1S0
G1 X-0.2S200
G1 X-0.1S0
G1 X-0.2S200
G1 X-0.1S0
G1 X-1.4S200
G1 X-0.1S0
G1 X-1.6S200
G1 X-13.1S0
G1 X-4.4S200
G1 X-2.5S0
G1 X0.1Y0.1
G1 X2.5
G1 X4.3S200
G1 X13.1S0
G1 X2S200
G1 X0.1S0
G1 X0.3S200
G1 X0.1S0
G1 X1.7S200
G1 X0.4S0
G1 X0.2S200
G1 X0.1S0
G1 X0.5S200
G1 X0.1S0
G1 X0.2S200
G1 X0.1S0
G1 X0.2S200
G1 X0.1S0
G1 X1.4S200
G1 X0.1S0
G1 X1S200
G1 X0.1S0
G1 X0.7S200
G1 X0.1S0
G1 X4.5S200
G1 X0.1S0
G1 X0.9S200
G1 X0.1S0
G1 X0.8S200
G1 X0.1S0
G1 X2.9S200
G1 X0.1S0
G1 X1.1S200
G1 X0.1S0
G1 X1.2S200
G1 X0.1S0
G1 X0.2S200
G1 X0.1S0
G1 X0.9S200
G1 X0.1S0
G1 X0.7S200
G1 X0.1S0
G1 X0.2S200
G1 X0.1S0
G1 X0.4S200
G1 X0.1S0
G1 X3.9S200
G1 X0.1S0
G1 X0.2S200
G1 X0.1S0
G1 X1S200
G1 X0.1S0
G1 X0.2S200
G1 X0.1S0
G1 X0.2S200
G1 X0.1S0
G1 X2.1S200
G1 X0.1S0
G1 X0.7S200
G1 X0.1S0
G1 X0.8S200
G1 X0.1S0
G1 X1.4S200
G1 X0.1S0
G1 X0.2S200
G1 X0.1S0
G1 X0.5S200
G1 X0.1S0
G1 X1.5S200
G1 X0.1S0
G1 X0.3S200
G1 X8.8S0
G1 X2.3S200
G1 X0.1S0
G1 X0.2S200
G1 X0.2S0
G1 X0.1S200
G1 X0.2S0
G1 X0.1S200
G1 X0.2S0
G1 X0.1S200
G1 X0.2S0
G1 X9.1S200
G1 X0.2S0
G1 X0.1S200
G1 X0.2S0
G1 X0.1S200
G1 X0.2S0
G1 X0.1S200
G1 X0.2S0
G1 X0.1S200
G1 X0.2S0
G1 X0.1S200
G1 X0.2S0
G1 X0.1S200
G1 X0.2S0
G1 X0.1S200
G1 X0.2S0
G1 X0.1S200
G1 X0.2S0
G1 X0.1S200
G1 X0.1S0
G1 X0.1S200
G1 X0.2S0
G1 X0.1S200
G1 X0.2S0
G1 X0.1S200
G1 X0.2S0
G1 X0.1S200
G1 X0.2S0
G1 X0.1S200
G1 X0.4S0
G1 X10.1S200
G1 X27.8S0
G1 X3.8S200
G1 X0.2S0
G1 X3S200
G1 X0.2S0
G1 X0.3S200
G1 X2.5S0
G1 Y0.1
G1 X-2.5
G1 X-0.3S200
G1 X-0.2S0
G1 X-3S200
G1 X-0.1S0
G1 X-3.9S200
G1 X-27.8S0
G1 X-10.1S200
G1 X-0.2S0
G1 X-0.2S200
G1 X-0.2S0
G1 X-0.2S200
G1 X-0.2S0
G1 X-0.1S200
G1 X-0.2S0
G1 X-0.1S200
G1 X-0.1S0
G1 X-0.1S200
G1 X-0.1S0
G1 X-0.1S200
G1 X-0.2S0
G1 X-0.1S200
G1 X-0.2S0
G1 X-0.1S200
G1 X-0.2S0
G1 X-0.1S200
G1 X-0.1S0
G1 X-0.1S200
G1 X-0.2S0
G1 X-0.1S200
G1 X-0.2S0
G1 X-0.1S200
G1 X-0.2S0
G1 X-0.1S200
G1 X-0.2S0
G1 X-0.1S200
G1 X-0.2S0
G1 X-0.1S200
G1 X-0.2S0
G1 X-9S200
G1 X-0.1S0
G1 X-0.2S200
G1 X-0.2S0
G1 X-0.1S200
G1 X-0.2S0
G1 X-0.1S200
G1 X-0.2S0
G1 X-2.6S200
G1 X-9S0
G1 X-1.4S200
G1 X-0.1S0
G1 X-1.4S200
G1 X-0.1S0
G1 X-1.7S200
G1 X-0.1S0
G1 X-0.7S200
G1 X-0.1S0
G1 X-0.7S200
G1 X-0.1S0
G1 X-0.9S200
G1 X-0.1S0
G1 X-0.2S200
G1 X-0.1S0
G1 X-2.7S200
G1 X-0.1S0
G1 X-1.1S200
G1 X-0.1S0
G1 X-1.3S200
G1 X-0.1S0
G1 X-2.1S200
G1 X-0.1S0
G1 X-1.9S200
G1 X-0.1S0
G1 X-0.2S200
G1 X-0.1S0
G1 X-1.2S200
G1 X-0.1S0
G1 X-0.2S200
G1 X-0.1S0
G1 X-0.8S200
G1 X-0.1S0
G1 X-0.2S200
G1 X-0.1S0
G1 X-0.8S200
G1 X-0.1S0
G1 X-4S200
G1 X-0.1S0
G1 X-1.4S200
G1 X-0.1S0
G1 X-0.7S200
G1 X-0.1S0
G1 X-0.4S200
G1 X-0.1S0
G1 X-0.4S200
G1 X-0.1S0
G1 X-1.8S200
G1 X-0.1S0
G1 X-0.6S200
G1 X-0.1S0
G1 X-1.9S200
G1 X-0.1S0
G1 X-0.5S200
G1 X-0.4S0
G1 X-0.1S200
G1 X-0.1S0
G1 X-3.3S200
G1 X-0.1S0
G1 X-0.4S200
G1 X-13.3S0
G1 X-2.4S200
G1 X-0.1S0
G1 X-1.6S200
G1 X-2.5S0
G1 X0.1Y0.1
G1 X2.5
G1 X4S200
G1 X13.2S0
G1 X1.3S200
G1 X0.1S0
G1 X0.2S200
G1 X0.1S0
G1 X1.4S200
G1 X0.1S0
G1 X0.4S200
G1 X0.1S0
G1 X0.4S200
G1 X0.3S0
G1 X1.8S200
G1 X0.1S0
G1 X0.4S200
G1 X0.1S0
G1 X1.3S200
G1 X0.1S0
G1 X0.6S200
G1 X0.1S0
G1 X2S200
G1 X0.1S0
G1 X0.7S200
G1 X0.1S0
G1 X0.2S200
G1 X0.1S0
G1 X0.4S200
G1 X0.1S0
G1 X0.7S200
G1 X0.1S0
G1 X0.8S200
G1 X0.1S0
G1 X0.8S200
G1 X0.1S0
G1 X0.2S200
G1 X0.1S0
G1 X0.6S200
G1 X0.1S0
G1 X0.2S200
G1 X0.1S0
G1 X1S200
G1 X0.1S0
G1 X2.7S200
G1 X0.1S0
G1 X1.5S200
G1 X0.1S0
G1 X0.3S200
G1 X0.1S0
G1 X2.1S200
G1 X0.1S0
G1 X0.7S200
G1 X0.3S0
G1 X1.3S200
G1 X0.1S0
G1 X0.2S200
G1 X0.1S0
G1 X1.6S200
G1 X0.1S0
G1 X0.2S200
G1 X0.1S0
G1 X1.9S200
G1 X0.1S0
G1 X0.9S200
G1 X0.1S0
G1 X1.5S200
G1 X0.1S0
G1 X0.4S200
G1 X0.1S0
G1 X0.5S200
G1 X0.1S0
G1 X1.2S200
G1 X0.1S0
G1 X0.8S200
G1 X0.1S0
G1 X0.2S200
G1 X0.1S0
G1 X0.2S200
G1 X0.1S0
G1 X0.5S200
G1 X9S0
G1 X2.6S200
G1 X0.2S0
G1 X0.1S200
G1 X0.2S0
G1 X0.1S200
G1 X0.5S0
G1 X9S200
G1 X0.1S0
G1 X0.1S200
G1 X0.2S0
G1 X0.1S200
G1 X0.2S0
G1 X0.1S200
G1 X0.2S0
G1 X0.1S200
G1 X0.2S0
G1 X0.1S200
G1 X0.2S0
G1 X0.1S200
G1 X0.2S0
G1 X0.1S200
G1 X0.2S0
G1 X0.1S200
G1 X0.2S0
G1 X0.1S200
G1 X0.3S0
G1 X0.1S200
G1 X0.2S0
G1 X0.1S200
G1 X0.2S0
G1 X0.1S200
G1 X0.2S0
G1 X0.1S200
G1 X0.2S0
G1 X0.1S200
G1 X0.2S0
G1 X0.1S200
G1 X0.1S0
G1 X0.2S200
G1 X0.1S0
G1 X4.9S200
G1 X0.2S0
G1 X4.8S200
G1 X27.7S0
G1 X7.2S200
G1 X0.1S0
G1 X0.3S200
G1 X2.5S0
G1 X0.1Y0.1
G1 X-2.5
G1 X-7.7S200
G1 X-27.7S0
G1 X-4.8S200
G1 X-0.1S0
G1 X-5S200
G1 X-0.4S0
G1 X-0.1S200
G1 X-0.2S0
G1 X-0.1S200
G1 X-0.2S0
G1 X-0.1S200
G1 X-0.2S0
G1 X-0.1S200
G1 X-0.2S0
G1 X-0.1S200
G1 X-0.2S0
G1 X-0.1S200
G1 X-0.2S0
G1 X-0.2S200
G1 X-0.1S0
G1 X-0.1S200
G1 X-0.1S0
G1 X-0.1S200
G1 X-0.1S0
G1 X-0.1S200
G1 X-0.2S0
G1 X-0.1S200
G1 X-0.2S0
G1 X-0.2S200
G1 X-0.2S0
G1 X-0.1S200
G1 X-0.1S0
G1 X-0.1S200
G1 X-0.2S0
G1 X-0.1S200
G1 X-0.1S0
G1 X-0.1S200
G1 X-0.2S0
G1 X-9S200
G1 X-0.2S0
G1 X-0.1S200
G1 X-0.1S0
G1 X-0.2S200
G1 X-0.2S0
G1 X-0.1S200
G1 X-0.2S0
G1 X-2.6S200
G1 X-9.1S0
G1 X-1.6S200
G1 X-0.1S0
G1 X-0.6S200
G1 X-0.1S0
G1 X-2.7S200
G1 X-0.1S0
G1 X-2.7S200
G1 X-0.1S0
G1 X-0.6S200
G1 X-0.1S0
G1 X-0.8S200
G1 X-0.1S0
G1 X-0.4S200
G1 X-0.1S0
G1 X-0.5S200
G1 X-0.1S0
G1 X-1.1S200
G1 X-0.1S0
G1 X-0.4S200
G1 X-0.1S0
G1 X-0.3S200
G1 X-0.4S0
G1 X-0.2S200
G1 X-0.1S0
G1 X-0.6S200
G1 X-0.1S0
G1 X-0.2S200
G1 X-0.1S0
G1 X-0.4S200
G1 X-0.1S0
G1 X-0.6S200
G1 X-0.1S0
G1 X-1S200
G1 X-0.1S0
G1 X-1.4S200
G1 X-0.1S0
G1 X-0.2S200
G1 X-0.1S0
G1 X-0.8S200
G1 X-0.1S0
G1 X-0.2S200
G1 X-0.1S0
G1 X-1.7S200
G1 X-0.1S0
G1 X-0.9S200
G1 X-0.1S0
G1 X-0.8S200
G1 X-0.1S0
G1 X-0.2S200
G1 X-0.1S0
G1 X-0.5S200
G1 X-0.1S0
G1 X-0.2S200
G1 X-0.1S0
G1 X-2.3S200
G1 X-0.1S0
G1 X-0.8S200
G1 X-0.1S0
G1 X-1.1S200
G1 X-0.1S0
G1 X-0.6S200
G1 X-0.1S0
G1 X-1S200
G1 X-0.1S0
G1 X-1.6S200
G1 X-0.1S0
G1 X-0.9S200
G1 X-0.1S0
G1 X-1.2S200
G1 X-0.1S0
G1 X-1.2S200
G1 X-0.1S0
G1 X-1.9S200
G1 X-13.3S0
G1 X-0.7S200
G1 X-0.1S0
G1 X-1S200
G1 X-0.1S0
G1 X-1.5S200
G1 X-0.1S0
G1 X-0.3S200
G1 X-2.5S0
G1 X0.2Y0.1
G1 X2.5
G1 X3.4S200
G1 X13.5S0
G1 X2.2S200
G1 X0.1S0
G1 X0.2S200
G1 X0.1S0
G1 X2.4S200
G1 X0.1S0
G1 X0.7S200
G1 X0.1S0
G1 X0.5S200
G1 X0.1S0
G1 X1.1S200
G1 X0.1S0
G1 X1.6S200
G1 X0.1S0
G1 X0.2S200
G1 X0.1S0
G1 X0.2S200
G1 X0.1S0
G1 X0.5S200
G1 X0.1S0
G1 X1.6S200
G1 X0.1S0
G1 X0.4S200
G1 X0.1S0
G1 X4.1S200
G1 X0.1S0
G1 X0.2S200
G1 X0.1S0
G1 X0.4S200
G1 X0.1S0
G1 X0.3S200
G1 X0.1S0
G1 X1.1S200
G1 X0.1S0
G1 X1.1S200
G1 X0.1S0
G1 X0.4S200
G1 X0.1S0
G1 X1.7S200
G1 X0.1S0
G1 X2.1S200
G1 X0.5S0
G1 X2.2S200
G1 X0.1S0
G1 X1.9S200
G1 X0.1S0
G1 X0.6S200
G1 X0.1S0
G1 X2S200
G1 X0.1S0
G1 X0.6S200
G1 X0.1S0
G1 X0.7S200
G1 X0.1S0
G1 X0.9S200
G1 X0.1S0
G1 X0.2S200
G1 X0.1S0
G1 X2.4S200
G1 X0.1S0
G1 X0.2S200
G1 X9.1S0
G1 X2.6S200
G1 X0.2S0
G1 X0.1S200
G1 X0.4S0
G1 X0.1S200
G1 X0.1S0
G1 X0.1S200
G1 X0.1S0
G1 X8.9S200
G1 X0.2S0
G1 X0.1S200
G1 X0.2S0
G1 X0.1S200
G1 X0.1S0
G1 X0.1S200
G1 X0.2S0
G1 X0.1S200
G1 X0.2S0
G1 X0.1S200
G1 X0.2S0
G1 X0.1S200
G1 X0.1S0
G1 X0.1S200
G1 X0.2S0
G1 X0.1S200
G1 X0.5S0
G1 X0.1S200
G1 X0.2S0
G1 X0.1S200
G1 X0.2S0
G1 X0.1S200
G1 X0.1S0
G1 X0.1S200
G1 X0.1S0
G1 X0.1S200
G1 X0.2S0
G1 X0.1S200
G1 X0.2S0
G1 X0.1S200
G1 X0.2S0
G1 X0.1S200
G1 X0.2S0
G1 X0.1S200
G1 X0.1S0
G1 X9.8S200
G1 X27.7S0
G1 X7.7S200
G1 X2.5S0
G1 Y0.1
G1 X-2.5
G1 X-7.7S200
G1 X-27.7S0
G1 X-4.8S200
G1 X-0.2S0
G1 X-4.7S200
G1 X-0.3S0
G1 X-0.1S200
G1 X-0.1S0
G1 X-0.1S200
G1 X-0.2S0
G1 X-0.1S200
G1 X-0.2S0
G1 X-0.1S200
G1 X-0.2S0
G1 X-0.1S200
G1 X-0.2S0
G1 X-0.1S200
G1 X-0.2S0
G1 X-0.1S200
G1 X-0.2S0
G1 X-0.1S200
G1 X-0.2S0
G1 X-0.2S200
G1 X-0.1S0
G1 X-0.1S200
G1 X-0.2S0
G1 X-0.1S200
G1 X-0.2S0
G1 X-0.1S200
G1 X-0.2S0
G1 X-0.1S200
G1 X-0.2S0
G1 X-0.1S200
G1 X-0.2S0
G1 X-0.1S200
G1 X-0.2S0
G1 X-0.1S200
G1 X-0.2S0
G1 X-0.1S200
G1 X-0.2S0
G1 X-8.8S200
G1 X-0.2S0
G1 X-0.1S200
G1 X-0.2S0
G1 X-0.1S200
G1 X-0.1S0
G1 X-0.2S200
G1 X-0.2S0
G1 X-2.6S200
G1 X-9.1S0
G1 X-0.5S200
G1 X-0.1S0
G1 X-0.4S200
G1 X-0.1S0
G1 X-0.2S200
G1 X-0.1S0
G1 X-0.6S200
G1 X-0.1S0
G1 X-1.2S200
G1 X-0.1S0
G1 X-1.1S200
G1 X-0.1S0
G1 X-1.3S200
G1 X-0.1S0
G1 X-0.2S200
G1 X-0.1S0
G1 X-0.7S200
G1 X-0.1S0
G1 X-0.2S200
G1 X-0.1S0
G1 X-2.3S200
G1 X-0.1S0
G1 X-1.4S200
G1 X-0.1S0
G1 X-0.2S200
G1 X-0.1S0
G1 X-1S200
G1 X-0.6S0
G1 X-0.5S200
G1 X-0.1S0
G1 X-0.7S200
G1 X-0.1S0
G1 X-1.4S200
G1 X-0.1S0
G1 X-0.2S200
G1 X-0.1S0
G1 X-2.6S200
G1 X-0.1S0
G1 X-3S200
G1 X-0.1S0
G1 X-0.5S200
G1 X-0.1S0
G1 X-2.2S200
G1 X-0.1S0
G1 X-1S200
G1 X-0.1S0
G1 X-0.4S200
G1 X-0.1S0
G1 X-2.7S200
G1 X-0.1S0
G1 X-0.6S200
G1 X-0.1S0
G1 X-1S200
G1 X-0.1S0
G1 X-1.4S200
G1 X-0.1S0
G1 X-1.2S200
G1 X-0.1S0
G1 X-0.2S200
G1 X-0.1S0
G1 X-2S200
G1 X-0.1S0
G1 X-1.6S200
G1 X-13.5S0
G1 X-3.3S200
G1 X-2.5S0
G1 X0.1Y0.1
G1 X2.5
G1 X2.1S200
G1 X0.1S0
G1 X0.9S200
G1 X13.6S0
G1 X1.2S200
G1 X0.1S0
G1 X2S200
G1 X0.1S0
G1 X0.9S200
G1 X0.1S0
G1 X0.2S200
G1 X0.1S0
G1 X1.4S200
G1 X0.1S0
G1 X0.9S200
G1 X0.1S0
G1 X0.2S200
G1 X0.1S0
G1 X0.8S200
G1 X0.1S0
G1 X0.6S200
G1 X0.1S0
G1 X1.7S200
G1 X0.1S0
G1 X0.2S200
G1 X0.1S0
G1 X2.1S200
G1 X0.1S0
G1 X0.3S200
G1 X0.1S0
G1 X0.3S200
G1 X0.1S0
G1 X0.3S200
G1 X0.1S0
G1 X0.3S200
G1 X0.1S0
G1 X1.2S200
G1 X0.1S0
G1 X0.2S200
G1 X0.1S0
G1 X2.1S200
G1 X0.1S0
G1 X1.2S200
G1 X0.1S0
G1 X0.7S200
G1 X0.1S0
G1 X0.4S200
G1 X0.1S0
G1 X0.9S200
G1 X0.1S0
G1 X0.7S200
G1 X0.1S0
G1 X0.8S200
G1 X0.1S0
G1 X0.6S200
G1 X0.1S0
G1 X0.1S200
G1 X0.6S0
G1 X1.6S200
G1 X0.1S0
G1 X1.5S200
G1 X0.1S0
G1 X0.2S200
G1 X0.1S0
G1 X0.2S200
G1 X0.1S0
G1 X0.6S200
G1 X0.1S0
G1 X2.7S200
G1 X0.1S0
G1 X0.9S200
G1 X0.1S0
G1 X1.7S200
G1 X0.1S0
G1 X0.7S200
G1 X0.1S0
G1 X1.6S200
G1 X9.1S0
G1 X2.3S200
G1 X0.1S0
G1 X0.2S200
G1 X0.4S0
G1 X0.1S200
G1 X0.2S0
G1 X0.1S200
G1 X0.3S0
G1 X8.7S200
G1 X0.2S0
G1 X0.1S200
G1 X0.2S0
G1 X0.1S200
G1 X0.2S0
G1 X0.1S200
G1 X0.2S0
G1 X0.1S200
G1 X0.2S0
G1 X0.1S200
G1 X0.2S0
G1 X0.1S200
G1 X0.2S0
G1 X0.1S200
G1 X0.2S0
G1 X0.1S200
G1 X0.2S0
G1 X0.1S200
G1 X0.2S0
G1 X0.1S200
G1 X0.2S0
G1 X0.1S200
G1 X0.2S0
G1 X0.1S200
G1 X0.2S0
G1 X0.1S200
G1 X0.2S0
G1 X0.1S200
G1 X0.1S0
G1 X0.1S200
G1 X0.2S0
G1 X0.1S200
G1 X0.2S0
G1 X0.1S200
G1 X0.1S0
G1 X0.1S200
G1 X0.2S0
G1 X4.8S200
G1 X0.1S0
G1 X5S200
G1 X27.5S0
G1 X2.5S200
G1 X0.2S0
G1 X0.6S200
G1 X0.1S0
G1 X4.2S200
G1 X0.1S0
G1 X0.2S200
G1 X2.5S0
G1 Y0.1
G1 X-2.5
G1 X-5.2S200
G1 X-0.1S0
G1 X-2.7S200
G1 X-27.4S0
G1 X-9.7S200
G1 X-0.3S0
G1 X-0.1S200
G1 X-0.2S0
G1 X-0.1S200
G1 X-0.2S0
G1 X-0.1S200
G1 X-0.2S0
G1 X-0.1S200
G1 X-0.2S0
G1 X-0.1S200
G1 X-0.2S0
G1 X-0.1S200
G1 X-0.2S0
G1 X-0.1S200
G1 X-0.2S0
G1 X-0.1S200
G1 X-0.2S0
G1 X-0.1S200
G1 X-0.2S0
G1 X-0.1S200
G1 X-0.2S0
G1 X-0.1S200
G1 X-0.2S0
G1 X-0.1S200
G1 X-0.2S0
G1 X-0.1S200
G1 X-0.2S0
G1 X-0.1S200
G1 X-0.1S0
G1 X-0.1S200
G1 X-0.2S0
G1 X-0.1S200
G1 X-0.2S0
G1 X-0.1S200
G1 X-0.1S0
G1 X-0.1S200
G1 X-0.2S0
G1 X-8.8S200
G1 X-0.1S0
G1 X-0.1S200
G1 X-0.1S0
G1 X-0.1S200
G1 X-0.2S0
G1 X-0.1S200
G1 X-0.2S0
G1 X-0.1S200
G1 X-0.1S0
G1 X-2.7S200
G1 X-9S0
G1 X-0.7S200
G1 X-0.1S0
G1 X-1.9S200
G1 X-0.1S0
G1 X-2S200
G1 X-0.1S0
G1 X-0.7S200
G1 X-0.1S0
G1 X-0.4S200
G1 X-0.1S0
G1 X-0.6S200
G1 X-0.1S0
G1 X-1.4S200
G1 X-0.1S0
G1 X-1.5S200
G1 X-0.1S0
G1 X-0.2S200
G1 X-0.1S0
G1 X-0.3S200
G1 X-0.1S0
G1 X-1.1S200
G1 X-0.1S0
G1 X-0.4S200
G1 X-0.1S0
G1 X-0.1S200
G1 X-0.7S0
G1 X-2.2S200
G1 X-0.1S0
G1 X-2.2S200
G1 X-0.1S0
G1 X-0.7S200
G1 X-0.1S0
G1 X-1.1S200
G1 X-0.1S0
G1 X-0.3S200
G1 X-0.1S0
G1 X-0.2S200
G1 X-0.1S0
G1 X-0.2S200
G1 X-0.1S0
G1 X-0.3S200
G1 X-0.1S0
G1 X-1.2S200
G1 X-0.1S0
G1 X-2.9S200
G1 X-0.1S0
G1 X-0.2S200
G1 X-0.1S0
G1 X-0.5S200
G1 X-0.1S0
G1 X-1.2S200
G1 X-0.1S0
G1 X-0.2S200
G1 X-0.1S0
G1 X-0.2S200
G1 X-0.1S0
G1 X-3.3S200
G1 X-0.1S0
G1 X-0.7S200
G1 X-0.1S0
G1 X-0.6S200
G1 X-0.1S0
G1 X-2.2S200
G1 X-0.1S0
G1 X-0.3S200
G1 X-0.1S0
G1 X-0.2S200
G1 X-0.1S0
G1 X-1.9S200
G1 X-13.8S0
G1 X-2.3S200
G1 X-0.1S0
G1 X-0.3S200
G1 X-2.5S0
G1 X0.1Y0.1
G1 X2.5
G1 X2.4S200
G1 X14S0
G1 X1.5S200
G1 X0.1S0
G1 X1.9S200
G1 X0.1S0
G1 X0.2S200
G1 X0.1S0
G1 X1.3S200
G1 X0.1S0
G1 X0.6S200
G1 X0.1S0
G1 X0.7S200
G1 X0.1S0
G1 X1S200
G1 X0.1S0
G1 X0.8S200
G1 X0.1S0
G1 X0.5S200
G1 X0.1S0
G1 X3.5S200
G1 X0.1S0
G1 X2.2S200
G1 X0.1S0
G1 X3.9S200
G1 X0.1S0
G1 X0.5S200
G1 X0.1S0
G1 X0.7S200
G1 X0.1S0
G1 X0.9S200
G1 X0.1S0
G1 X1.7S200
G1 X0.1S0
G1 X0.2S200
G1 X0.1S0
G1 X0.6S200
G1 X0.1S0
G1 X0.2S200
G1 X0.9S0
G1 X0.9S200
G1 X0.1S0
G1 X3.7S200
G1 X0.1S0
G1 X0.2S200
G1 X0.1S0
G1 X3.4S200
G1 X0.1S0
G1 X0.7S200
G1 X0.1S0
G1 X0.9S200
G1 X0.1S0
G1 X1S200
G1 X0.1S0
G1 X1S200
G1 X9S0
G1 X2.7S200
G1 X0.2S0
G1 X0.1S200
G1 X0.2S0
G1 X0.1S200
G1 X0.2S0
G1 X0.1S200
G1 X0.2S0
G1 X8.6S200
G1 X0.2S0
G1 X0.1S200
G1 X0.2S0
G1 X0.1S200
G1 X0.2S0
G1 X0.1S200
G1 X0.2S0
G1 X0.1S200
G1 X0.2S0
G1 X0.1S200
G1 X0.2S0
G1 X0.1S200
G1 X0.2S0
G1 X0.1S200
G1 X0.1S0
G1 X0.1S200
G1 X0.2S0
G1 X0.1S200
G1 X0.2S0
G1 X0.1S200
G1 X0.2S0
G1 X0.1S200
G1 X0.1S0
G1 X0.1S200
G1 X0.1S0
G1 X0.1S200
G1 X0.2S0
G1 X0.1S200
G1 X0.2S0
G1 X0.1S200
G1 X0.2S0
G1 X0.1S200
G1 X0.1S0
G1 X0.1S200
G1 X0.1S0
G1 X0.1S200
G1 X0.2S0
G1 X0.1S200
G1 X0.2S0
G1 X0.1S200
G1 X0.3S0
G1 X4.4S200
G1 X0.2S0
G1 X5.1S200
G1 X27.3S0
G1 X2.8S200
G1 X0.1S0
G1 X5.2S200
G1 X2.5S0
G1 X0.1Y0.1
G1 X-2.5
G1 X-8.3S200
G1 X-27.2S0
G1 X-5.2S200
G1 X-0.1S0
G1 X-4.3S200
G1 X-0.3S0
G1 X-0.2S200
G1 X-0.2S0
G1 X-0.1S200
G1 X-0.2S0
G1 X-0.1S200
G1 X-0.2S0
G1 X-0.1S200
G1 X-0.2S0
G1 X-0.1S200
G1 X-0.2S0
G1 X-0.1S200
G1 X-0.1S0
G1 X-0.1S200
G1 X-0.2S0
G1 X-0.1S200
G1 X-0.3S0
G1 X-0.1S200
G1 X-0.2S0
G1 X-0.1S200
G1 X-0.2S0
G1 X-0.1S200
G1 X-0.2S0
G1 X-0.1S200
G1 X-0.2S0
G1 X-0.1S200
G1 X-0.1S0
G1 X-0.1S200
G1 X-0.2S0
G1 X-0.1S200
G1 X-0.2S0
G1 X-0.1S200
G1 X-0.1S0
G1 X-0.1S200
G1 X-0.2S0
G1 X-0.1S200
G1 X-0.2S0
G1 X-0.1S200
G1 X-0.3S0
G1 X-8.5S200
G1 X-0.2S0
G1 X-0.1S200
G1 X-0.2S0
G1 X-0.1S200
G1 X-0.2S0
G1 X-0.1S200
G1 X-0.2S0
G1 X-2.7S200
G1 X-9S0
G1 X-0.4S200
G1 X-0.1S0
G1 X-1S200
G1 X-0.1S0
G1 X-0.2S200
G1 X-0.1S0
G1 X-2.3S200
G1 X-0.1S0
G1 X-0.2S200
G1 X-0.1S0
G1 X-0.7S200
G1 X-0.1S0
G1 X-0.6S200
G1 X-0.1S0
G1 X-1S200
G1 X-0.1S0
G1 X-1.6S200
G1 X-0.1S0
G1 X-0.4S200
G1 X-0.1S0
G1 X-0.2S200
G1 X-0.1S0
G1 X-1.5S200
G1 X-0.1S0
G1 X-1.2S200
G1 X-0.9S0
G1 X-0.5S200
G1 X-0.1S0
G1 X-0.9S200
G1 X-0.1S0
G1 X-0.2S200
G1 X-0.1S0
G1 X-0.5S200
G1 X-0.1S0
G1 X-0.2S200
G1 X-0.1S0
G1 X-0.5S200
G1 X-0.1S0
G1 X-0.2S200
G1 X-0.1S0
G1 X-2.3S200
G1 X-0.1S0
G1 X-1.9S200
G1 X-0.1S0
G1 X-0.3S200
G1 X-0.1S0
G1 X-0.2S200
G1 X-0.1S0
G1 X-1.1S200
G1 X-0.1S0
G1 X-0.2S200
G1 X-0.1S0
G1 X-0.2S200
G1 X-0.1S0
G1 X-0.2S200
G1 X-0.1S0
G1 X-0.2S200
G1 X-0.1S0
G1 X-0.2S200
G1 X-0.1S0
G1 X-1.1S200
G1 X-0.1S0
G1 X-0.7S200
G1 X-0.1S0
G1 X-0.4S200
G1 X-0.1S0
G1 X-1S200
G1 X-0.1S0
G1 X-1.1S200
G1 X-0.1S0
G1 X-0.2S200
G1 X-0.1S0
G1 X-0.5S200
G1 X-0.1S0
G1 X-0.3S200
G1 X-0.1S0
G1 X-2.4S200
G1 X-0.1S0
G1 X-0.4S200
G1 X-0.1S0
G1 X-2.8S200
G1 X-0.1S0
G1 X-1.2S200
G1 X-14.3S0
G1 X-1.8S200
G1 X-2.5S0
G1 X0.5Y0.1
G1 X2.5
G1 X0.8S200
G1 X14.8S0
G1 X1.8S200
G1 X0.1S0
G1 X0.3S200
G1 X0.1S0
G1 X0.2S200
G1 X0.1S0
G1 X0.2S200
G1 X0.1S0
G1 X2.6S200
G1 X0.1S0
G1 X0.6S200
G1 X0.1S0
G1 X2.7S200
G1 X0.1S0
G1 X1.3S200
G1 X0.1S0
G1 X1S200
G1 X0.1S0
G1 X0.9S200
G1 X0.1S0
G1 X2.4S200
G1 X0.1S0
G1 X0.4S200
G1 X0.1S0
G1 X1.4S200
G1 X0.1S0
G1 X0.3S200
G1 X0.1S0
G1 X0.4S200
G1 X0.1S0
G1 X0.2S200
G1 X0.1S0
G1 X0.6S200
G1 X0.1S0
G1 X1.1S200
G1 X0.1S0
G1 X4.5S200
G1 X0.9S0
G1 X0.1S200
G1 X0.1S0
G1 X1.3S200
G1 X0.1S0
G1 X0.2S200
G1 X0.1S0
G1 X0.2S200
G1 X0.1S0
G1 X1.7S200
G1 X0.1S0
G1 X0.2S200
G1 X0.1S0
G1 X0.2S200
G1 X0.1S0
G1 X1.7S200
G1 X0.1S0
G1 X0.4S200
G1 X0.1S0
G1 X0.5S200
G1 X0.1S0
G1 X1.6S200
G1 X0.1S0
G1 X0.4S200
G1 X0.1S0
G1 X0.3S200
G1 X0.1S0
G1 X1.1S200
G1 X0.1S0
G1 X1.1S200
G1 X9.2S0
G1 X2.6S200
G1 X0.2S0
G1 X0.1S200
G1 X0.1S0
G1 X0.1S200
G1 X0.1S0
G1 X0.1S200
G1 X0.2S0
G1 X0.1S200
G1 X0.1S0
G1 X8.5S200
G1 X0.1S0
G1 X0.1S200
G1 X0.2S0
G1 X0.1S200
G1 X0.2S0
G1 X0.1S200
G1 X0.2S0
G1 X0.1S200
G1 X0.2S0
G1 X0.1S200
G1 X0.2S0
G1 X0.1S200
G1 X0.2S0
G1 X0.1S200
G1 X0.2S0
G1 X0.1S200
G1 X0.2S0
G1 X0.1S200
G1 X0.1S0
G1 X0.1S200
G1 X0.2S0
G1 X0.1S200
G1 X0.1S0
G1 X0.1S200
G1 X0.2S0
G1 X0.1S200
G1 X0.2S0
G1 X0.1S200
G1 X0.2S0
G1 X0.1S200
G1 X0.1S0
G1 X0.1S200
G1 X0.2S0
G1 X0.1S200
G1 X0.2S0
G1 X0.1S200
G1 X0.2S0
G1 X0.1S200
G1 X0.3S0
G1 X0.1S200
G1 X0.1S0
G1 X0.1S200
G1 X0.2S0
G1 X4.3S200
G1 X0.1S0
G1 X5.3S200
G1 X27S0
G1 X3.1S200
G1 X0.1S0
G1 X5.2S200
G1 X2.5S0
G1 Y0.1
G1 X-2.5
G1 X-8.5S200
G1 X-26.9S0
G1 X-5.2S200
G1 X-0.3S0
G1 X-4.1S200
G1 X-0.1S0
G1 X-0.1S200
G1 X-0.2S0
G1 X-0.1S200
G1 X-0.3S0
G1 X-0.1S200
G1 X-0.1S0
G1 X-0.1S200
G1 X-0.2S0
G1 X-0.1S200
G1 X-0.2S0
G1 X-0.1S200
G1 X-0.2S0
G1 X-0.1S200
G1 X-0.2S0
G1 X-0.1S200
G1 X-0.2S0
G1 X-0.1S200
G1 X-0.2S0
G1 X-0.1S200
G1 X-0.1S0
G1 X-0.1S200
G1 X-0.2S0
G1 X-0.1S200
G1 X-0.2S0
G1 X-0.9S200
G1 X-0.1S0
G1 X-0.1S200
G1 X-0.1S0
G1 X-0.1S200
G1 X-0.2S0
G1 X-0.1S200
G1 X-0.2S0
G1 X-0.1S200
G1 X-0.2S0
G1 X-0.1S200
G1 X-0.1S0
G1 X-0.1S200
G1 X-0.2S0
G1 X-8.5S200
G1 X-0.1S0
G1 X-0.1S200
G1 X-0.2S0
G1 X-0.1S200
G1 X-0.2S0
G1 X-0.1S200
G1 X-0.3S0
G1 X-2.6S200
G1 X-9.2S0
G1 X-0.7S200
G1 X-0.1S0
G1 X-3.8S200
G1 X-0.1S0
G1 X-2S200
G1 X-0.1S0
G1 X-0.5S200
G1 X-0.1S0
G1 X-1.5S200
G1 X-0.1S0
G1 X-0.9S200
G1 X-0.1S0
G1 X-2.3S200
G1 X-1S0
G1 X-0.9S200
G1 X-0.1S0
G1 X-1.1S200
G1 X-0.1S0
G1 X-1.7S200
G1 X-0.1S0
G1 X-0.2S200
G1 X-0.1S0
G1 X-0.5S200
G1 X-0.1S0
G1 X-0.2S200
G1 X-0.1S0
G1 X-0.2S200
G1 X-0.1S0
G1 X-7.3S200
G1 X-0.1S0
G1 X-0.7S200
G1 X-0.1S0
G1 X-1S200
G1 X-0.1S0
G1 X-0.5S200
G1 X-0.1S0
G1 X-2.6S200
G1 X-0.1S0
G1 X-0.6S200
G1 X-0.1S0
G1 X-0.6S200
G1 X-0.1S0
G1 X-0.2S200
G1 X-0.1S0
G1 X-0.4S200
G1 X-0.1S0
G1 X-0.5S200
G1 X-0.1S0
G1 X-0.1S200
G1 X-0.1S0
G1 X-2.8S200
G1 X-0.1S0
G1 X-0.4S200
G1 X-0.1S0
G1 X-0.2S200
G1 X-2.5S0
G1 Y0.1
G1 X2.5
G1 X1.4S200
G1 X0.1S0
G1 X1.5S200
G1 X0.1S0
G1 X1S200
G1 X0.1S0
G1 X2.7S200
G1 X0.1S0
G1 X0.2S200
G1 X0.1S0
G1 X0.3S200
G1 X0.1S0
G1 X0.2S200
G1 X0.1S0
G1 X0.5S200
G1 X0.1S0
G1 X1.6S200
G1 X0.1S0
G1 X1.8S200
G1 X0.1S0
G1 X0.6S200
G1 X0.1S0
G1 X0.2S200
G1 X0.1S0
G1 X0.9S200
G1 X0.1S0
G1 X1.6S200
G1 X0.1S0
G1 X0.3S200
G1 X0.1S0
G1 X0.2S200
G1 X0.1S0
G1 X1.1S200
G1 X0.1S0
G1 X0.7S200
G1 X0.1S0
G1 X2.6S200
G1 X0.1S0
G1 X0.3S200
G1 X0.1S0
G1 X0.3S200
G1 X0.1S0
G1 X1.1S200
G1 X0.1S0
G1 X0.7S200
G1 X0.1S0
G1 X0.3S200
G1 X0.1S0
G1 X0.2S200
G1 X1S0
G1 X0.6S200
G1 X0.1S0
G1 X0.2S200
G1 X0.1S0
G1 X1.6S200
G1 X0.1S0
G1 X0.3S200
G1 X0.1S0
G1 X5.1S200
G1 X0.1S0
G1 X1.9S200
G1 X0.1S0
G1 X0.2S200
G1 X0.1S0
G1 X1.2S200
G1 X0.1S0
G1 X0.3S200
G1 X9.3S0
G1 X2.6S200
G1 X0.2S0
G1 X0.1S200
G1 X0.2S0
G1 X0.1S200
G1 X0.2S0
G1 X0.1S200
G1 X0.2S0
G1 X8.3S200
G1 X0.3S0
G1 X0.1S200
G1 X0.2S0
G1 X0.1S200
G1 X0.1S0
G1 X0.1S200
G1 X0.1S0
G1 X0.1S200
G1 X0.2S0
G1 X0.2S200
G1 X0.1S0
G1 X0.1S200
G1 X0.2S0
G1 X1S200
G1 X0.1S0
G1 X0.2S200
G1 X0.2S0
G1 X0.1S200
G1 X0.2S0
G1 X0.1S200
G1 X0.1S0
G1 X0.1S200
G1 X0.1S0
G1 X0.1S200
G1 X0.2S0
G1 X0.1S200
G1 X0.2S0
G1 X0.1S200
G1 X0.2S0
G1 X0.1S200
G1 X0.1S0
G1 X0.1S200
G1 X0.2S0
G1 X0.2S200
G1 X0.1S0
G1 X0.1S200
G1 X0.2S0
G1 X0.1S200
G1 X0.2S0
G1 X4.2S200
G1 X0.1S0
G1 X5.3S200
G1 X26.9S0
G1 X3.4S200
G1 X0.1S0
G1 X0.2S200
G1 X0.1S0
G1 X4.7S200
G1 X2.5S0
G1 X0.2Y0.1
G1 X-2.5
G1 X-8.7S200
G1 X-26.9S0
G1 X-5.2S200
G1 X-0.1S0
G1 X-4.4S200
G1 X-0.2S0
G1 X-0.1S200
G1 X-0.2S0
G1 X-0.1S200
G1 X-0.5S0
G1 X-0.1S200
G1 X-0.2S0
G1 X-0.1S200
G1 X-0.1S0
G1 X-0.1S200
G1 X-0.2S0
G1 X-0.1S200
G1 X-0.2S0
G1 X-0.1S200
G1 X-0.3S0
G1 X-0.1S200
G1 X-0.1S0
G1 X-2.2S200
G1 X-0.2S0
G1 X-0.1S200
G1 X-0.2S0
G1 X-0.1S200
G1 X-0.3S0
G1 X-0.1S200
G1 X-0.2S0
G1 X-8.4S200
G1 X-0.2S0
G1 X-0.1S200
G1 X-0.2S0
G1 X-0.1S200
G1 X-0.2S0
G1 X-0.1S200
G1 X-0.2S0
G1 X-2.6S200
G1 X-9.3S0
G1 X-0.9S200
G1 X-0.1S0
G1 X-0.3S200
G1 X-0.1S0
G1 X-0.8S200
G1 X-0.1S0
G1 X-0.2S200
G1 X-0.1S0
G1 X-0.2S200
G1 X-0.1S0
G1 X-0.2S200
G1 X-0.1S0
G1 X-1S200
G1 X-0.1S0
G1 X-0.6S200
G1 X-0.1S0
G1 X-0.2S200
G1 X-0.1S0
G1 X-0.2S200
G1 X-0.1S0
G1 X-0.2S200
G1 X-0.1S0
G1 X-1S200
G1 X-0.1S0
G1 X-0.4S200
G1 X-0.1S0
G1 X-0.2S200
G1 X-0.1S0
G1 X-0.7S200
G1 X-0.1S0
G1 X-1.9S200
G1 X-0.1S0
G1 X-0.3S200
G1 X-0.1S0
G1 X-1.1S200
G1 X-1.1S0
G1 X-1.1S200
G1 X-0.1S0
G1 X-0.6S200
G1 X-0.1S0
G1 X-3.8S200
G1 X-0.1S0
G1 X-0.6S200
G1 X-0.1S0
G1 X-0.7S200
G1 X-0.1S0
G1 X-0.2S200
G1 X-0.1S0
G1 X-0.2S200
G1 X-0.1S0
G1 X-1.4S200
G1 X-0.1S0
G1 X-0.2S200
G1 X-0.1S0
G1 X-0.2S200
G1 X-0.1S0
G1 X-0.2S200
G1 X-0.1S0
G1 X-0.6S200
G1 X-0.1S0
G1 X-0.2S200
G1 X-0.1S0
G1 X-0.9S200
G1 X-0.1S0
G1 X-1S200
G1 X-0.1S0
G1 X-0.5S200
G1 X-0.1S0
G1 X-1S200
G1 X-0.1S0
G1 X-0.7S200
G1 X-0.1S0
G1 X-0.5S200
G1 X-0.1S0
G1 X-1.8S200
G1 X-0.1S0
G1 X-3.5S200
G1 X-0.1S0
G1 X-0.6S200
G1 X-0.1S0
G1 X-0.2S200
G1 X-0.1S0
G1 X-1.7S200
G1 X-2.5S0
G1 Y0.1
G1 X2.5
G1 X2.3S200
G1 X0.1S0
G1 X1.4S200
G1 X0.1S0
G1 X0.6S200
G1 X0.1S0
G1 X0.2S200
G1 X0.1S0
G1 X0.5S200
G1 X0.1S0
G1 X0.2S200
G1 X0.1S0
G1 X3.3S200
G1 X0.1S0
G1 X0.7S200
G1 X0.1S0
G1 X1.6S200
G1 X0.1S0
G1 X3.9S200
G1 X0.1S0
G1 X4.2S200
G1 X0.1S0
G1 X0.2S200
G1 X0.1S0
G1 X0.4S200
G1 X0.1S0
G1 X0.2S200
G1 X0.1S0
G1 X1.2S200
G1 X0.1S0
G1 X2.3S200
G1 X1S0
G1 X1.9S200
G1 X0.1S0
G1 X0.2S200
G1 X0.1S0
G1 X1.6S200
G1 X0.1S0
G1 X3.6S200
G1 X0.1S0
G1 X4.3S200
G1 X9.5S0
G1 X2.6S200
G1 X0.2S0
G1 X0.1S200
G1 X0.2S0
G1 X0.1S200
G1 X0.1S0
G1 X0.1S200
G1 X0.2S0
G1 X8.5S200
G1 X0.1S0
G1 X0.1S200
G1 X0.1S0
G1 X0.1S200
G1 X0.1S0
G1 X0.1S200
G1 X0.2S0
G1 X3S200
G1 X0.2S0
G1 X0.1S200
G1 X0.1S0
G1 X0.1S200
G1 X0.2S0
G1 X0.1S200
G1 X0.2S0
G1 X0.1S200
G1 X0.2S0
G1 X0.3S200
G1 X0.2S0
G1 X0.1S200
G1 X0.2S0
G1 X0.1S200
G1 X0.2S0
G1 X4.4S200
G1 X0.1S0
G1 X5.2S200
G1 X26.9S0
G1 X3.9S200
G1 X0.1S0
G1 X4.3S200
G1 X0.2S0
G1 X0.2S200
G1 X2.5S0
G1 X0.1Y0.1
G1 X-2.5
G1 X-0.3S200
G1 X-0.2S0
G1 X-4.7S200
G1 X-0.1S0
G1 X-3.5S200
G1 X-2.5S0
G1 X-0.3S200
G1 X-24.1S0
G1 X-5.2S200
G1 X-0.1S0
G1 X-4.2S200
G1 X-0.4S0
G1 X-0.1S200
G1 X-0.1S0
G1 X-0.1S200
G1 X-0.2S0
G1 X-0.1S200
G1 X-0.3S0
G1 X-0.1S200
G1 X-0.2S0
G1 X-0.1S200
G1 X-0.2S0
G1 X-0.1S200
G1 X-0.2S0
G1 X-0.1S200
G1 X-0.2S0
G1 X-3.2S200
G1 X-0.1S0
G1 X-0.1S200
G1 X-0.2S0
G1 X-0.1S200
G1 X-0.3S0
G1 X-8.4S200
G1 X-0.2S0
G1 X-0.1S200
G1 X-0.2S0
G1 X-0.1S200
G1 X-0.1S0
G1 X-0.1S200
G1 X-0.2S0
G1 X-0.4S200
G1 X-0.2S0
G1 X-2S200
G1 X-9.6S0
G1 X-0.3S200
G1 X-0.1S0
G1 X-1S200
G1 X-0.1S0
G1 X-4.8S200
G1 X-0.1S0
G1 X-1.2S200
G1 X-0.1S0
G1 X-0.9S200
G1 X-0.1S0
G1 X-0.3S200
G1 X-0.1S0
G1 X-0.2S200
G1 X-0.1S0
G1 X-1.5S200
G1 X-0.1S0
G1 X-0.9S200
G1 X-1S0
G1 X-0.1S200
G1 X-0.1S0
G1 X-0.4S200
G1 X-0.1S0
G1 X-0.8S200
G1 X-0.1S0
G1 X-0.4S200
G1 X-0.1S0
G1 X-0.5S200
G1 X-0.1S0
G1 X-0.2S200
G1 X-0.1S0
G1 X-0.2S200
G1 X-0.1S0
G1 X-1.8S200
G1 X-0.1S0
G1 X-0.2S200
G1 X-0.1S0
G1 X-0.5S200
G1 X-0.1S0
G1 X-0.7S200
G1 X-0.1S0
G1 X-1.7S200
G1 X-0.1S0
G1 X-1.9S200
G1 X-0.1S0
G1 X-1.2S200
G1 X-0.1S0
G1 X-0.7S200
G1 X-0.1S0
G1 X-0.9S200
G1 X-0.1S0
G1 X-0.5S200
G1 X-0.1S0
G1 X-0.8S200
G1 X-0.1S0
G1 X-1.7S200
G1 X-0.1S0
G1 X-0.2S200
G1 X-0.1S0
G1 X-0.3S200
G1 X-0.1S0
G1 X-0.2S200
G1 X-0.1S0
G1 X-0.5S200
G1 X-0.1S0
G1 X-0.8S200
G1 X-0.1S0
G1 X-1S200
G1 X-0.1S0
G1 X-0.8S200
G1 X-0.1S0
G1 X-1.7S200
G1 X-0.1S0
G1 X-0.7S200
G1 X-0.1S0
G1 X-0.5S200
G1 X-2.5S0
G1 Y0.1
G1 X2.5
G1 X0.4S200
G1 X0.1S0
G1 X1.2S200
G1 X0.1S0
G1 X0.8S200
G1 X0.1S0
G1 X0.7S200
G1 X0.1S0
G1 X2.8S200
G1 X0.1S0
G1 X1.5S200
G1 X0.1S0
G1 X0.2S200
G1 X0.1S0
G1 X0.2S200
G1 X0.1S0
G1 X0.2S200
G1 X0.1S0
G1 X1.7S200
G1 X0.1S0
G1 X0.5S200
G1 X0.1S0
G1 X0.9S200
G1 X0.1S0
G1 X0.7S200
G1 X0.1S0
G1 X0.2S200
G1 X0.1S0
G1 X0.3S200
G1 X0.1S0
G1 X0.6S200
G1 X0.1S0
G1 X0.5S200
G1 X0.1S0
G1 X1.2S200
G1 X0.1S0
G1 X0.2S200
G1 X0.1S0
G1 X0.4S200
G1 X0.1S0
G1 X0.9S200
G1 X0.1S0
G1 X2.3S200
G1 X0.1S0
G1 X3S200
G1 X0.1S0
G1 X1S200
G1 X1.1S0
G1 X1.2S200
G1 X0.1S0
G1 X0.2S200
G1 X0.1S0
G1 X1.8S200
G1 X0.1S0
G1 X1.2S200
G1 X0.1S0
G1 X0.2S200
G1 X0.1S0
G1 X1S200
G1 X0.1S0
G1 X0.9S200
G1 X0.1S0
G1 X0.8S200
G1 X0.1S0
G1 X0.2S200
G1 X0.1S0
G1 X0.4S200
G1 X0.1S0
G1 X0.2S200
G1 X0.1S0
G1 X0.6S200
G1 X0.1S0
G1 X0.8S200
G1 X0.1S0
G1 X0.2S200
G1 X0.1S0
G1 X0.8S200
G1 X9.5S0
G1 X2.6S200
G1 X0.2S0
G1 X0.1S200
G1 X0.2S0
G1 X0.1S200
G1 X0.2S0
G1 X0.1S200
G1 X0.1S0
G1 X8.5S200
G1 X0.2S0
G1 X0.1S200
G1 X0.2S0
G1 X0.1S200
G1 X0.1S0
G1 X3.3S200
G1 X0.1S0
G1 X0.1S200
G1 X0.2S0
G1 X0.1S200
G1 X0.1S0
G1 X0.1S200
G1 X0.2S0
G1 X0.1S200
G1 X0.3S0
G1 X0.1S200
G1 X0.2S0
G1 X0.1S200
G1 X0.2S0
G1 X0.1S200
G1 X0.1S0
G1 X0.1S200
G1 X0.2S0
G1 X4.3S200
G1 X0.1S0
G1 X5.3S200
G1 X23.8S0
G1 X0.6S200
G1 X2.3S0
G1 X8.8S200
G1 X2.5S0
G1 X0.1Y0.1
G1 X-2.5
G1 X-0.2S200
G1 X-0.2S0
G1 X-8.6S200
G1 X-2.2S0
G1 X-0.6S200
G1 X-23.7S0
G1 X-5.3S200
G1 X-0.2S0
G1 X-0.6S200
G1 X-0.2S0
G1 X-3.5S200
G1 X-0.2S0
G1 X-0.1S200
G1 X-0.2S0
G1 X-0.1S200
G1 X-0.2S0
G1 X-0.1S200
G1 X-0.2S0
G1 X-0.2S200
G1 X-0.1S0
G1 X-0.1S200
G1 X-0.2S0
G1 X-0.1S200
G1 X-0.2S0
G1 X-4S200
G1 X-0.2S0
G1 X-0.1S200
G1 X-0.1S0
G1 X-8.5S200
G1 X-0.1S0
G1 X-0.1S200
G1 X-0.2S0
G1 X-0.1S200
G1 X-0.2S0
G1 X-0.1S200
G1 X-0.2S0
G1 X-0.5S200
G1 X-0.1S0
G1 X-2S200
G1 X-8.2S0
G1 X-0.1S200
G1 X-1.2S0
G1 X-1.7S200
G1 X-0.1S0
G1 X-0.6S200
G1 X-0.1S0
G1 X-1.6S200
G1 X-0.1S0
G1 X-0.2S200
G1 X-0.1S0
G1 X-0.6S200
G1 X-0.1S0
G1 X-0.2S200
G1 X-0.1S0
G1 X-1.9S200
G1 X-0.1S0
G1 X-0.5S200
G1 X-0.1S0
G1 X-1.7S200
G1 X-0.1S0
G1 X-2S200
G1 X-1.1S0
G1 X-0.3S200
G1 X-0.1S0
G1 X-3.1S200
G1 X-0.1S0
G1 X-0.8S200
G1 X-0.1S0
G1 X-0.3S200
G1 X-0.1S0
G1 X-0.8S200
G1 X-0.1S0
G1 X-1.4S200
G1 X-0.1S0
G1 X-1.7S200
G1 X-0.1S0
G1 X-0.2S200
G1 X-0.1S0
G1 X-0.5S200
G1 X-0.1S0
G1 X-2.1S200
G1 X-0.1S0
G1 X-0.9S200
G1 X-0.1S0
G1 X-1.6S200
G1 X-0.1S0
G1 X-4.1S200
G1 X-0.1S0
G1 X-0.8S200
G1 X-0.1S0
G1 X-0.3S200
G1 X-0.1S0
G1 X-1.9S200
G1 X-0.1S0
G1 X-0.2S200
G1 X-0.1S0
G1 X-1.9S200
G1 X-2.5S0
G1 Y0.1
G1 X2.5
G1 X2.8S200
G1 X0.1S0
G1 X2.2S200
G1 X0.1S0
G1 X0.7S200
G1 X0.1S0
G1 X0.8S200
G1 X0.1S0
G1 X0.3S200
G1 X0.1S0
G1 X1.7S200
G1 X0.1S0
G1 X0.2S200
G1 X0.1S0
G1 X0.6S200
G1 X0.1S0
G1 X1.7S200
G1 X0.1S0
G1 X2.1S200
G1 X0.1S0
G1 X1.7S200
G1 X0.1S0
G1 X0.8S200
G1 X0.1S0
G1 X0.8S200
G1 X0.1S0
G1 X0.5S200
G1 X0.1S0
G1 X0.2S200
G1 X0.1S0
G1 X0.6S200
G1 X0.1S0
G1 X1.4S200
G1 X0.1S0
G1 X1.2S200
G1 X0.1S0
G1 X0.2S200
G1 X0.1S0
G1 X0.2S200
G1 X0.5S0
G1 X0.2S200
G1 X0.1S0
G1 X0.4S200
G1 X0.1S0
G1 X0.7S200
G1 X1.1S0
G1 X0.6S200
G1 X0.1S0
G1 X0.2S200
G1 X0.1S0
G1 X1.7S200
G1 X0.1S0
G1 X0.2S200
G1 X0.1S0
G1 X2.2S200
G1 X0.1S0
G1 X3.5S200
G1 X0.1S0
G1 X2.3S200
G1 X0.1S0
G1 X0.2S200
G1 X0.1S0
G1 X0.1S200
G1 X1S0
G1 X0.2S200
G1 X0.1S0
G1 X0.5S200
G1 X7.8S0
G1 X2S200
G1 X0.2S0
G1 X0.4S200
G1 X0.2S0
G1 X0.1S200
G1 X0.2S0
G1 X0.1S200
G1 X0.2S0
G1 X0.1S200
G1 X0.1S0
G1 X8.4S200
G1 X0.2S0
G1 X0.1S200
G1 X0.2S0
G1 X4.1S200
G1 X0.2S0
G1 X0.1S200
G1 X0.2S0
G1 X0.1S200
G1 X0.3S0
G1 X0.1S200
G1 X0.2S0
G1 X0.1S200
G1 X0.2S0
G1 X0.1S200
G1 X0.1S0
G1 X0.1S200
G1 X0.1S0
G1 X3.6S200
G1 X0.2S0
G1 X0.6S200
G1 X0.1S0
G1 X5.3S200
G1 X23.7S0
G1 X0.6S200
G1 X2.2S0
G1 X9.1S200
G1 X2.5S0
G1 Y0.1
G1 X-2.5
G1 X-9S200
G1 X-0.1S0
G1 X-0.2S200
G1 X-1.9S0
G1 X-0.8S200
G1 X-23.5S0
G1 X-10S200
G1 X-0.2S0
G1 X-0.1S200
G1 X-0.2S0
G1 X-0.1S200
G1 X-0.1S0
G1 X-0.1S200
G1 X-0.1S0
G1 X-0.1S200
G1 X-0.2S0
G1 X-0.1S200
G1 X-0.2S0
G1 X-4.7S200
G1 X-0.1S0
G1 X-8.5S200
G1 X-0.1S0
G1 X-0.1S200
G1 X-0.2S0
G1 X-0.1S200
G1 X-0.2S0
G1 X-0.1S200
G1 X-0.2S0
G1 X-2.6S200
G1 X-7.6S0
G1 X-0.3S200
G1 X-0.1S0
G1 X-0.2S200
G1 X-0.1S0
G1 X-0.4S200
G1 X-0.9S0
G1 X-1S200
G1 X-0.1S0
G1 X-0.2S200
G1 X-0.1S0
G1 X-0.6S200
G1 X-0.1S0
G1 X-2.6S200
G1 X-0.1S0
G1 X-1.3S200
G1 X-0.1S0
G1 X-0.5S200
G1 X-0.1S0
G1 X-0.8S200
G1 X-0.1S0
G1 X-0.6S200
G1 X-0.1S0
G1 X-1S200
G1 X-0.1S0
G1 X-0.4S200
G1 X-0.1S0
G1 X-0.2S200
G1 X-0.1S0
G1 X-1.5S200
G1 X-1.1S0
G1 X-1.5S200
G1 X-0.7S0
G1 X-0.7S200
G1 X-0.1S0
G1 X-0.2S200
G1 X-0.1S0
G1 X-1.7S200
G1 X-0.1S0
G1 X-1.5S200
G1 X-0.1S0
G1 X-1.7S200
G1 X-0.1S0
G1 X-2.3S200
G1 X-0.1S0
G1 X-0.2S200
G1 X-0.1S0
G1 X-0.2S200
G1 X-0.1S0
G1 X-0.3S200
G1 X-0.1S0
G1 X-1.7S200
G1 X-0.1S0
G1 X-0.2S200
G1 X-0.1S0
G1 X-0.2S200
G1 X-0.1S0
G1 X-1.5S200
G1 X-0.1S0
G1 X-1.1S200
G1 X-0.1S0
G1 X-1S200
G1 X-0.1S0
G1 X-3.2S200
G1 X-0.1S0
G1 X-1.5S200
G1 X-0.1S0
G1 X-1S200
G1 X-0.1S0
G1 X-0.3S200
G1 X-2.5S0
G1 Y0.1
G1 X2.5
G1 X0.6S200
G1 X0.1S0
G1 X1.1S200
G1 X0.1S0
G1 X0.4S200
G1 X0.1S0
G1 X0.9S200
G1 X0.1S0
G1 X0.7S200
G1 X0.1S0
G1 X0.2S200
G1 X0.1S0
G1 X0.2S200
G1 X0.1S0
G1 X0.5S200
G1 X0.1S0
G1 X2.3S200
G1 X0.1S0
G1 X0.2S200
G1 X0.1S0
G1 X0.2S200
G1 X0.1S0
G1 X1.1S200
G1 X0.1S0
G1 X1.5S200
G1 X0.1S0
G1 X0.2S200
G1 X0.1S0
G1 X0.5S200
G1 X0.1S0
G1 X0.2S200
G1 X0.1S0
G1 X1.8S200
G1 X0.1S0
G1 X0.2S200
G1 X0.1S0
G1 X0.2S200
G1 X0.1S0
G1 X1.4S200
G1 X0.1S0
G1 X0.5S200
G1 X0.1S0
G1 X0.2S200
G1 X0.1S0
G1 X1.5S200
G1 X0.1S0
G1 X0.9S200
G1 X0.1S0
G1 X0.3S200
G1 X0.1S0
G1 X1.9S200
G1 X1S0
G1 X0.8S200
G1 X0.1S0
G1 X0.2S200
G1 X0.1S0
G1 X0.1S200
G1 X1.1S0
G1 X1.2S200
G1 X0.1S0
G1 X2.4S200
G1 X0.1S0
G1 X0.7S200
G1 X0.1S0
G1 X1.6S200
G1 X0.1S0
G1 X0.4S200
G1 X0.1S0
G1 X1S200
G1 X0.1S0
G1 X0.2S200
G1 X0.1S0
G1 X0.8S200
G1 X0.1S0
G1 X0.3S200
G1 X0.1S0
G1 X1.5S200
G1 X0.1S0
G1 X0.6S200
G1 X0.8S0
G1 X0.1S200
G1 X0.1S0
G1 X1.2S200
G1 X7.5S0
G1 X2.1S200
G1 X0.1S0
G1 X0.4S200
G1 X0.2S0
G1 X0.1S200
G1 X0.1S0
G1 X0.1S200
G1 X0.2S0
G1 X0.1S200
G1 X0.2S0
G1 X3S200
G1 X0.5S0
G1 X5S200
G1 X0.2S0
G1 X4.7S200
G1 X0.2S0
G1 X0.2S200
G1 X0.3S0
G1 X0.1S200
G1 X0.2S0
G1 X0.1S200
G1 X0.4S0
G1 X3.8S200
G1 X0.2S0
G1 X0.5S200
G1 X0.2S0
G1 X5.2S200
G1 X23.4S0
G1 X0.9S200
G1 X1.8S0
G1 X0.2S200
G1 X0.1S0
G1 X9.1S200
G1 X2.5S0
G1 Y0.1
G1 X-2.5
G1 X-0.1S200
G1 X-0.2S0
G1 X-9S200
G1 X-0.1S0
G1 X-0.1S200
G1 X-1.7S0
G1 X-0.9S200
G1 X-23.4S0
G1 X-5.1S200
G1 X-0.1S0
G1 X-0.7S200
G1 X-0.1S0
G1 X-3.9S200
G1 X-0.2S0
G1 X-0.2S200
G1 X-0.1S0
G1 X-0.1S200
G1 X-0.2S0
G1 X-0.1S200
G1 X-0.1S0
G1 X-10.4S200
G1 X-0.2S0
G1 X-0.1S200
G1 X-0.5S0
G1 X-2.7S200
G1 X-0.3S0
G1 X-0.1S200
G1 X-0.2S0
G1 X-0.1S200
G1 X-0.2S0
G1 X-0.6S200
G1 X-0.1S0
G1 X-2S200
G1 X-7.3S0
G1 X-0.3S200
G1 X-0.1S0
G1 X-0.2S200
G1 X-0.1S0
G1 X-1S200
G1 X-0.8S0
G1 X-1.5S200
G1 X-0.1S0
G1 X-1.1S200
G1 X-0.1S0
G1 X-1.4S200
G1 X-0.1S0
G1 X-2.4S200
G1 X-0.1S0
G1 X-1.7S200
G1 X-0.1S0
G1 X-0.4S200
G1 X-0.1S0
G1 X-1.5S200
G1 X-0.1S0
G1 X-0.8S200
G1 X-1.2S0
G1 X-0.7S200
G1 X-0.1S0
G1 X-0.2S200
G1 X-0.1S0
G1 X-0.1S200
G1 X-1.3S0
G1 X-0.1S200
G1 X-0.1S0
G1 X-0.9S200
G1 X-0.1S0
G1 X-0.2S200
G1 X-0.1S0
G1 X-1.9S200
G1 X-0.1S0
G1 X-1.8S200
G1 X-0.1S0
G1 X-1.1S200
G1 X-0.1S0
G1 X-0.2S200
G1 X-0.1S0
G1 X-5.1S200
G1 X-0.1S0
G1 X-0.6S200
G1 X-0.1S0
G1 X-2.2S200
G1 X-0.1S0
G1 X-0.2S200
G1 X-0.1S0
G1 X-0.6S200
G1 X-0.1S0
G1 X-0.2S200
G1 X-0.1S0
G1 X-0.5S200
G1 X-0.1S0
G1 X-2.3S200
G1 X-0.1S0
G1 X-2.5S200
G1 X-2.5S0
G1 Y0.1
G1 X2.5
G1 X0.2S200
G1 X0.1S0
G1 X0.4S200
G1 X0.1S0
G1 X0.7S200
G1 X0.1S0
G1 X0.4S200
G1 X0.1S0
G1 X0.7S200
G1 X0.1S0
G1 X0.6S200
G1 X0.1S0
G1 X2.5S200
G1 X0.1S0
G1 X0.9S200
G1 X0.1S0
G1 X1.5S200
G1 X0.1S0
G1 X2.8S200
G1 X0.1S0
G1 X0.9S200
G1 X0.1S0
G1 X1S200
G1 X0.1S0
G1 X1.8S200
G1 X0.1S0
G1 X1.7S200
G1 X0.1S0
G1 X0.3S200
G1 X0.1S0
G1 X0.2S200
G1 X0.1S0
