; LightBurn Pro 2.0.05
; GRBL device profile, absolute coords
; Bounds: X46.7 Y6.39 to X259.39 Y213.89
G00 G17 G40 G21 G54
G90
M4
; Scan @ 6000 mm/min, 20% power
M8
G0 X146.17Y6.393
; Layer C27
G91
G1 X2.5F6000S0
G1 X8.698S200
G1 X2.5S0
G1 X1.94Y0.1
G1 X-2.5
G1 X-12.586S200
G1 X-2.5S0
G1 X-1.398Y0.1
G1 X2.5
G1 X15.478S200
G1 X2.5S0
G1 X1.265Y0.1
G1 X-2.5
G1 X-18.014S200
G1 X-2.5S0
G1 X-1.072Y0.1
G1 X2.5
G1 X20.137S200
G1 X2.5S0
G1 X0.981Y0.1
G1 X-2.5
G1 X-22.135S200
G1 X-2.5S0
G1 X-0.879Y0.1
G1 X2.5
G1 X23.92S200
G1 X2.5S0
G1 X0.802Y0.1
G1 X-2.5
G1 X-25.602S200
G1 X-2.5S0
G1 X-0.755Y0.1
G1 X2.5
G1 X27.16S200
G1 X2.5S0
G1 X0.732Y0.1
G1 X-2.5
G1 X-28.611S200
G1 X-2.5S0
G1 X-0.719Y0.1
G1 X2.5
G1 X30.01S200
G1 X2.5S0
G1 X0.68Y0.1
G1 X-2.5
G1 X-31.343S200
G1 X-2.5S0
G1 X-0.623Y0.1
G1 X2.5
G1 X32.626S200
G1 X2.5S0
G1 X0.591Y0.1
G1 X-2.5
G1 X-33.839S200
G1 X-2.5S0
G1 X-0.614Y0.1
G1 X2.5
G1 X35.044S200
G1 X2.5S0
G1 X0.591Y0.1
G1 X-2.5
G1 X-36.183S200
G1 X-2.5S0
G1 X-0.548Y0.1
G1 X2.5
G1 X37.295S200
G1 X2.5S0
G1 X0.524Y0.1
G1 X-2.5
G1 X-38.368S200
G1 X-2.5S0
G1 X-0.543Y0.1
G1 X2.5
G1 X39.434S200
G1 X2.5S0
G1 X0.523Y0.1
G1 X-2.5
G1 X-40.446S200
G1 X-2.5S0
G1 X-0.49Y0.1
G1 X2.5
G1 X41.455S200
G1 X2.5S0
G1 X0.469Y0.1
G1 X-2.5
G1 X-42.413S200
G1 X-2.5S0
G1 X-0.49Y0.1
G1 X2.5
G1 X43.373S200
G1 X2.5S0
G1 X0.47Y0.1
G1 X-2.5
G1 X-44.304S200
G1 X-2.5S0
G1 X-0.441Y0.1
G1 X2.5
G1 X45.214S200
G1 X2.5S0
G1 X0.455Y0.1
G1 X-2.5
G1 X-46.111S200
G1 X-2.5S0
G1 X-0.442Y0.1
G1 X2.5
G1 X46.97S200
G1 X2.5S0
G1 X0.417Y0.1
G1 X-2.5
G1 X-47.829S200
G1 X-2.5S0
G1 X-0.416Y0.1
G1 X2.5
G1 X48.662S200
G1 X2.5S0
G1 X0.417Y0.1
G1 X-2.5
G1 X-49.481S200
G1 X-2.5S0
G1 X-0.402Y0.1
G1 X2.5
G1 X50.298S200
G1 X2.5S0
G1 X0.382Y0.1
G1 X-2.5
G1 X-51.082S200
G1 X-2.5S0
G1 X-0.402Y0.1
G1 X2.5
G1 X51.866S200
G1 X2.5S0
G1 X0.383Y0.1
G1 X-2.5
G1 X-52.644S200
G1 X-2.5S0
G1 X-0.368Y0.1
G1 X2.5
G1 X53.394S200
G1 X2.5S0
G1 X0.382Y0.1
G1 X-2.5
G1 X-54.145S200
G1 X-2.5S0
G1 X-0.368Y0.1
G1 X2.5
G1 X54.883S200
G1 X2.5S0
G1 X0.352Y0.1
G1 X-2.5
G1 X-55.604S200
G1 X-2.5S0
G1 X-0.368Y0.1
G1 X2.5
G1 X56.324S200
G1 X2.5S0
G1 X0.353Y0.1
G1 X-2.5
G1 X-57.036S200
G1 X-2.5S0
G1 X-0.34Y0.1
G1 X2.5
G1 X57.728S200
G1 X2.5S0
G1 X0.352Y0.1
G1 X-2.5
G1 X-58.42S200
G1 X-2.5S0
G1 X-0.34Y0.1
G1 X2.5
G1 X59.104S200
G1 X2.5S0
G1 X0.326Y0.1
G1 X-2.5
G1 X-59.769S200
G1 X-2.5S0
G1 X-0.34Y0.1
G1 X2.5
G1 X60.434S200
G1 X2.5S0
G1 X0.326Y0.1
G1 X-2.5
G1 X-61.1S200
G1 X-2.5S0
G1 X-0.313Y0.1
G1 X2.5
G1 X61.739S200
G1 X2.5S0
G1 X0.326Y0.1
G1 X-2.5
G1 X-62.377S200
G1 X-2.5S0
G1 X-0.313Y0.1
G1 X2.5
G1 X63.016S200
G1 X2.5S0
G1 X0.308Y0.1
G1 X-2.5
G1 X-63.636S200
G1 X-2.5S0
G1 X-0.312Y0.1
G1 X2.5
G1 X64.251S200
G1 X2.5S0
G1 X0.302Y0.1
G1 X-2.5
G1 X-64.866S200
G1 X-2.5S0
G1 X-0.297Y0.1
G1 X2.5
G1 X65.466S200
G1 X2.5S0
G1 X0.303Y0.1
G1 X-2.5
G1 X-66.061S200
G1 X-2.5S0
G1 X-0.293Y0.1
G1 X2.5
G1 X66.656S200
G1 X2.5S0
G1 X0.303Y0.1
G1 X-2.5
G1 X-67.251S200
G1 X-2.5S0
G1 X-0.292Y0.1
G1 X2.5
G1 X67.83S200
G1 X2.5S0
G1 X0.282Y0.1
G1 X-2.5
G1 X-68.404S200
G1 X-2.5S0
G1 X-0.291Y0.1
G1 X2.5
G1 X68.977S200
G1 X2.5S0
G1 X0.282Y0.1
G1 X-2.5
G1 X-69.533S200
G1 X-2.5S0
G1 X-0.274Y0.1
G1 X2.5
G1 X70.089S200
G1 X2.5S0
G1 X0.282Y0.1
G1 X-2.5
G1 X-70.646S200
G1 X-2.5S0
G1 X-0.274Y0.1
G1 X2.5
G1 X71.201S200
G1 X2.5S0
G1 X0.278Y0.1
G1 X-2.5
G1 X-71.754S200
G1 X-2.5S0
G1 X-0.274Y0.1
G1 X2.5
G1 X72.291S200
G1 X2.5S0
G1 X0.263Y0.1
G1 X-2.5
G1 X-72.827S200
G1 X-2.5S0
G1 X-0.259Y0.1
G1 X2.5
G1 X73.349S200
G1 X2.5S0
G1 X0.264Y0.1
G1 X-2.5
G1 X-73.871S200
G1 X-2.5S0
G1 X-0.259Y0.1
G1 X2.5
G1 X74.393S200
G1 X2.5S0
G1 X0.263Y0.1
G1 X-2.5
G1 X-74.915S200
G1 X-2.5S0
G1 X-0.258Y0.1
G1 X2.5
G1 X75.437S200
G1 X2.5S0
G1 X0.258Y0.1
G1 X-2.5
G1 X-75.954S200
G1 X-2.5S0
G1 X-0.258Y0.1
G1 X2.5
G1 X76.458S200
G1 X2.5S0
G1 X0.247Y0.1
G1 X-2.5
G1 X-76.954S200
G1 X-2.5S0
G1 X-0.245Y0.1
G1 X2.5
G1 X77.446S200
G1 X2.5S0
G1 X0.246Y0.1
G1 X-2.5
G1 X-77.936S200
G1 X-2.5S0
G1 X-0.245Y0.1
G1 X2.5
G1 X78.428S200
G1 X2.5S0
G1 X0.246Y0.1
G1 X-2.5
G1 X-78.918S200
G1 X-2.5S0
G1 X-0.245Y0.1
G1 X2.5
G1 X79.41S200
G1 X2.5S0
G1 X0.246Y0.1
G1 X-2.5
G1 X-79.9S200
G1 X-2.5S0
G1 X-0.245Y0.1
G1 X2.5
G1 X80.379S200
G1 X2.5S0
G1 X0.233Y0.1
G1 X-2.5
G1 X-80.845S200
G1 X-2.5S0
G1 X-0.231Y0.1
G1 X2.5
G1 X81.308S200
G1 X2.5S0
G1 X0.232Y0.1
G1 X-2.5
G1 X-81.772S200
G1 X-2.5S0
G1 X-0.232Y0.1
G1 X2.5
G1 X82.237S200
G1 X2.5S0
G1 X0.232Y0.1
G1 X-2.5
G1 X-82.701S200
G1 X-2.5S0
G1 X-0.231Y0.1
G1 X2.5
G1 X83.164S200
G1 X2.5S0
G1 X0.232Y0.1
G1 X-2.5
G1 X-83.628S200
G1 X-2.5S0
G1 X-0.232Y0.1
G1 X2.5
G1 X84.092S200
G1 X2.5S0
G1 X0.219Y0.1
G1 X-2.5
G1 X-84.534S200
G1 X-2.5S0
G1 X-0.22Y0.1
G1 X2.5
G1 X84.974S200
G1 X2.5S0
G1 X0.219Y0.1
G1 X-2.5
G1 X-85.413S200
G1 X-2.5S0
G1 X-0.22Y0.1
G1 X2.5
G1 X85.853S200
G1 X2.5S0
G1 X0.219Y0.1
G1 X-2.5
G1 X-86.293S200
G1 X-2.5S0
G1 X-0.22Y0.1
G1 X2.5
G1 X40.273S200
G1 X6.194S0
G1 X40.266S200
G1 X2.5S0
G1 X0.22Y0.1
G1 X-2.5
G1 X-38.227S200
G1 X-10.711S0
G1 X-38.235S200
G1 X-2.5S0
G1 X-0.22Y0.1
G1 X2.5
G1 X36.934S200
G1 X13.753S0
G1 X36.925S200
G1 X2.5S0
G1 X0.22Y0.1
G1 X-2.5
G1 X-35.871S200
G1 X-16.301S0
G1 X-35.878S200
G1 X-2.5S0
G1 X-0.21Y0.1
G1 X2.5
G1 X35.01S200
G1 X18.457S0
G1 X35.002S200
G1 X2.5S0
G1 X0.208Y0.1
G1 X-2.5
G1 X-34.246S200
G1 X-20.386S0
G1 X-34.254S200
G1 X-2.5S0
G1 X-0.21Y0.1
G1 X2.5
G1 X33.583S200
G1 X22.149S0
G1 X33.572S200
G1 X2.5S0
G1 X0.208Y0.1
G1 X-2.5
G1 X-32.953S200
G1 X-23.803S0
G1 X-32.966S200
G1 X-2.5S0
G1 X-0.209Y0.1
G1 X2.5
G1 X32.43S200
G1 X25.293S0
G1 X32.416S200
G1 X2.5S0
G1 X0.207Y0.1
G1 X-2.5
G1 X-31.878S200
G1 X-26.783S0
G1 X-31.895S200
G1 X-2.5S0
G1 X-0.21Y0.1
G1 X2.5
G1 X31.444S200
G1 X28.105S0
G1 X31.425S200
G1 X2.5S0
G1 X0.208Y0.1
G1 X-2.5
G1 X-30.988S200
G1 X-29.395S0
G1 X-31.008S200
G1 X-2.5S0
G1 X-0.205Y0.1
G1 X2.5
G1 X30.568S200
G1 X30.685S0
G1 X30.551S200
G1 X2.5S0
G1 X0.206Y0.1
G1 X-2.5
G1 X-30.18S200
G1 X-31.839S0
G1 X-30.189S200
G1 X-2.5S0
G1 X-0.197Y0.1
G1 X2.5
G1 X29.818S200
G1 X32.975S0
G1 X29.809S200
G1 X2.5S0
G1 X0.196Y0.1
G1 X-2.5
G1 X-29.437S200
G1 X-34.111S0
G1 X-29.448S200
G1 X-2.5S0
G1 X-0.197Y0.1
G1 X2.5
G1 X29.11S200
G1 X35.181S0
G1 X29.099S200
G1 X2.5S0
G1 X0.197Y0.1
G1 X-2.5
G1 X-28.789S200
G1 X-36.195S0
G1 X-28.8S200
G1 X-2.5S0
G1 X-0.198Y0.1
G1 X2.5
G1 X28.49S200
G1 X37.21S0
G1 X28.479S200
G1 X2.5S0
G1 X0.197Y0.1
G1 X-2.5
G1 X-28.168S200
G1 X-38.225S0
G1 X-28.18S200
G1 X-2.5S0
G1 X-0.198Y0.1
G1 X2.5
G1 X27.911S200
G1 X39.159S0
G1 X27.898S200
G1 X2.5S0
G1 X0.197Y0.1
G1 X-2.5
G1 X-27.638S200
G1 X-40.073S0
G1 X-27.651S200
G1 X-2.5S0
G1 X-0.195Y0.1
G1 X2.5
G1 X27.388S200
G1 X40.989S0
G1 X27.377S200
G1 X2.5S0
G1 X0.196Y0.1
G1 X-2.5
G1 X-27.115S200
G1 X-41.905S0
G1 X-27.117S200
G1 X-2.5S0
G1 X-0.187Y0.1
G1 X2.5
G1 X26.875S200
G1 X42.763S0
G1 X26.873S200
G1 X2.5S0
G1 X0.186Y0.1
G1 X-2.5
G1 X-26.643S200
G1 X-43.596S0
G1 X-26.646S200
G1 X-2.5S0
G1 X-0.187Y0.1
G1 X2.5
G1 X26.417S200
G1 X44.429S0
G1 X26.413S200
G1 X2.5S0
G1 X0.187Y0.1
G1 X-2.5
G1 X-26.183S200
G1 X-45.263S0
G1 X-26.187S200
G1 X-2.5S0
G1 X-0.188Y0.1
G1 X2.5
G1 X25.965S200
G1 X46.082S0
G1 X25.961S200
G1 X2.5S0
G1 X0.186Y0.1
G1 X-2.5
G1 X-25.764S200
G1 X-46.847S0
G1 X-25.77S200
G1 X-2.5S0
G1 X-0.187Y0.1
G1 X2.5
G1 X25.575S200
G1 X47.611S0
G1 X25.569S200
G1 X2.5S0
G1 X0.187Y0.1
G1 X-2.5
G1 X-25.374S200
G1 X-48.376S0
G1 X-25.38S200
G1 X-2.5S0
G1 X-0.187Y0.1
G1 X2.5
G1 X25.185S200
G1 X49.141S0
G1 X25.178S200
G1 X2.5S0
G1 X0.186Y0.1
G1 X-2.5
G1 X-24.992S200
G1 X-49.885S0
G1 X-24.993S200
G1 X-2.5S0
G1 X-0.178Y0.1
G1 X2.5
G1 X24.818S200
G1 X50.59S0
G1 X24.822S200
G1 X2.5S0
G1 X0.178Y0.1
G1 X-2.5
G1 X-24.647S200
G1 X-51.295S0
G1 X-24.645S200
G1 X-2.5S0
G1 X-0.178Y0.1
G1 X2.5
G1 X24.47S200
G1 X52.001S0
G1 X24.471S200
G1 X2.5S0
G1 X0.177Y0.1
G1 X-2.5
G1 X-24.295S200
G1 X-52.707S0
G1 X-24.295S200
G1 X-2.5S0
G1 X-0.178Y0.1
G1 X2.5
G1 X24.123S200
G1 X53.407S0
G1 X24.122S200
G1 X2.5S0
G1 X0.178Y0.1
G1 X-2.5
G1 X-23.973S200
G1 X-54.061S0
G1 X-23.974S200
G1 X-2.5S0
G1 X-0.178Y0.1
G1 X2.5
G1 X23.824S200
G1 X54.716S0
G1 X23.823S200
G1 X2.5S0
G1 X0.177Y0.1
G1 X-2.5
G1 X-23.672S200
G1 X-55.371S0
G1 X-23.675S200
G1 X-2.5S0
G1 X-0.178Y0.1
G1 X2.5
G1 X23.526S200
G1 X56.025S0
G1 X23.523S200
G1 X2.5S0
G1 X0.177Y0.1
G1 X-2.5
G1 X-23.373S200
G1 X-56.679S0
G1 X-23.377S200
G1 X-2.5S0
G1 X-0.171Y0.1
G1 X2.5
G1 X23.231S200
G1 X57.312S0
G1 X23.234S200
G1 X2.5S0
G1 X0.173Y0.1
G1 X-2.5
G1 X-23.102S200
G1 X-57.921S0
G1 X-23.097S200
G1 X-2.5S0
G1 X-0.169Y0.1
G1 X2.5
G1 X22.961S200
G1 X58.531S0
G1 X22.965S200
G1 X2.5S0
G1 X0.169Y0.1
G1 X-2.5
G1 X-22.829S200
G1 X-59.141S0
G1 X-22.826S200
G1 X-2.5S0
G1 X-0.169Y0.1
G1 X2.5
G1 X22.69S200
G1 X59.751S0
G1 X22.692S200
G1 X2.5S0
G1 X0.168Y0.1
G1 X-2.5
G1 X-22.555S200
G1 X-60.361S0
G1 X-22.555S200
G1 X-2.5S0
G1 X-0.17Y0.1
G1 X2.5
G1 X22.43S200
G1 X60.951S0
G1 X22.429S200
G1 X2.5S0
G1 X0.168Y0.1
G1 X-2.5
G1 X-22.312S200
G1 X-61.521S0
G1 X-22.314S200
G1 X-2.5S0
G1 X-0.17Y0.1
G1 X2.5
G1 X22.199S200
G1 X62.091S0
G1 X22.196S200
G1 X2.5S0
G1 X0.168Y0.1
G1 X-2.5
G1 X-22.079S200
G1 X-62.662S0
G1 X-22.082S200
G1 X-2.5S0
G1 X-0.17Y0.1
G1 X2.5
G1 X21.967S200
G1 X63.233S0
G1 X21.962S200
G1 X2.5S0
G1 X0.168Y0.1
G1 X-2.5
G1 X-21.845S200
G1 X-63.803S0
G1 X-21.848S200
G1 X-2.5S0
G1 X-0.161Y0.1
G1 X2.5
G1 X21.726S200
G1 X64.368S0
G1 X21.731S200
G1 X2.5S0
G1 X0.16Y0.1
G1 X-2.5
G1 X-21.623S200
G1 X-64.903S0
G1 X-21.621S200
G1 X-2.5S0
G1 X-0.162Y0.1
G1 X2.5
G1 X21.515S200
G1 X65.439S0
G1 X21.515S200
G1 X2.5S0
G1 X0.16Y0.1
G1 X-2.5
G1 X-21.408S200
G1 X-65.973S0
G1 X-21.409S200
G1 X-2.5S0
G1 X-0.162Y0.1
G1 X2.5
G1 X21.303S200
G1 X66.509S0
G1 X21.3S200
G1 X2.5S0
G1 X0.16Y0.1
G1 X-2.5
G1 X-21.193S200
G1 X-67.044S0
G1 X-21.196S200
G1 X-2.5S0
G1 X-0.162Y0.1
G1 X2.5
G1 X21.091S200
G1 X67.579S0
G1 X21.085S200
G1 X2.5S0
G1 X0.16Y0.1
G1 X-2.5
G1 X-20.984S200
G1 X-68.101S0
G1 X-20.992S200
G1 X-2.5S0
G1 X-0.161Y0.1
G1 X2.5
G1 X20.901S200
G1 X68.605S0
G1 X20.892S200
G1 X2.5S0
G1 X0.161Y0.1
G1 X-2.5
G1 X-20.801S200
G1 X-69.109S0
G1 X-20.811S200
G1 X-2.5S0
G1 X-0.161Y0.1
G1 X2.5
G1 X20.72S200
G1 X69.613S0
G1 X20.709S200
G1 X2.5S0
G1 X0.16Y0.1
G1 X-2.5
G1 X-20.618S200
G1 X-70.116S0
G1 X-20.625S200
G1 X-2.5S0
G1 X-0.155Y0.1
G1 X2.5
G1 X20.528S200
G1 X70.62S0
G1 X20.524S200
G1 X2.5S0
G1 X0.155Y0.1
G1 X-2.5
G1 X-20.427S200
G1 X-71.123S0
G1 X-20.431S200
G1 X-2.5S0
G1 X-0.154Y0.1
G1 X2.5
G1 X20.337S200
G1 X71.618S0
G1 X20.334S200
G1 X2.5S0
G1 X0.154Y0.1
G1 X-2.5
G1 X-20.25S200
G1 X-72.093S0
G1 X-20.254S200
G1 X-2.5S0
G1 X-0.155Y0.1
G1 X2.5
G1 X20.171S200
G1 X72.569S0
G1 X20.166S200
G1 X2.5S0
G1 X0.154Y0.1
G1 X-2.5
G1 X-20.083S200
G1 X-73.043S0
G1 X-20.088S200
G1 X-2.5S0
G1 X-0.154Y0.1
G1 X2.5
G1 X20.004S200
G1 X73.519S0
G1 X19.999S200
G1 X2.5S0
G1 X0.154Y0.1
G1 X-2.5
G1 X-19.915S200
G1 X-73.995S0
G1 X-19.92S200
G1 X-2.5S0
G1 X-0.154Y0.1
G1 X2.5
G1 X19.837S200
G1 X74.469S0
G1 X19.833S200
G1 X2.5S0
G1 X0.154Y0.1
G1 X-2.5
G1 X-19.749S200
G1 X-74.945S0
G1 X-19.754S200
G1 X-2.5S0
G1 X-0.154Y0.1
G1 X2.5
G1 X19.682S200
G1 X75.397S0
G1 X19.677S200
G1 X2.5S0
G1 X0.154Y0.1
G1 X-2.5
G1 X-19.606S200
G1 X-75.847S0
G1 X-19.608S200
G1 X-2.5S0
G1 X-0.148Y0.1
G1 X2.5
G1 X19.531S200
G1 X76.297S0
G1 X19.535S200
G1 X2.5S0
G1 X0.148Y0.1
G1 X-2.5
G1 X-19.459S200
G1 X-76.745S0
G1 X-19.454S200
G1 X-2.5S0
G1 X-0.147Y0.1
G1 X2.5
G1 X19.376S200
G1 X77.195S0
G1 X19.38S200
G1 X2.5S0
G1 X0.147Y0.1
G1 X-2.5
G1 X-19.302S200
G1 X-77.645S0
G1 X-19.299S200
G1 X-2.5S0
G1 X-0.147Y0.1
G1 X2.5
G1 X19.221S200
G1 X78.094S0
G1 X19.224S200
G1 X2.5S0
G1 X0.147Y0.1
G1 X-2.5
G1 X-19.146S200
G1 X-78.543S0
G1 X-19.144S200
G1 X-2.5S0
G1 X-0.148Y0.1
G1 X2.5
G1 X19.079S200
G1 X78.968S0
G1 X19.08S200
G1 X2.5S0
G1 X0.147Y0.1
G1 X-2.5
G1 X-19.014S200
G1 X-79.394S0
G1 X-19.013S200
G1 X-2.5S0
G1 X-0.147Y0.1
G1 X2.5
G1 X18.947S200
G1 X79.82S0
G1 X18.947S200
G1 X2.5S0
G1 X0.147Y0.1
G1 X-2.5
G1 X-18.881S200
G1 X-80.245S0
G1 X-18.883S200
G1 X-2.5S0
G1 X-0.147Y0.1
G1 X2.5
G1 X18.817S200
G1 X80.671S0
G1 X18.815S200
G1 X2.5S0
G1 X0.146Y0.1
G1 X-2.5
G1 X-18.748S200
G1 X-81.097S0
G1 X-18.751S200
G1 X-2.5S0
G1 X-0.143Y0.1
G1 X2.5
G1 X18.681S200
G1 X81.523S0
G1 X18.682S200
G1 X2.5S0
G1 X0.146Y0.1
G1 X-2.5
G1 X-18.615S200
G1 X-81.949S0
G1 X-18.608S200
G1 X-2.5S0
G1 X-0.141Y0.1
G1 X2.5
G1 X18.545S200
G1 X82.356S0
G1 X18.551S200
G1 X2.5S0
G1 X0.14Y0.1
G1 X-2.5
G1 X-18.488S200
G1 X-82.761S0
G1 X-18.484S200
G1 X-2.5S0
G1 X-0.141Y0.1
G1 X2.5
G1 X18.423S200
G1 X83.165S0
G1 X18.426S200
G1 X2.5S0
G1 X0.139Y0.1
G1 X-2.5
G1 X-18.363S200
G1 X-83.569S0
G1 X-18.362S200
G1 X-2.5S0
G1 X-0.141Y0.1
G1 X2.5
G1 X18.301S200
G1 X83.973S0
G1 X18.301S200
G1 X2.5S0
G1 X0.139Y0.1
G1 X-2.5
G1 X-18.238S200
G1 X-84.377S0
G1 X-18.24S200
G1 X-2.5S0
G1 X-0.141Y0.1
G1 X2.5
G1 X18.179S200
G1 X84.781S0
G1 X18.176S200
G1 X2.5S0
G1 X0.139Y0.1
G1 X-2.5
G1 X-18.113S200
G1 X-85.185S0
G1 X-18.118S200
G1 X-2.5S0
G1 X-0.14Y0.1
G1 X2.5
G1 X18.059S200
G1 X85.583S0
G1 X18.054S200
G1 X2.5S0
G1 X0.139Y0.1
G1 X-2.5
G1 X-18.001S200
G1 X-85.967S0
G1 X-18.008S200
G1 X-2.5S0
G1 X-0.141Y0.1
G1 X2.5
G1 X17.956S200
G1 X86.352S0
G1 X17.949S200
G1 X2.5S0
G1 X0.139Y0.1
G1 X-2.5
G1 X-17.896S200
G1 X-86.736S0
G1 X-17.9S200
G1 X-2.5S0
G1 X-0.134Y0.1
G1 X2.5
G1 X17.842S200
G1 X87.121S0
G1 X17.843S200
G1 X2.5S0
G1 X0.135Y0.1
G1 X-2.5
G1 X-17.786S200
G1 X-87.505S0
G1 X-17.785S200
G1 X-2.5S0
G1 X-0.134Y0.1
G1 X2.5
G1 X17.727S200
G1 X87.889S0
G1 X17.727S200
G1 X2.5S0
G1 X0.133Y0.1
G1 X-2.5
G1 X-17.668S200
G1 X-88.273S0
G1 X-17.669S200
G1 X-2.5S0
G1 X-0.135Y0.1
G1 X2.5
G1 X17.612S200
G1 X88.657S0
G1 X17.609S200
G1 X2.5S0
G1 X0.133Y0.1
G1 X-2.5
G1 X-17.554S200
G1 X-89.033S0
G1 X-17.558S200
G1 X-2.5S0
G1 X-0.134Y0.1
G1 X2.5
G1 X17.509S200
G1 X89.399S0
G1 X17.504S200
G1 X2.5S0
G1 X0.133Y0.1
G1 X-2.5
G1 X-17.454S200
G1 X-89.765S0
G1 X-17.461S200
G1 X-2.5S0
G1 X-0.134Y0.1
G1 X2.5
G1 X17.412S200
G1 X90.131S0
G1 X17.404S200
G1 X2.5S0
G1 X0.133Y0.1
G1 X-2.5
G1 X-17.354S200
G1 X-90.497S0
G1 X-17.362S200
G1 X-2.5S0
G1 X-0.13Y0.1
G1 X2.5
G1 X17.309S200
G1 X90.863S0
G1 X17.304S200
G1 X2.5S0
G1 X0.134Y0.1
G1 X-2.5
G1 X-17.255S200
G1 X-91.229S0
G1 X-17.256S200
G1 X-2.5S0
G1 X-0.13Y0.1
G1 X2.5
G1 X17.203S200
G1 X91.595S0
G1 X17.205S200
G1 X2.5S0
G1 X0.133Y0.1
G1 X-2.5
G1 X-17.155S200
G1 X-91.961S0
G1 X-17.15S200
G1 X-2.5S0
G1 X-0.13Y0.1
G1 X2.5
G1 X17.099S200
G1 X92.323S0
G1 X17.107S200
G1 X2.5S0
G1 X0.127Y0.1
G1 X-2.5
G1 X-17.06S200
G1 X-92.672S0
G1 X-17.054S200
G1 X-2.5S0
G1 X-0.129Y0.1
G1 X2.5
G1 X17.009S200
G1 X93.021S0
G1 X17.012S200
G1 X2.5S0
G1 X0.127Y0.1
G1 X-2.5
G1 X-16.965S200
G1 X-93.369S0
G1 X-16.965S200
G1 X-2.5S0
G1 X-0.13Y0.1
G1 X2.5
G1 X16.92S200
G1 X93.718S0
G1 X16.918S200
G1 X2.5S0
G1 X0.127Y0.1
G1 X-2.5
G1 X-16.87S200
G1 X-94.067S0
G1 X-16.876S200
G1 X-2.5S0
G1 X-0.127Y0.1
G1 X2.5
G1 X16.829S200
G1 X94.415S0
G1 X16.823S200
G1 X2.5S0
G1 X0.127Y0.1
G1 X-2.5
G1 X-16.775S200
G1 X-94.765S0
G1 X-16.78S200
G1 X-2.5S0
G1 X-0.126Y0.1
G1 X2.5
G1 X16.732S200
G1 X95.113S0
G1 X16.728S200
G1 X2.5S0
G1 X0.127Y0.1
G1 X-2.5
G1 X-16.681S200
G1 X-95.462S0
G1 X-16.682S200
G1 X-2.5S0
G1 X-0.126Y0.1
G1 X2.5
G1 X16.639S200
G1 X95.801S0
G1 X16.638S200
G1 X2.5S0
G1 X0.127Y0.1
G1 X-2.5
G1 X-16.599S200
G1 X-96.134S0
G1 X-16.597S200
G1 X-2.5S0
G1 X-0.126Y0.1
G1 X2.5
G1 X16.557S200
G1 X96.467S0
G1 X16.559S200
G1 X2.5S0
G1 X0.127Y0.1
G1 X-2.5
G1 X-16.52S200
G1 X-96.799S0
G1 X-16.517S200
G1 X-2.5S0
G1 X-0.125Y0.1
G1 X2.5
G1 X16.475S200
G1 X97.132S0
G1 X16.482S200
G1 X2.5S0
G1 X0.121Y0.1
G1 X-2.5
G1 X-16.436S200
G1 X-97.465S0
G1 X-16.435S200
G1 X-2.5S0
G1 X-0.125Y0.1
G1 X2.5
G1 X16.394S200
G1 X97.797S0
G1 X16.392S200
G1 X2.5S0
G1 X0.121Y0.1
G1 X-2.5
G1 X-16.346S200
G1 X-98.131S0
G1 X-16.35S200
G1 X-2.5S0
G1 X-0.121Y0.1
G1 X2.5
G1 X16.305S200
G1 X98.463S0
G1 X16.302S200
G1 X2.5S0
G1 X0.121Y0.1
G1 X-2.5
G1 X-16.257S200
G1 X-98.796S0
G1 X-16.26S200
G1 X-2.5S0
G1 X-0.121Y0.1
G1 X2.5
G1 X16.22S200
G1 X99.119S0
G1 X16.217S200
G1 X2.5S0
G1 X0.121Y0.1
G1 X-2.5
G1 X-16.179S200
G1 X-99.437S0
G1 X-16.183S200
G1 X-2.5S0
G1 X-0.121Y0.1
G1 X2.5
G1 X16.145S200
G1 X99.755S0
G1 X16.142S200
G1 X2.5S0
G1 X0.121Y0.1
G1 X-2.5
G1 X-16.104S200
G1 X-100.073S0
G1 X-16.108S200
G1 X-2.5S0
G1 X-0.121Y0.1
G1 X2.5
G1 X16.07S200
G1 X100.391S0
G1 X16.067S200
G1 X2.5S0
G1 X0.121Y0.1
G1 X-2.5
G1 X-16.029S200
G1 X-100.709S0
G1 X-16.033S200
G1 X-2.5S0
G1 X-0.121Y0.1
G1 X2.5
G1 X15.995S200
G1 X101.026S0
G1 X15.993S200
G1 X2.5S0
G1 X0.121Y0.1
G1 X-2.5
G1 X-15.955S200
G1 X-101.344S0
G1 X-15.957S200
G1 X-2.5S0
G1 X-0.119Y0.1
G1 X2.5
G1 X15.917S200
G1 X101.662S0
G1 X15.918S200
G1 X2.5S0
G1 X0.119Y0.1
G1 X-2.5
G1 X-15.878S200
G1 X-101.979S0
G1 X-15.877S200
G1 X-2.5S0
G1 X-0.117Y0.1
G1 X2.5
G1 X15.837S200
G1 X102.293S0
G1 X15.837S200
G1 X2.5S0
G1 X0.117Y0.1
G1 X-2.5
G1 X-15.802S200
G1 X-102.597S0
G1 X-15.803S200
G1 X-2.5S0
G1 X-0.117Y0.1
G1 X2.5
G1 X15.768S200
G1 X102.901S0
G1 X15.766S200
G1 X2.5S0
G1 X0.116Y0.1
G1 X-2.5
G1 X-15.731S200
G1 X-103.204S0
G1 X-15.733S200
G1 X-2.5S0
G1 X-0.118Y0.1
G1 X2.5
G1 X15.699S200
G1 X103.508S0
G1 X15.695S200
G1 X2.5S0
G1 X0.117Y0.1
G1 X-2.5
G1 X-15.66S200
G1 X-103.812S0
G1 X-15.664S200
G1 X-2.5S0
G1 X-0.118Y0.1
G1 X2.5
G1 X15.631S200
G1 X104.115S0
G1 X15.624S200
G1 X2.5S0
G1 X0.116Y0.1
G1 X-2.5
G1 X-15.588S200
G1 X-104.419S0
G1 X-15.596S200
G1 X-2.5S0
G1 X-0.117Y0.1
G1 X2.5
G1 X15.561S200
G1 X104.723S0
G1 X15.552S200
G1 X2.5S0
G1 X0.117Y0.1
G1 X-2.5
G1 X-15.517S200
G1 X-105.027S0
G1 X-15.526S200
G1 X-2.5S0
G1 X-0.113Y0.1
G1 X2.5
G1 X15.487S200
G1 X105.331S0
G1 X15.481S200
G1 X2.5S0
G1 X0.116Y0.1
G1 X-2.5
G1 X-15.45S200
G1 X-105.625S0
G1 X-15.454S200
G1 X-2.5S0
G1 X-0.113Y0.1
G1 X2.5
G1 X15.421S200
G1 X105.917S0
G1 X15.42S200
G1 X2.5S0
G1 X0.117Y0.1
G1 X-2.5
G1 X-15.392S200
G1 X-106.207S0
G1 X-15.39S200
G1 X-2.5S0
G1 X-0.113Y0.1
G1 X2.5
G1 X15.358S200
G1 X106.497S0
G1 X15.361S200
G1 X2.5S0
G1 X0.111Y0.1
G1 X-2.5
G1 X-15.326S200
G1 X-106.789S0
G1 X-15.326S200
G1 X-2.5S0
G1 X-0.113Y0.1
G1 X2.5
G1 X15.294S200
G1 X107.079S0
G1 X15.292S200
G1 X2.5S0
G1 X0.112Y0.1
G1 X-2.5
G1 X-15.259S200
G1 X-107.369S0
G1 X-15.263S200
G1 X-2.5S0
G1 X-0.113Y0.1
G1 X2.5
G1 X15.23S200
G1 X107.661S0
G1 X15.224S200
G1 X2.5S0
G1 X0.111Y0.1
G1 X-2.5
G1 X-15.19S200
G1 X-107.951S0
G1 X-15.199S200
G1 X-2.5S0
G1 X-0.113Y0.1
G1 X2.5
G1 X15.167S200
G1 X108.241S0
G1 X15.157S200
G1 X2.5S0
G1 X0.111Y0.1
G1 X-2.5
G1 X-15.122S200
G1 X-108.533S0
G1 X-15.132S200
G1 X-2.5S0
G1 X-0.11Y0.1
G1 X2.5
G1 X15.101S200
G1 X108.815S0
G1 X15.092S200
G1 X2.5S0
G1 X0.112Y0.1
G1 X-2.5
G1 X-15.065S200
G1 X-109.093S0
G1 X-15.072S200
G1 X-2.5S0
G1 X-0.109Y0.1
G1 X2.5
G1 X15.042S200
G1 X109.371S0
G1 X15.037S200
G1 X2.5S0
G1 X0.111Y0.1
G1 X-2.5
G1 X-15.009S200
G1 X-109.649S0
G1 X-15.013S200
G1 X-2.5S0
G1 X-0.109Y0.1
G1 X2.5
G1 X14.983S200
G1 X109.927S0
G1 X14.982S200
G1 X2.5S0
G1 X0.111Y0.1
G1 X-2.5
G1 X-14.954S200
G1 X-110.205S0
G1 X-14.954S200
G1 X-2.5S0
G1 X-0.11Y0.1
G1 X2.5
G1 X14.925S200
G1 X110.483S0
G1 X14.926S200
G1 X2.5S0
G1 X0.111Y0.1
G1 X-2.5
G1 X-14.898S200
G1 X-110.762S0
G1 X-14.894S200
G1 X-2.5S0
G1 X-0.11Y0.1
G1 X2.5
G1 X14.865S200
G1 X111.04S0
G1 X14.867S200
G1 X2.5S0
G1 X0.108Y0.1
G1 X-2.5
G1 X-14.835S200
G1 X-111.319S0
G1 X-14.836S200
G1 X-2.5S0
G1 X-0.109Y0.1
G1 X2.5
G1 X14.806S200
G1 X111.597S0
G1 X14.804S200
G1 X2.5S0
G1 X0.108Y0.1
G1 X-2.5
G1 X-14.775S200
G1 X-111.871S0
G1 X-14.776S200
G1 X-2.5S0
G1 X-0.106Y0.1
G1 X2.5
G1 X14.749S200
G1 X112.137S0
G1 X14.749S200
G1 X2.5S0
G1 X0.108Y0.1
G1 X-2.5
G1 X-14.724S200
G1 X-112.403S0
G1 X-14.722S200
G1 X-2.5S0
G1 X-0.106Y0.1
G1 X2.5
G1 X14.694S200
G1 X112.67S0
G1 X14.699S200
G1 X2.5S0
G1 X0.107Y0.1
G1 X-2.5
G1 X-14.672S200
G1 X-112.937S0
G1 X-14.667S200
G1 X-2.5S0
G1 X-0.106Y0.1
G1 X2.5
G1 X14.64S200
G1 X113.203S0
G1 X14.644S200
G1 X2.5S0
G1 X0.106Y0.1
G1 X-2.5
G1 X-14.617S200
G1 X-113.469S0
G1 X-14.613S200
G1 X-2.5S0
G1 X-0.106Y0.1
G1 X2.5
G1 X14.585S200
G1 X113.736S0
G1 X14.589S200
G1 X2.5S0
G1 X0.106Y0.1
G1 X-2.5
G1 X-14.561S200
G1 X-114.003S0
G1 X-14.558S200
G1 X-2.5S0
G1 X-0.105Y0.1
G1 X2.5
G1 X14.53S200
G1 X114.269S0
G1 X14.533S200
G1 X2.5S0
G1 X0.106Y0.1
G1 X-2.5
G1 X-14.506S200
G1 X-114.535S0
G1 X-14.503S200
G1 X-2.5S0
G1 X-0.106Y0.1
G1 X2.5
G1 X14.475S200
G1 X114.802S0
G1 X14.478S200
G1 X2.5S0
G1 X0.104Y0.1
G1 X-2.5
G1 X-143.963S200
G1 X-2.5S0
G1 X-0.102Y0.1
G1 X2.5
G1 X144.167S200
G1 X2.5S0
G1 X0.103Y0.1
G1 X-2.5
G1 X-144.372S200
G1 X-2.5S0
G1 X-0.102Y0.1
G1 X2.5
G1 X144.577S200
G1 X2.5S0
G1 X0.102Y0.1
G1 X-2.5
G1 X-144.781S200
G1 X-2.5S0
G1 X-0.102Y0.1
G1 X2.5
G1 X144.986S200
G1 X2.5S0
G1 X0.103Y0.1
G1 X-2.5
G1 X-145.192S200
G1 X-2.5S0
G1 X-0.102Y0.1
G1 X2.5
G1 X145.396S200
G1 X2.5S0
G1 X0.103Y0.1
G1 X-2.5
G1 X-145.601S200
G1 X-2.5S0
G1 X-0.102Y0.1
G1 X2.5
G1 X145.806S200
G1 X2.5S0
G1 X0.102Y0.1
G1 X-2.5
G1 X-146.01S200
G1 X-2.5S0
G1 X-0.103Y0.1
G1 X2.5
G1 X146.214S200
G1 X2.5S0
G1 X0.1Y0.1
G1 X-2.5
G1 X-146.416S200
G1 X-2.5S0
G1 X-0.1Y0.1
G1 X2.5
G1 X146.615S200
G1 X2.5S0
G1 X0.1Y0.1
G1 X-2.5
G1 X-146.814S200
G1 X-2.5S0
G1 X-0.098Y0.1
G1 X2.5
G1 X147.011S200
G1 X2.5S0
G1 X0.1Y0.1
G1 X-2.5
G1 X-147.209S200
G1 X-2.5S0
G1 X-0.099Y0.1
G1 X2.5
G1 X147.407S200
G1 X2.5S0
G1 X0.1Y0.1
G1 X-2.5
G1 X-147.605S200
G1 X-2.5S0
G1 X-0.098Y0.1
G1 X2.5
G1 X147.802S200
G1 X2.5S0
G1 X0.1Y0.1
G1 X-2.5
G1 X-148.001S200
G1 X-2.5S0
G1 X-0.098Y0.1
G1 X2.5
G1 X148.198S200
G1 X2.5S0
G1 X0.1Y0.1
G1 X-2.5
G1 X-148.397S200
G1 X-2.5S0
G1 X-0.098Y0.1
G1 X2.5
G1 X148.591S200
G1 X2.5S0
G1 X0.096Y0.1
G1 X-2.5
G1 X-148.785S200
G1 X-2.5S0
G1 X-0.099Y0.1
G1 X2.5
G1 X148.981S200
G1 X2.5S0
G1 X0.096Y0.1
G1 X-2.5
G1 X-149.175S200
G1 X-2.5S0
G1 X-0.095Y0.1
G1 X2.5
G1 X149.367S200
G1 X2.5S0
G1 X0.096Y0.1
G1 X-2.5
G1 X-149.558S200
G1 X-2.5S0
G1 X-0.095Y0.1
G1 X2.5
G1 X149.749S200
G1 X2.5S0
G1 X0.097Y0.1
G1 X-2.5
G1 X-149.941S200
G1 X-2.5S0
G1 X-0.095Y0.1
G1 X2.5
G1 X150.132S200
G1 X2.5S0
G1 X0.097Y0.1
G1 X-2.5
G1 X-150.324S200
G1 X-2.5S0
G1 X-0.095Y0.1
G1 X2.5
G1 X150.515S200
G1 X2.5S0
G1 X0.095Y0.1
G1 X-2.5
G1 X-150.705S200
G1 X-2.5S0
G1 X-0.095Y0.1
G1 X2.5
G1 X150.894S200
G1 X2.5S0
G1 X0.093Y0.1
G1 X-2.5
G1 X-151.082S200
G1 X-2.5S0
G1 X-0.095Y0.1
G1 X2.5
G1 X151.27S200
G1 X2.5S0
G1 X0.094Y0.1
G1 X-2.5
G1 X-151.459S200
G1 X-2.5S0
G1 X-0.095Y0.1
G1 X2.5
G1 X151.647S200
G1 X2.5S0
G1 X0.094Y0.1
G1 X-2.5
G1 X-151.836S200
G1 X-2.5S0
G1 X-0.095Y0.1
G1 X2.5
G1 X152.024S200
G1 X2.5S0
G1 X0.093Y0.1
G1 X-2.5
G1 X-152.212S200
G1 X-2.5S0
G1 X-0.092Y0.1
G1 X2.5
G1 X152.398S200
G1 X2.5S0
G1 X0.093Y0.1
G1 X-2.5
G1 X-152.582S200
G1 X-2.5S0
G1 X-0.091Y0.1
G1 X2.5
G1 X152.766S200
G1 X2.499S0
G1 X0.092Y0.1
G1 X-2.5
G1 X-152.949S200
G1 X-2.5S0
G1 X-0.091Y0.1
G1 X2.5
G1 X153.131S200
G1 X2.5S0
G1 X0.09Y0.1
G1 X-2.5
G1 X-153.311S200
G1 X-2.5S0
G1 X-0.091Y0.1
G1 X2.5
G1 X153.492S200
G1 X2.5S0
G1 X0.091Y0.1
G1 X-2.5
G1 X-153.674S200
G1 X-2.5S0
G1 X-0.091Y0.1
G1 X2.5
G1 X153.855S200
G1 X2.5S0
G1 X0.091Y0.1
G1 X-2.5
G1 X-154.037S200
G1 X-2.5S0
G1 X-0.09Y0.1
G1 X2.5
G1 X154.217S200
G1 X2.5S0
G1 X0.091Y0.1
G1 X-2.5
G1 X-154.399S200
G1 X-2.5S0
G1 X-0.091Y0.1
G1 X2.5
G1 X39.67S200
G1 X0.363S0
G1 X63.745S200
G1 X0.363S0
G1 X50.439S200
G1 X2.5S0
G1 X0.091Y0.1
G1 X-2.5
G1 X-49.082S200
G1 X-3.243S0
G1 X-60.865S200
G1 X-3.243S0
G1 X-38.329S200
G1 X-2.5S0
G1 X-0.091Y0.1
G1 X2.5
G1 X9.308S200
G1 X1.422S0
G1 X27.064S200
G1 X4.509S0
G1 X59.599S200
G1 X4.509S0
G1 X48.532S200
G1 X2.5S0
G1 X0.089Y0.1
G1 X-2.5
G1 X-48.097S200
G1 X-5.544S0
G1 X-58.564S200
G1 X-5.544S0
G1 X-25.58S200
G1 X-3.391S0
G1 X-8.403S200
G1 X-2.5S0
G1 X-0.09Y0.1
G1 X2.5
G1 X7.986S200
G1 X4.474S0
G1 X24.607S200
G1 X6.341S0
G1 X57.767S200
G1 X6.341S0
G1 X47.784S200
G1 X2.5S0
G1 X0.088Y0.1
G1 X-2.5
G1 X-47.48S200
G1 X-7.113S0
G1 X-56.995S200
G1 X-7.113S0
G1 X-23.784S200
G1 X-5.355S0
G1 X-7.636S200
G1 X-2.5S0
G1 X-0.087Y0.1
G1 X2.5
G1 X7.395S200
G1 X6.066S0
G1 X23.098S200
G1 X7.723S0
G1 X56.385S200
G1 X7.723S0
G1 X47.261S200
G1 X2.5S0
G1 X0.087Y0.1
G1 X-2.5
G1 X-47.041S200
G1 X-8.334S0
G1 X-55.774S200
G1 X-8.334S0
G1 X-22.479S200
G1 X-6.709S0
G1 X-7.154S200
G1 X-2.5S0
G1 X-0.086Y0.1
G1 X2.5
G1 X6.999S200
G1 X7.244S0
G1 X21.908S200
G1 X8.901S0
G1 X13.076S200
G1 X15.711S0
G1 X26.42S200
G1 X8.901S0
G1 X13.358S200
G1 X11.35S0
G1 X13.494S200
G1 X1.938S0
G1 X6.699S200
G1 X2.5S0
G1 X0.088Y0.1
G1 X-2.5
G1 X-6.787S200
G1 X-2.014S0
G1 X-13.418S200
G1 X-11.35S0
G1 X-13.111S200
G1 X-9.393S0
G1 X-25.042S200
G1 X-16.844S0
G1 X-12.829S200
G1 X-9.393S0
G1 X-21.405S200
G1 X-7.744S0
G1 X-6.844S200
G1 X-2.5S0
G1 X-0.087Y0.1
G1 X2.5
G1 X6.693S200
G1 X8.23S0
G1 X20.913S200
G1 X9.884S0
G1 X12.582S200
G1 X17.577S0
G1 X24.065S200
G1 X9.884S0
G1 X12.864S200
G1 X11.35S0
G1 X13.342S200
G1 X2.09S0
G1 X6.874S200
G1 X2.5S0
G1 X0.088Y0.1
G1 X-2.5
G1 X-6.962S200
G1 X-2.167S0
G1 X-13.265S200
G1 X-11.35S0
G1 X-12.617S200
G1 X-10.372S0
G1 X-23.272S200
G1 X-18.129S0
G1 X-12.335S200
G1 X-10.372S0
G1 X-20.455S200
G1 X-8.633S0
G1 X-6.594S200
G1 X-2.5S0
G1 X-0.087Y0.1
G1 X2.5
G1 X6.494S200
G1 X9.037S0
G1 X20.035S200
G1 X10.787S0
G1 X12.123S200
G1 X18.583S0
G1 X22.615S200
G1 X10.787S0
G1 X12.405S200
G1 X11.35S0
G1 X13.189S200
G1 X2.243S0
G1 X7.049S200
G1 X2.5S0
G1 X0.088Y0.1
G1 X-2.5
G1 X-7.137S200
G1 X-2.319S0
G1 X-13.113S200
G1 X-11.35S0
G1 X-12.199S200
G1 X-11.196S0
G1 X-22.016S200
G1 X-18.979S0
G1 X-11.917S200
G1 X-11.196S0
G1 X-19.642S200
G1 X-9.413S0
G1 X-6.395S200
G1 X-2.5S0
G1 X-0.086Y0.1
G1 X2.5
G1 X6.313S200
G1 X9.764S0
G1 X19.256S200
G1 X11.605S0
G1 X11.711S200
G1 X19.322S0
G1 X21.47S200
G1 X11.605S0
G1 X11.993S200
G1 X11.35S0
G1 X13.036S200
G1 X2.396S0
G1 X7.225S200
G1 X2.5S0
G1 X0.086Y0.1
G1 X-2.5
G1 X-7.311S200
G1 X-2.472S0
G1 X-12.96S200
G1 X-11.35S0
G1 X-11.787S200
G1 X-12.011S0
G1 X-20.975S200
G1 X-19.617S0
G1 X-11.505S200
G1 X-12.011S0
G1 X-18.874S200
G1 X-10.095S0
G1 X-6.251S200
G1 X-2.5S0
G1 X-0.087Y0.1
G1 X2.5
G1 X6.19S200
G1 X10.401S0
G1 X18.543S200
G1 X5.687S0
G1 X1.007S200
G1 X5.672S0
G1 X11.323S200
G1 X19.898S0
G1 X20.521S200
G1 X5.687S0
G1 X1.007S200
G1 X5.672S0
G1 X11.605S200
G1 X11.35S0
G1 X12.883S200
G1 X2.549S0
G1 X7.396S200
G1 X2.5S0
G1 X0.084Y0.1
G1 X-2.5
G1 X-7.48S200
G1 X-2.625S0
G1 X-12.807S200
G1 X-11.35S0
G1 X-11.429S200
G1 X-4.925S0
G1 X-2.8S200
G1 X-4.99S0
G1 X-20.08S200
G1 X-20.166S0
G1 X-11.147S200
G1 X-4.925S0
G1 X-2.8S200
G1 X-4.99S0
G1 X-18.211S200
G1 X-10.708S0
G1 X-6.129S200
G1 X-2.5S0
G1 X-0.087Y0.1
G1 X2.5
G1 X6.074S200
G1 X3.942S0
G1 X1.361S200
G1 X5.705S0
G1 X17.88S200
G1 X4.683S0
G1 X3.792S200
G1 X4.589S0
G1 X10.971S200
G1 X20.408S0
G1 X19.665S200
G1 X4.683S0
G1 X3.792S200
G1 X4.589S0
G1 X11.253S200
G1 X11.35S0
G1 X12.731S200
G1 X2.701S0
G1 X7.565S200
G1 X2.5S0
G1 X0.085Y0.1
G1 X-2.5
G1 X-7.65S200
G1 X-2.778S0
G1 X-12.654S200
G1 X-11.35S0
G1 X-11.078S200
G1 X-4.384S0
G1 X-4.547S200
G1 X-4.481S0
G1 X-19.251S200
G1 X-20.649S0
G1 X-10.796S200
G1 X-4.385S0
G1 X-4.546S200
G1 X-4.481S0
G1 X-17.569S200
G1 X-5.214S0
G1 X-2.67S200
G1 X-3.382S0
G1 X-6.041S200
G1 X-2.5S0
G1 X-0.086Y0.1
G1 X2.5
G1 X6.007S200
G1 X3.084S0
G1 X3.492S200
G1 X4.947S0
G1 X17.273S200
G1 X4.328S0
G1 X5.171S200
G1 X4.245S0
G1 X10.623S200
G1 X20.872S0
G1 X18.869S200
G1 X4.328S0
G1 X5.172S200
G1 X4.244S0
G1 X10.905S200
G1 X11.35S0
G1 X12.578S200
G1 X2.854S0
G1 X7.735S200
G1 X2.5S0
G1 X0.085Y0.1
G1 X-2.5
G1 X-7.82S200
G1 X-2.93S0
G1 X-12.502S200
G1 X-11.35S0
G1 X-10.754S200
G1 X-4.11S0
G1 X-5.721S200
G1 X-4.212S0
G1 X-18.511S200
G1 X-21.082S0
G1 X-10.472S200
G1 X-4.111S0
G1 X-5.72S200
G1 X-4.212S0
G1 X-16.987S200
G1 X-4.804S0
G1 X-4.104S200
G1 X-2.873S0
G1 X-5.974S200
G1 X-2.5S0
G1 X-0.084Y0.1
G1 X2.5
G1 X5.938S200
G1 X2.729S0
G1 X4.637S200
G1 X4.658S0
G1 X16.717S200
G1 X4.114S0
G1 X6.206S200
G1 X4.021S0
G1 X10.321S200
G1 X21.291S0
G1 X18.155S200
G1 X4.114S0
G1 X6.206S200
G1 X4.021S0
G1 X10.603S200
G1 X11.35S0
G1 X12.425S200
G1 X3.007S0
G1 X7.905S200
G1 X2.5S0
G1 X0.084Y0.1
G1 X-2.5
G1 X-7.989S200
G1 X-3.083S0
G1 X-13.194S200
G1 X-9.903S0
G1 X-11.053S200
G1 X-3.948S0
G1 X-6.649S200
G1 X-4.044S0
G1 X-17.811S200
G1 X-6.639S0
G1 X-4.386S200
G1 X-6.954S0
G1 X-13.677S200
G1 X-3.949S0
G1 X-6.648S200
G1 X-4.044S0
G1 X-16.449S200
G1 X-4.582S0
G1 X-5.066S200
G1 X-2.609S0
G1 X-5.908S200
G1 X-2.5S0
G1 X-0.083Y0.1
G1 X2.5
G1 X5.893S200
G1 X2.501S0
G1 X5.469S200
G1 X4.504S0
G1 X16.183S200
G1 X3.988S0
G1 X7.061S200
G1 X3.89S0
G1 X13.941S200
G1 X6.064S0
G1 X5.67S200
G1 X6.013S0
G1 X17.481S200
G1 X3.988S0
G1 X7.062S200
G1 X3.889S0
G1 X11.453S200
G1 X8.666S0
G1 X13.804S200
G1 X3.159S0
G1 X8.074S200
G1 X2.5S0
G1 X0.085Y0.1
G1 X-2.5
G1 X-8.159S200
G1 X-3.236S0
G1 X-14.162S200
G1 X-7.854S0
G1 X-11.679S200
G1 X-3.856S0
G1 X-7.433S200
G1 X-3.941S0
G1 X-17.158S200
G1 X-5.633S0
G1 X-6.497S200
G1 X-5.581S0
G1 X-14.009S200
G1 X-3.857S0
G1 X-7.432S200
G1 X-3.941S0
G1 X-15.928S200
G1 X-4.45S0
G1 X-5.827S200
G1 X-2.41S0
G1 X-5.878S200
G1 X-2.5S0
G1 X-0.083Y0.1
G1 X2.5
G1 X5.863S200
G1 X2.342S0
G1 X6.143S200
G1 X4.403S0
G1 X15.697S200
G1 X3.892S0
G1 X7.792S200
G1 X3.808S0
G1 X14.03S200
G1 X5.239S0
G1 X7.08S200
G1 X5.416S0
G1 X16.851S200
G1 X3.892S0
G1 X7.793S200
G1 X3.807S0
G1 X11.828S200
G1 X7.231S0
G1 X14.426S200
G1 X3.312S0
G1 X8.244S200
G1 X2.5S0
G1 X0.084Y0.1
G1 X-2.5
G1 X-8.328S200
G1 X-3.388S0
G1 X-14.616S200
G1 X-6.728S0
G1 X-11.934S200
G1 X-3.771S0
G1 X-8.123S200
G1 X-3.856S0
G1 X-16.563S200
G1 X-5.196S0
G1 X-7.573S200
G1 X-5.033S0
G1 X-13.993S200
G1 X-3.772S0
G1 X-8.123S200
G1 X-3.855S0
G1 X-15.466S200
G1 X-4.358S0
G1 X-6.458S200
G1 X-2.274S0
G1 X-5.849S200
G1 X-2.5S0
G1 X-0.083Y0.1
G1 X2.5
G1 X5.833S200
G1 X2.235S0
G1 X6.726S200
G1 X4.331S0
G1 X15.236S200
G1 X3.823S0
G1 X8.435S200
G1 X3.749S0
G1 X13.952S200
G1 X4.841S0
G1 X7.973S200
G1 X5.06S0
G1 X16.275S200
G1 X3.823S0
G1 X8.436S200
G1 X3.748S0
G1 X12.016S200
G1 X6.287S0
G1 X14.768S200
G1 X3.465S0
G1 X8.41S200
G1 X2.5S0
G1 X0.082Y0.1
G1 X-2.5
G1 X-8.492S200
G1 X-3.541S0
G1 X-14.891S200
G1 X-5.91S0
G1 X-12.063S200
G1 X-3.726S0
G1 X-8.734S200
G1 X-3.805S0
G1 X-15.987S200
G1 X-4.924S0
G1 X-8.341S200
G1 X-4.716S0
G1 X-13.875S200
G1 X-3.727S0
G1 X-8.733S200
G1 X-3.806S0
G1 X-15.013S200
G1 X-4.309S0
G1 X-6.98S200
G1 X-2.18S0
G1 X-5.834S200
G1 X-2.5S0
G1 X-0.083Y0.1
G1 X2.5
G1 X5.836S200
G1 X2.127S0
G1 X7.231S200
G1 X4.282S0
G1 X14.796S200
G1 X3.789S0
G1 X9.023S200
G1 X3.712S0
G1 X13.799S200
G1 X4.599S0
G1 X8.657S200
G1 X4.82S0
G1 X15.709S200
G1 X3.789S0
G1 X9.024S200
G1 X3.711S0
G1 X12.097S200
G1 X5.568S0
G1 X14.992S200
G1 X3.617S0
G1 X8.575S200
G1 X2.5S0
G1 X0.082Y0.1
G1 X-2.5
G1 X-8.657S200
G1 X-3.694S0
G1 X-15.067S200
G1 X-5.265S0
G1 X-12.119S200
G1 X-3.713S0
G1 X-9.285S200
G1 X-3.771S0
G1 X-15.45S200
G1 X-4.728S0
G1 X-8.947S200
G1 X-4.51S0
G1 X-13.704S200
G1 X-3.714S0
G1 X-9.284S200
G1 X-3.771S0
G1 X-14.591S200
G1 X-4.256S0
G1 X-7.458S200
G1 X-2.096S0
G1 X-5.838S200
G1 X-2.5S0
G1 X-0.083Y0.1
G1 X2.5
G1 X5.84S200
G1 X2.065S0
G1 X7.663S200
G1 X4.253S0
G1 X14.39S200
G1 X3.754S0
G1 X9.54S200
G1 X3.699S0
G1 X13.618S200
G1 X4.452S0
G1 X9.212S200
G1 X4.636S0
G1 X15.197S200
G1 X3.754S0
G1 X9.541S200
G1 X3.698S0
G1 X12.137S200
G1 X4.983S0
G1 X15.142S200
G1 X3.77S0
G1 X8.739S200
G1 X2.5S0
G1 X0.082Y0.1
G1 X-2.5
G1 X-8.821S200
G1 X-3.846S0
G1 X-15.184S200
G1 X-4.734S0
G1 X-12.154S200
G1 X-3.684S0
G1 X-9.798S200
G1 X-3.735S0
G1 X-14.945S200
G1 X-4.573S0
G1 X-9.449S200
G1 X-4.392S0
G1 X-13.532S200
G1 X-3.685S0
G1 X-9.797S200
G1 X-3.735S0
G1 X-14.2S200
G1 X-4.239S0
G1 X-7.869S200
G1 X-2.033S0
G1 X-5.843S200
G1 X-2.5S0
G1 X-0.083Y0.1
G1 X2.5
G1 X5.848S200
G1 X2.015S0
G1 X8.058S200
G1 X4.223S0
G1 X14.012S200
G1 X3.73S0
G1 X10.028S200
G1 X3.683S0
G1 X13.43S200
G1 X4.355S0
G1 X9.666S200
G1 X4.513S0
G1 X14.703S200
G1 X3.73S0
G1 X10.029S200
G1 X3.682S0
G1 X12.154S200
G1 X4.504S0
G1 X15.224S200
G1 X3.923S0
G1 X8.903S200
G1 X2.5S0
G1 X0.082Y0.1
G1 X-2.5
G1 X-8.985S200
G1 X-3.999S0
G1 X-15.259S200
G1 X-4.287S0
G1 X-12.146S200
G1 X-3.689S0
G1 X-10.251S200
G1 X-3.725S0
G1 X-14.467S200
G1 X-4.448S0
G1 X-9.866S200
G1 X-4.338S0
G1 X-13.324S200
G1 X-3.69S0
G1 X-10.25S200
G1 X-3.725S0
G1 X-13.825S200
G1 X-4.207S0
G1 X-8.246S200
G1 X-1.985S0
G1 X-5.866S200
G1 X-2.5S0
G1 X-0.083Y0.1
G1 X2.5
G1 X5.884S200
G1 X1.956S0
G1 X8.414S200
G1 X4.21S0
G1 X13.637S200
G1 X3.721S0
G1 X10.471S200
G1 X3.697S0
G1 X13.219S200
G1 X4.32S0
G1 X10.062S200
G1 X4.388S0
G1 X14.23S200
G1 X3.721S0
G1 X10.472S200
G1 X3.696S0
G1 X12.139S200
G1 X4.091S0
G1 X15.273S200
G1 X4.075S0
G1 X9.067S200
G1 X2.5S0
G1 X0.082Y0.1
G1 X-2.5
G1 X-9.149S200
G1 X-4.152S0
G1 X-15.285S200
G1 X-3.909S0
G1 X-12.118S200
G1 X-3.704S0
G1 X-10.683S200
G1 X-3.72S0
G1 X-14S200
G1 X-4.355S0
G1 X-10.23S200
G1 X-4.307S0
G1 X-13.109S200
G1 X-3.705S0
G1 X-10.682S200
G1 X-3.721S0
G1 X-13.461S200
G1 X-4.207S0
G1 X-8.572S200
G1 X-1.937S0
G1 X-5.902S200
G1 X-2.5S0
G1 X-0.083Y0.1
G1 X2.5
G1 X5.92S200
G1 X1.924S0
G1 X8.724S200
G1 X4.199S0
G1 X13.299S200
G1 X3.714S0
G1 X10.886S200
G1 X3.705S0
G1 X13.008S200
G1 X4.306S0
G1 X10.39S200
G1 X4.315S0
G1 X13.784S200
G1 X3.714S0
G1 X10.887S200
G1 X3.704S0
G1 X12.102S200
G1 X3.735S0
G1 X15.298S200
G1 X4.228S0
G1 X9.231S200
G1 X2.5S0
G1 X0.083Y0.1
G1 X-2.5
G1 X-9.314S200
G1 X-4.304S0
G1 X-15.292S200
G1 X-3.579S0
G1 X-12.089S200
G1 X-3.713S0
G1 X-11.081S200
G1 X-3.706S0
G1 X-13.576S200
G1 X-4.268S0
G1 X-10.549S200
G1 X-4.306S0
G1 X-12.91S200
G1 X-3.713S0
G1 X-11.08S200
G1 X-3.706S0
G1 X-13.137S200
G1 X-4.191S0
G1 X-8.876S200
G1 X-1.911S0
G1 X-5.937S200
G1 X-2.5S0
G1 X-0.079Y0.1
G1 X2.5
G1 X5.953S200
G1 X1.902S0
G1 X9.014S200
G1 X4.191S0
G1 X12.975S200
G1 X3.705S0
G1 X11.267S200
G1 X3.722S0
G1 X12.811S200
G1 X4.306S0
G1 X10.708S200
G1 X4.221S0
G1 X13.368S200
G1 X3.705S0
G1 X11.268S200
G1 X3.721S0
G1 X12.073S200
G1 X3.428S0
G1 X15.284S200
G1 X4.381S0
G1 X9.394S200
G1 X2.5S0
G1 X0.08Y0.1
G1 X-2.5
G1 X-9.474S200
G1 X-4.457S0
G1 X-15.277S200
G1 X-3.288S0
G1 X-12.045S200
G1 X-3.731S0
G1 X-11.451S200
G1 X-3.707S0
G1 X-13.16S200
G1 X-4.201S0
G1 X-10.84S200
G1 X-4.306S0
G1 X-12.712S200
G1 X-3.732S0
G1 X-11.45S200
G1 X-3.708S0
G1 X-12.815S200
G1 X-4.195S0
G1 X-9.136S200
G1 X-1.89S0
G1 X-5.982S200
G1 X-2.5S0
G1 X-0.079Y0.1
G1 X2.5
G1 X6.01S200
G1 X1.879S0
G1 X9.257S200
G1 X4.192S0
G1 X12.663S200
G1 X3.71S0
G1 X11.634S200
G1 X3.74S0
G1 X12.614S200
G1 X4.306S0
G1 X10.972S200
G1 X4.18S0
G1 X12.952S200
G1 X3.71S0
G1 X11.635S200
G1 X3.74S0
G1 X12.016S200
G1 X3.156S0
G1 X15.263S200
G1 X4.533S0
G1 X9.553S200
G1 X2.5S0
G1 X0.08Y0.1
G1 X-2.5
G1 X-9.633S200
G1 X-4.61S0
G1 X-15.24S200
G1 X-3.031S0
G1 X-11.988S200
G1 X-3.757S0
G1 X-11.809S200
G1 X-3.714S0
G1 X-12.755S200
G1 X-4.149S0
G1 X-11.104S200
G1 X-4.306S0
G1 X-12.515S200
G1 X-3.757S0
G1 X-11.808S200
G1 X-3.714S0
G1 X-12.512S200
G1 X-4.189S0
G1 X-9.377S200
G1 X-1.867S0
G1 X-6.039S200
G1 X-2.5S0
G1 X-0.08Y0.1
G1 X2.5
G1 X6.068S200
G1 X1.869S0
G1 X9.485S200
G1 X4.185S0
G1 X12.368S200
G1 X3.718S0
G1 X11.969S200
G1 X3.779S0
G1 X12.417S200
G1 X4.306S0
G1 X11.218S200
G1 X4.136S0
G1 X12.566S200
G1 X3.717S0
G1 X11.97S200
G1 X3.778S0
G1 X11.953S200
G1 X2.916S0
G1 X15.217S200
G1 X4.686S0
G1 X9.712S200
G1 X2.5S0
G1 X0.08Y0.1
G1 X-2.5
G1 X-9.792S200
G1 X-4.763S0
G1 X-15.193S200
G1 X-2.806S0
G1 X-11.924S200
G1 X-3.788S0
G1 X-12.131S200
G1 X-3.716S0
G1 X-12.381S200
G1 X-4.124S0
G1 X-11.331S200
G1 X-4.306S0
G1 X-12.332S200
G1 X-3.788S0
G1 X-12.13S200
G1 X-3.717S0
G1 X-12.228S200
G1 X-4.188S0
G1 X-9.585S200
G1 X-1.873S0
G1 X-6.096S200
G1 X-2.5S0
G1 X-0.08Y0.1
G1 X2.5
G1 X6.125S200
G1 X1.877S0
G1 X9.678S200
G1 X4.192S0
G1 X12.094S200
G1 X3.715S0
G1 X12.292S200
G1 X3.798S0
G1 X12.246S200
G1 X4.306S0
G1 X11.444S200
G1 X4.112S0
G1 X12.196S200
G1 X3.714S0
G1 X12.293S200
G1 X3.798S0
G1 X11.894S200
G1 X2.704S0
G1 X15.163S200
G1 X4.839S0
G1 X9.871S200
G1 X2.5S0
G1 X0.08Y0.1
G1 X-2.5
G1 X-9.951S200
G1 X-4.915S0
G1 X-15.127S200
G1 X-2.607S0
G1 X-11.865S200
G1 X-3.808S0
G1 X-12.448S200
G1 X-3.719S0
G1 X-12.014S200
G1 X-4.107S0
G1 X-11.547S200
G1 X-4.306S0
G1 X-12.16S200
G1 X-3.808S0
G1 X-12.447S200
G1 X-3.72S0
G1 X-11.963S200
G1 X-4.194S0
G1 X-9.764S200
G1 X-1.875S0
G1 X-6.165S200
G1 X-2.5S0
G1 X-0.079Y0.1
G1 X2.5
G1 X6.206S200
G1 X1.88S0
G1 X9.843S200
G1 X4.194S0
G1 X11.833S200
G1 X3.728S0
G1 X12.596S200
G1 X3.821S0
G1 X12.074S200
G1 X4.306S0
G1 X11.644S200
G1 X4.101S0
G1 X11.838S200
G1 X3.728S0
G1 X12.597S200
G1 X3.821S0
G1 X11.825S200
G1 X2.521S0
G1 X15.09S200
G1 X4.992S0
G1 X10.031S200
G1 X2.5S0
G1 X0.079Y0.1
G1 X-2.5
G1 X-10.11S200
G1 X-5.068S0
G1 X-15.053S200
G1 X-2.437S0
G1 X-11.784S200
G1 X-3.842S0
G1 X-12.737S200
G1 X-3.737S0
G1 X-11.664S200
G1 X-4.094S0
G1 X-11.741S200
G1 X-4.306S0
G1 X-11.988S200
G1 X-3.842S0
G1 X-12.736S200
G1 X-3.737S0
G1 X-11.702S200
G1 X-4.195S0
G1 X-9.922S200
G1 X-1.884S0
G1 X-6.249S200
G1 X-2.5S0
G1 X-0.079Y0.1
G1 X2.5
G1 X6.29S200
G1 X1.889S0
G1 X10.001S200
G1 X4.196S0
G1 X11.571S200
G1 X3.746S0
G1 X12.876S200
G1 X3.863S0
G1 X11.902S200
G1 X4.306S0
G1 X11.838S200
G1 X4.087S0
G1 X11.49S200
G1 X3.746S0
G1 X12.877S200
G1 X3.863S0
G1 X11.742S200
G1 X2.354S0
G1 X15.016S200
G1 X5.144S0
G1 X10.19S200
G1 X2.5S0
G1 X0.079Y0.1
G1 X-2.5
G1 X-10.269S200
G1 X-5.221S0
G1 X-14.967S200
G1 X-2.282S0
G1 X-11.7S200
G1 X-3.884S0
G1 X-13.011S200
G1 X-3.757S0
G1 X-11.319S200
G1 X-4.093S0
G1 X-11.923S200
G1 X-4.306S0
G1 X-11.816S200
G1 X-3.884S0
G1 X-13.01S200
G1 X-3.758S0
G1 X-11.451S200
G1 X-4.201S0
G1 X-10.056S200
G1 X-1.906S0
G1 X-6.331S200
G1 X-2.5S0
G1 X-0.08Y0.1
G1 X2.5
G1 X6.373S200
G1 X1.925S0
G1 X10.11S200
G1 X4.204S0
G1 X11.34S200
G1 X3.767S0
G1 X13.139S200
G1 X3.895S0
G1 X11.74S200
G1 X4.306S0
G1 X12.006S200
G1 X4.097S0
G1 X11.159S200
G1 X3.766S0
G1 X13.14S200
G1 X3.895S0
G1 X11.658S200
G1 X2.22S0
G1 X14.919S200
G1 X5.297S0
G1 X10.349S200
G1 X2.5S0
G1 X0.08Y0.1
G1 X-2.5
G1 X-10.429S200
G1 X-5.373S0
G1 X-14.871S200
G1 X-2.159S0
G1 X-11.616S200
G1 X-3.905S0
G1 X-13.27S200
G1 X-3.775S0
G1 X-11.005S200
G1 X-4.094S0
G1 X-12.089S200
G1 X-4.306S0
G1 X-11.665S200
G1 X-3.905S0
G1 X-13.269S200
G1 X-3.776S0
G1 X-11.227S200
G1 X-4.208S0
G1 X-10.165S200
G1 X-1.939S0
G1 X-6.418S200
G1 X-2.5S0
G1 X-0.08Y0.1
G1 X2.5
G1 X6.472S200
G1 X1.949S0
G1 X10.215S200
G1 X4.212S0
G1 X11.116S200
G1 X3.785S0
G1 X13.393S200
G1 X3.92S0
G1 X11.59S200
G1 X4.306S0
G1 X12.173S200
G1 X4.091S0
G1 X10.85S200
G1 X3.785S0
G1 X13.394S200
G1 X3.92S0
G1 X11.574S200
G1 X2.097S0
G1 X14.823S200
G1 X5.45S0
G1 X10.508S200
G1 X2.5S0
G1 X0.08Y0.1
G1 X-2.5
G1 X-10.588S200
G1 X-5.526S0
G1 X-14.772S200
G1 X-2.039S0
G1 X-11.533S200
G1 X-3.939S0
G1 X-13.512S200
G1 X-3.795S0
G1 X-10.696S200
G1 X-4.1S0
G1 X-12.245S200
G1 X-4.306S0
G1 X-11.515S200
G1 X-3.94S0
G1 X-13.511S200
G1 X-3.796S0
G1 X-11.004S200
G1 X-4.215S0
G1 X-10.256S200
G1 X-1.969S0
G1 X-6.525S200
G1 X-2.5S0
G1 X-0.079Y0.1
G1 X2.5
G1 X6.579S200
G1 X1.987S0
G1 X10.296S200
G1 X4.213S0
G1 X10.9S200
G1 X3.814S0
G1 X13.622S200
G1 X3.958S0
G1 X11.441S200
G1 X4.306S0
G1 X12.316S200
G1 X4.11S0
G1 X10.541S200
G1 X3.814S0
G1 X13.623S200
G1 X3.958S0
G1 X11.483S200
G1 X1.996S0
G1 X14.714S200
G1 X5.602S0
G1 X10.667S200
G1 X2.5S0
G1 X0.08Y0.1
G1 X-2.5
G1 X-10.747S200
G1 X-5.679S0
G1 X-14.656S200
G1 X-1.954S0
G1 X-11.431S200
G1 X-3.977S0
G1 X-13.734S200
G1 X-3.832S0
G1 X-10.39S200
G1 X-4.116S0
G1 X-12.388S200
G1 X-4.306S0
G1 X-11.366S200
G1 X-3.977S0
G1 X-13.733S200
G1 X-3.833S0
G1 X-10.795S200
G1 X-4.218S0
G1 X-10.328S200
G1 X-2.007S0
G1 X-6.631S200
G1 X-2.5S0
G1 X-0.076Y0.1
G1 X2.5
G1 X6.681S200
G1 X2.033S0
G1 X10.353S200
G1 X4.223S0
G1 X10.691S200
G1 X3.852S0
G1 X13.844S200
G1 X3.996S0
G1 X11.291S200
G1 X4.306S0
G1 X12.459S200
G1 X4.117S0
G1 X10.244S200
G1 X3.852S0
G1 X13.844S200
G1 X3.996S0
G1 X11.379S200
G1 X1.912S0
G1 X14.599S200
G1 X5.755S0
G1 X10.823S200
G1 X2.5S0
G1 X0.076Y0.1
G1 X-2.5
G1 X-10.899S200
G1 X-5.831S0
G1 X-14.541S200
G1 X-1.872S0
G1 X-11.328S200
G1 X-4.014S0
G1 X-13.954S200
G1 X-3.865S0
G1 X-10.104S200
G1 X-4.124S0
G1 X-12.524S200
G1 X-4.306S0
G1 X-11.217S200
G1 X-4.015S0
G1 X-13.954S200
G1 X-3.865S0
G1 X-10.592S200
G1 X-4.229S0
G1 X-10.373S200
G1 X-2.064S0
G1 X-6.731S200
G1 X-2.5S0
G1 X-0.076Y0.1
G1 X2.5
G1 X6.786S200
G1 X2.09S0
G1 X10.393S200
G1 X4.234S0
G1 X10.498S200
G1 X3.877S0
G1 X14.06S200
G1 X4.025S0
G1 X11.153S200
G1 X4.306S0
G1 X12.585S200
G1 X4.134S0
G1 X9.969S200
G1 X3.876S0
G1 X14.061S200
G1 X4.025S0
G1 X11.281S200
G1 X1.836S0
G1 X14.481S200
G1 X5.908S0
G1 X10.975S200
G1 X2.5S0
G1 X0.076Y0.1
G1 X-2.5
G1 X-11.051S200
G1 X-5.984S0
G1 X-14.415S200
G1 X-1.814S0
G1 X-11.229S200
G1 X-4.042S0
G1 X-14.156S200
G1 X-3.894S0
G1 X-9.832S200
G1 X-4.145S0
G1 X-12.646S200
G1 X-4.306S0
G1 X-11.088S200
G1 X-4.042S0
G1 X-14.155S200
G1 X-3.894S0
G1 X-10.411S200
G1 X-4.232S0
G1 X-10.401S200
G1 X-2.122S0
G1 X-6.846S200
G1 X-2.5S0
G1 X-0.076Y0.1
G1 X2.5
G1 X6.907S200
G1 X2.155S0
G1 X10.408S200
G1 X4.231S0
G1 X10.322S200
G1 X3.912S0
G1 X14.249S200
G1 X4.06S0
G1 X11.023S200
G1 X4.306S0
G1 X12.708S200
G1 X4.155S0
G1 X9.696S200
G1 X3.911S0
G1 X14.25S200
G1 X4.06S0
G1 X11.177S200
G1 X1.79S0
G1 X14.35S200
G1 X6.06S0
G1 X11.127S200
G1 X2.5S0
G1 X0.076Y0.1
G1 X-2.5
G1 X-11.203S200
G1 X-6.137S0
G1 X-14.283S200
G1 X-1.767S0
G1 X-11.125S200
G1 X-4.077S0
G1 X-14.345S200
G1 X-3.928S0
G1 X-9.568S200
G1 X-4.159S0
G1 X-12.768S200
G1 X-4.306S0
G1 X-10.958S200
G1 X-4.077S0
G1 X-14.344S200
G1 X-3.929S0
G1 X-10.235S200
G1 X-4.235S0
G1 X-10.399S200
G1 X-2.198S0
G1 X-6.968S200
G1 X-2.5S0
G1 X-0.076Y0.1
G1 X2.5
G1 X7.029S200
G1 X2.249S0
G1 X10.38S200
G1 X4.241S0
G1 X10.147S200
G1 X3.947S0
G1 X14.439S200
G1 X4.094S0
G1 X10.893S200
G1 X4.306S0
G1 X12.82S200
G1 X4.17S0
G1 X9.44S200
G1 X3.946S0
G1 X14.44S200
G1 X4.094S0
G1 X11.073S200
G1 X1.743S0
G1 X14.218S200
G1 X6.213S0
G1 X11.279S200
G1 X2.5S0
G1 X0.076Y0.1
G1 X-2.5
G1 X-11.355S200
G1 X-6.289S0
G1 X-14.152S200
G1 X-1.728S0
G1 X-11.013S200
G1 X-4.111S0
G1 X-14.534S200
G1 X-3.964S0
G1 X-9.313S200
G1 X-4.18S0
G1 X-12.873S200
G1 X-4.306S0
G1 X-10.828S200
G1 X-4.111S0
G1 X-14.533S200
G1 X-3.965S0
G1 X-10.06S200
G1 X-4.248S0
G1 X-10.344S200
G1 X-2.315S0
G1 X-7.091S200
G1 X-2.5S0
G1 X-0.076Y0.1
G1 X2.5
G1 X7.152S200
G1 X2.393S0
G1 X1.679S200
G1 X1.182S0
G1 X7.437S200
G1 X4.248S0
G1 X9.979S200
G1 X3.989S0
G1 X14.621S200
G1 X4.128S0
G1 X10.763S200
G1 X4.306S0
G1 X12.925S200
G1 X4.192S0
G1 X9.185S200
G1 X3.988S0
G1 X14.622S200
G1 X4.128S0
G1 X10.952S200
G1 X1.719S0
G1 X14.08S200
G1 X6.366S0
G1 X11.431S200
G1 X2.5S0
G1 X0.076Y0.1
G1 X-2.5
G1 X-11.507S200
G1 X-6.442S0
G1 X-14.008S200
G1 X-1.71S0
G1 X-10.892S200
G1 X-4.149S0
G1 X-14.706S200
G1 X-4.011S0
G1 X-9.059S200
G1 X-4.202S0
G1 X-12.978S200
G1 X-4.306S0
G1 X-10.698S200
G1 X-4.149S0
G1 X-14.705S200
G1 X-4.012S0
G1 X-9.9S200
G1 X-4.247S0
G1 X-7.18S200
G1 X-1.826S0
G1 X-1.22S200
G1 X-2.495S0
G1 X-7.215S200
G1 X-2.5S0
G1 X-0.075Y0.1
G1 X2.5
G1 X7.286S200
G1 X2.634S0
G1 X0.728S200
G1 X2.375S0
G1 X7.005S200
G1 X4.246S0
G1 X9.828S200
G1 X4.027S0
G1 X14.787S200
G1 X4.165S0
G1 X10.641S200
G1 X4.306S0
G1 X13.027S200
G1 X4.213S0
G1 X8.943S200
G1 X4.026S0
G1 X14.788S200
G1 X4.165S0
G1 X10.839S200
G1 X1.703S0
G1 X13.935S200
G1 X6.518S0
G1 X11.583S200
G1 X2.5S0
G1 X0.076Y0.1
G1 X-2.5
G1 X-11.659S200
G1 X-6.595S0
G1 X-13.861S200
G1 X-1.697S0
G1 X-10.786S200
G1 X-4.18S0
G1 X-14.869S200
G1 X-4.042S0
G1 X-8.831S200
G1 X-4.224S0
G1 X-13.072S200
G1 X-4.306S0
G1 X-10.585S200
G1 X-4.18S0
G1 X-14.868S200
G1 X-4.043S0
G1 X-9.756S200
G1 X-4.246S0
G1 X-6.866S200
G1 X-5.897S0
G1 X-7.357S200
G1 X-2.5S0
G1 X-0.076Y0.1
G1 X2.5
G1 X7.428S200
G1 X6.037S0
G1 X6.74S200
G1 X4.254S0
G1 X9.683S200
G1 X4.059S0
G1 X14.949S200
G1 X4.196S0
G1 X10.528S200
G1 X4.306S0
G1 X13.116S200
G1 X4.235S0
G1 X8.72S200
G1 X4.058S0
G1 X14.95S200
G1 X4.196S0
G1 X10.729S200
G1 X1.694S0
G1 X13.788S200
G1 X6.671S0
G1 X11.735S200
G1 X2.5S0
G1 X0.076Y0.1
G1 X-2.5
G1 X-11.811S200
G1 X-6.747S0
G1 X-13.716S200
G1 X-1.69S0
G1 X-10.673S200
G1 X-4.211S0
G1 X-15.028S200
G1 X-4.077S0
G1 X-8.608S200
G1 X-4.246S0
G1 X-13.161S200
G1 X-4.306S0
G1 X-10.472S200
G1 X-4.211S0
G1 X-15.027S200
G1 X-4.078S0
G1 X-9.616S200
G1 X-4.255S0
G1 X-6.63S200
G1 X-6.162S0
G1 X-7.499S200
G1 X-2.5S0
G1 X-0.076Y0.1
G1 X2.5
G1 X7.571S200
G1 X6.269S0
G1 X6.536S200
G1 X4.256S0
G1 X9.549S200
G1 X4.101S0
G1 X15.102S200
G1 X4.226S0
G1 X10.416S200
G1 X4.306S0
G1 X13.206S200
G1 X4.256S0
G1 X8.496S200
G1 X4.1S0
G1 X15.103S200
G1 X4.226S0
G1 X10.617S200
G1 X1.69S0
G1 X13.639S200
G1 X5.03S0
G1 X0.064S200
G1 X1.73S0
G1 X11.887S200
G1 X2.5S0
G1 X0.076Y0.1
G1 X-2.5
G1 X-11.963S200
G1 X-1.73S0
G1 X-0.141S200
G1 X-5.029S0
G1 X-13.563S200
G1 X-1.69S0
G1 X-10.561S200
G1 X-4.24S0
G1 X-15.18S200
G1 X-4.121S0
G1 X-8.384S200
G1 X-4.27S0
G1 X-13.248S200
G1 X-4.306S0
G1 X-10.36S200
G1 X-4.24S0
G1 X-15.179S200
G1 X-4.122S0
G1 X-9.484S200
G1 X-4.255S0
G1 X-6.446S200
G1 X-6.374S0
G1 X-7.642S200
G1 X-2.5S0
G1 X-0.076Y0.1
G1 X2.5
G1 X7.713S200
G1 X6.461S0
G1 X6.373S200
G1 X4.256S0
G1 X9.418S200
G1 X4.144S0
G1 X15.252S200
G1 X4.258S0
G1 X10.303S200
G1 X4.306S0
G1 X13.286S200
G1 X4.282S0
G1 X8.278S200
G1 X4.143S0
G1 X15.253S200
G1 X4.258S0
G1 X10.504S200
G1 X1.69S0
G1 X13.486S200
G1 X5.03S0
G1 X0.217S200
G1 X1.73S0
G1 X12.039S200
G1 X2.5S0
G1 X0.076Y0.1
G1 X-2.5
G1 X-12.115S200
G1 X-1.73S0
G1 X-0.294S200
G1 X-5.029S0
G1 X-13.41S200
G1 X-1.69S0
G1 X-10.448S200
G1 X-4.279S0
G1 X-15.323S200
G1 X-4.164S0
G1 X-8.174S200
G1 X-4.293S0
G1 X-13.323S200
G1 X-4.306S0
G1 X-10.247S200
G1 X-4.279S0
G1 X-15.322S200
G1 X-4.165S0
G1 X-9.353S200
G1 X-4.255S0
G1 X-6.301S200
G1 X-6.541S0
G1 X-7.789S200
G1 X-2.5S0
G1 X-0.073Y0.1
G1 X2.5
G1 X7.865S200
G1 X6.606S0
G1 X6.242S200
G1 X4.254S0
G1 X9.292S200
G1 X4.184S0
G1 X15.391S200
G1 X4.299S0
G1 X10.192S200
G1 X4.306S0
G1 X13.36S200
G1 X4.305S0
G1 X8.072S200
G1 X4.183S0
G1 X15.392S200
G1 X4.299S0
G1 X10.393S200
G1 X1.69S0
G1 X13.334S200
G1 X5.028S0
G1 X0.371S200
G1 X1.73S0
G1 X12.188S200
G1 X2.5S0
G1 X0.072Y0.1
G1 X-2.5
G1 X-12.26S200
G1 X-1.73S0
G1 X-0.448S200
G1 X-5.028S0
G1 X-13.257S200
G1 X-1.69S0
G1 X-10.345S200
G1 X-4.312S0
G1 X-15.458S200
G1 X-4.2S0
G1 X-7.976S200
G1 X-4.316S0
G1 X-13.397S200
G1 X-4.306S0
G1 X-10.144S200
G1 X-4.312S0
G1 X-15.457S200
G1 X-4.201S0
G1 X-9.241S200
G1 X-4.253S0
G1 X-6.178S200
G1 X-6.671S0
G1 X-7.94S200
G1 X-2.5S0
G1 X-0.073Y0.1
G1 X2.5
G1 X8.017S200
G1 X6.724S0
G1 X6.124S200
G1 X4.253S0
G1 X9.191S200
G1 X4.219S0
G1 X15.521S200
G1 X4.325S0
G1 X10.096S200
G1 X4.306S0
G1 X13.434S200
G1 X4.327S0
G1 X7.88S200
G1 X4.219S0
G1 X15.522S200
G1 X4.325S0
G1 X10.297S200
G1 X1.69S0
G1 X13.181S200
G1 X5.028S0
G1 X0.524S200
G1 X1.73S0
G1 X12.333S200
G1 X2.5S0
G1 X0.072Y0.1
G1 X-2.5
G1 X-12.405S200
G1 X-1.73S0
G1 X-0.601S200
G1 X-5.027S0
G1 X-13.105S200
G1 X-1.69S0
G1 X-10.249S200
G1 X-4.338S0
G1 X-15.586S200
G1 X-4.237S0
G1 X-7.785S200
G1 X-4.337S0
G1 X-13.472S200
G1 X-4.306S0
G1 X-10.048S200
G1 X-4.338S0
G1 X-15.585S200
G1 X-4.238S0
G1 X-9.14S200
G1 X-4.253S0
G1 X-6.073S200
G1 X-6.775S0
G1 X-8.092S200
G1 X-2.5S0
G1 X-0.073Y0.1
G1 X2.5
G1 X8.17S200
G1 X6.819S0
G1 X6.027S200
G1 X4.253S0
G1 X9.089S200
G1 X4.256S0
G1 X15.65S200
G1 X4.352S0
G1 X9.999S200
G1 X4.306S0
G1 X13.509S200
G1 X4.343S0
G1 X7.694S200
G1 X4.255S0
G1 X15.651S200
G1 X4.352S0
G1 X10.2S200
G1 X1.69S0
G1 X13.028S200
G1 X5.027S0
G1 X0.678S200
G1 X1.73S0
G1 X12.478S200
G1 X2.5S0
G1 X0.073Y0.1
G1 X-2.5
G1 X-12.551S200
G1 X-1.73S0
G1 X-0.755S200
G1 X-5.026S0
G1 X-12.952S200
G1 X-1.69S0
G1 X-10.152S200
G1 X-4.366S0
G1 X-15.714S200
G1 X-4.274S0
G1 X-7.605S200
G1 X-4.353S0
G1 X-13.54S200
G1 X-4.306S0
G1 X-9.951S200
G1 X-4.366S0
G1 X-15.713S200
G1 X-4.275S0
G1 X-9.038S200
G1 X-4.253S0
G1 X-5.988S200
G1 X-6.85S0
G1 X-8.253S200
G1 X-2.5S0
G1 X-0.073Y0.1
G1 X2.5
G1 X8.336S200
G1 X6.882S0
G1 X5.949S200
G1 X4.251S0
G1 X8.989S200
G1 X4.294S0
G1 X15.775S200
G1 X4.381S0
G1 X9.903S200
G1 X4.306S0
G1 X13.57S200
G1 X4.365S0
G1 X7.515S200
G1 X4.293S0
G1 X15.776S200
G1 X4.381S0
G1 X10.104S200
G1 X1.69S0
G1 X12.876S200
G1 X5.026S0
G1 X0.831S200
G1 X1.73S0
G1 X12.623S200
G1 X2.5S0
G1 X0.073Y0.1
G1 X-2.5
G1 X-12.696S200
G1 X-1.73S0
G1 X-0.908S200
G1 X-5.026S0
G1 X-12.799S200
G1 X-1.69S0
G1 X-10.056S200
G1 X-4.401S0
G1 X-15.832S200
G1 X-4.312S0
G1 X-7.427S200
G1 X-4.377S0
G1 X-13.599S200
G1 X-4.306S0
G1 X-9.855S200
G1 X-4.401S0
G1 X-15.831S200
G1 X-4.313S0
G1 X-8.942S200
G1 X-4.248S0
G1 X-5.921S200
G1 X-6.903S0
G1 X-8.418S200
G1 X-2.5S0
G1 X-0.072Y0.1
G1 X2.5
G1 X8.501S200
G1 X6.923S0
G1 X5.892S200
G1 X4.246S0
G1 X8.894S200
G1 X4.337S0
G1 X15.883S200
G1 X4.422S0
G1 X9.806S200
G1 X4.306S0
G1 X13.629S200
G1 X4.389S0
G1 X7.337S200
G1 X4.336S0
G1 X15.884S200
G1 X4.422S0
G1 X10.007S200
G1 X1.69S0
G1 X12.723S200
G1 X5.025S0
G1 X0.985S200
G1 X1.73S0
G1 X12.768S200
G1 X2.5S0
G1 X0.073Y0.1
G1 X-2.5
G1 X-12.841S200
G1 X-1.73S0
G1 X-1.062S200
G1 X-5.024S0
G1 X-12.647S200
G1 X-1.69S0
G1 X-9.96S200
G1 X-4.441S0
G1 X-15.937S200
G1 X-4.358S0
G1 X-7.249S200
G1 X-4.401S0
G1 X-13.658S200
G1 X-4.306S0
G1 X-9.759S200
G1 X-4.441S0
G1 X-15.936S200
G1 X-4.359S0
G1 X-8.847S200
G1 X-4.246S0
G1 X-5.866S200
G1 X-6.938S0
G1 X-8.585S200
G1 X-2.5S0
G1 X-0.072Y0.1
G1 X2.5
G1 X8.675S200
G1 X6.942S0
G1 X5.844S200
G1 X4.246S0
G1 X8.807S200
G1 X4.374S0
G1 X15.989S200
G1 X4.454S0
G1 X9.718S200
G1 X4.306S0
G1 X13.688S200
G1 X4.408S0
G1 X7.172S200
G1 X4.373S0
G1 X15.99S200
G1 X4.454S0
G1 X9.919S200
G1 X1.69S0
G1 X12.57S200
G1 X5.025S0
G1 X1.138S200
G1 X1.73S0
G1 X12.914S200
G1 X2.5S0
G1 X0.072Y0.1
G1 X-2.5
G1 X-12.986S200
G1 X-1.73S0
G1 X-1.215S200
G1 X-5.024S0
G1 X-12.494S200
G1 X-1.69S0
G1 X-9.879S200
G1 X-4.466S0
G1 X-16.043S200
G1 X-4.389S0
G1 X-7.095S200
G1 X-4.414S0
G1 X-13.718S200
G1 X-4.306S0
G1 X-9.678S200
G1 X-4.466S0
G1 X-16.042S200
G1 X-4.39S0
G1 X-8.766S200
G1 X-4.246S0
G1 X-5.823S200
G1 X-6.945S0
G1 X-8.766S200
G1 X-2.5S0
G1 X-0.072Y0.1
G1 X2.5
G1 X8.856S200
G1 X6.94S0
G1 X5.81S200
G1 X4.246S0
G1 X8.726S200
G1 X4.406S0
G1 X16.094S200
G1 X4.479S0
G1 X9.637S200
G1 X4.306S0
G1 X13.747S200
G1 X4.421S0
G1 X7.019S200
G1 X4.405S0
G1 X16.095S200
G1 X4.479S0
G1 X9.838S200
G1 X1.69S0
G1 X12.418S200
G1 X5.023S0
G1 X1.292S200
G1 X1.73S0
G1 X13.059S200
G1 X2.5S0
G1 X0.072Y0.1
G1 X-2.5
G1 X-13.131S200
G1 X-1.73S0
G1 X-1.369S200
G1 X-5.023S0
G1 X-12.341S200
G1 X-1.69S0
G1 X-9.798S200
G1 X-4.49S0
G1 X-16.149S200
G1 X-4.42S0
G1 X-6.943S200
G1 X-4.431S0
G1 X-13.773S200
G1 X-4.306S0
G1 X-9.597S200
G1 X-4.491S0
G1 X-16.147S200
G1 X-4.421S0
G1 X-8.686S200
G1 X-4.246S0
G1 X-5.797S200
G1 X-6.935S0
G1 X-8.947S200
G1 X-2.5S0
G1 X-0.072Y0.1
G1 X2.5
G1 X9.039S200
G1 X6.926S0
G1 X5.786S200
G1 X4.246S0
G1 X8.645S200
G1 X4.44S0
G1 X16.198S200
G1 X4.503S0
G1 X9.556S200
G1 X4.306S0
G1 X13.796S200
G1 X4.444S0
G1 X6.866S200
G1 X4.439S0
G1 X16.199S200
G1 X4.503S0
G1 X9.757S200
G1 X1.69S0
G1 X12.265S200
G1 X5.022S0
G1 X1.446S200
G1 X1.73S0
G1 X13.204S200
G1 X2.5S0
G1 X0.073Y0.1
G1 X-2.5
G1 X-13.277S200
G1 X-1.73S0
G1 X-1.522S200
G1 X-5.022S0
G1 X-12.189S200
G1 X-1.69S0
G1 X-9.716S200
G1 X-4.522S0
G1 X-16.241S200
G1 X-4.459S0
G1 X-6.791S200
G1 X-4.456S0
G1 X-13.819S200
G1 X-4.306S0
G1 X-9.515S200
G1 X-4.522S0
G1 X-16.24S200
G1 X-4.46S0
G1 X-8.605S200
G1 X-4.246S0
G1 X-5.782S200
G1 X-6.903S0
G1 X-9.139S200
G1 X-2.5S0
G1 X-0.072Y0.1
G1 X2.5
G1 X9.238S200
G1 X6.88S0
G1 X5.778S200
G1 X4.246S0
G1 X8.565S200
G1 X4.479S0
G1 X16.283S200
G1 X4.54S0
G1 X9.475S200
G1 X4.306S0
G1 X13.842S200
G1 X4.469S0
G1 X6.714S200
G1 X4.479S0
G1 X16.284S200
G1 X4.54S0
G1 X9.676S200
G1 X1.69S0
G1 X12.112S200
G1 X5.022S0
G1 X1.599S200
G1 X1.73S0
G1 X13.349S200
G1 X2.5S0
G1 X0.073Y0.1
G1 X-2.5
G1 X-13.422S200
G1 X-1.73S0
G1 X-1.676S200
G1 X-5.021S0
G1 X-12.036S200
G1 X-1.69S0
G1 X-9.635S200
G1 X-4.558S0
G1 X-16.328S200
G1 X-4.498S0
G1 X-6.638S200
G1 X-4.482S0
G1 X-13.865S200
G1 X-4.306S0
G1 X-9.434S200
G1 X-4.558S0
G1 X-16.327S200
G1 X-4.499S0
G1 X-8.524S200
G1 X-4.246S0
G1 X-5.777S200
G1 X-6.854S0
G1 X-9.338S200
G1 X-2.5S0
G1 X-0.069Y0.1
G1 X2.5
G1 X9.434S200
G1 X6.823S0
G1 X5.781S200
G1 X4.246S0
G1 X8.484S200
G1 X4.519S0
G1 X16.369S200
G1 X4.576S0
G1 X9.394S200
G1 X4.306S0
G1 X13.888S200
G1 X4.491S0
G1 X6.566S200
G1 X4.518S0
G1 X16.37S200
G1 X4.576S0
G1 X9.595S200
G1 X1.69S0
G1 X11.96S200
G1 X5.02S0
G1 X1.753S200
G1 X1.73S0
G1 X13.492S200
G1 X2.5S0
G1 X0.069Y0.1
G1 X-2.5
G1 X-13.561S200
G1 X-1.73S0
G1 X-1.829S200
G1 X-5.021S0
G1 X-11.883S200
G1 X-1.69S0
G1 X-9.559S200
G1 X-4.59S0
G1 X-16.413S200
G1 X-4.533S0
G1 X-6.5S200
G1 X-4.498S0
G1 X-13.911S200
G1 X-4.306S0
G1 X-9.358S200
G1 X-4.59S0
G1 X-16.412S200
G1 X-4.534S0
G1 X-8.448S200
G1 X-4.246S0
G1 X-5.785S200
G1 X-6.786S0
G1 X-9.536S200
G1 X-2.5S0
G1 X-0.07Y0.1
G1 X2.5
G1 X9.643S200
G1 X6.744S0
G1 X5.79S200
G1 X4.246S0
G1 X8.415S200
G1 X4.547S0
G1 X16.454S200
G1 X4.601S0
G1 X9.325S200
G1 X4.306S0
G1 X13.934S200
G1 X4.505S0
G1 X6.436S200
G1 X4.547S0
G1 X16.455S200
G1 X4.601S0
G1 X9.526S200
G1 X1.69S0
G1 X11.807S200
G1 X5.02S0
G1 X1.906S200
G1 X1.73S0
G1 X13.63S200
G1 X2.5S0
G1 X0.069Y0.1
G1 X-2.5
G1 X-13.699S200
G1 X-1.73S0
G1 X-1.983S200
G1 X-5.019S0
G1 X-11.731S200
G1 X-1.69S0
G1 X-9.493S200
G1 X-4.611S0
G1 X-16.497S200
G1 X-4.561S0
G1 X-6.372S200
G1 X-4.512S0
G1 X-13.958S200
G1 X-4.306S0
G1 X-9.292S200
G1 X-4.612S0
G1 X-16.495S200
G1 X-4.562S0
G1 X-8.381S200
G1 X-4.246S0
G1 X-5.803S200
G1 X-6.694S0
G1 X-9.749S200
G1 X-2.5S0
G1 X-0.069Y0.1
G1 X2.5
G1 X9.855S200
G1 X6.644S0
G1 X5.816S200
G1 X4.246S0
G1 X8.348S200
G1 X4.578S0
G1 X16.535S200
G1 X4.623S0
G1 X9.258S200
G1 X4.306S0
G1 X13.977S200
G1 X4.523S0
G1 X6.309S200
G1 X4.577S0
G1 X16.536S200
G1 X4.623S0
G1 X9.459S200
G1 X1.69S0
G1 X11.654S200
G1 X5.019S0
G1 X2.06S200
G1 X1.73S0
G1 X13.769S200
G1 X2.5S0
G1 X0.069Y0.1
G1 X-2.5
G1 X-13.838S200
G1 X-1.73S0
G1 X-2.136S200
G1 X-5.019S0
G1 X-11.578S200
G1 X-1.69S0
G1 X-9.426S200
G1 X-4.634S0
G1 X-16.575S200
G1 X-4.593S0
G1 X-6.246S200
G1 X-4.536S0
G1 X-13.994S200
G1 X-4.306S0
G1 X-9.225S200
G1 X-4.634S0
G1 X-16.574S200
G1 X-4.594S0
G1 X-8.315S200
G1 X-4.246S0
G1 X-5.829S200
G1 X-6.592S0
G1 X-9.963S200
G1 X-2.5S0
G1 X-0.069Y0.1
G1 X2.5
G1 X10.08S200
G1 X6.522S0
G1 X5.851S200
G1 X4.246S0
G1 X8.282S200
G1 X4.61S0
G1 X16.608S200
G1 X4.651S0
G1 X9.191S200
G1 X4.306S0
G1 X14.012S200
G1 X4.548S0
G1 X6.182S200
G1 X4.61S0
G1 X16.609S200
G1 X4.651S0
G1 X9.392S200
G1 X1.69S0
G1 X11.502S200
G1 X5.018S0
G1 X2.213S200
G1 X1.73S0
G1 X13.907S200
G1 X2.5S0
G1 X0.07Y0.1
G1 X-2.5
G1 X-13.977S200
G1 X-1.73S0
G1 X-2.29S200
G1 X-5.018S0
G1 X-11.425S200
G1 X-1.69S0
G1 X-9.359S200
G1 X-4.667S0
G1 X-16.643S200
G1 X-4.626S0
G1 X-6.119S200
G1 X-4.561S0
G1 X-14.029S200
G1 X-4.306S0
G1 X-9.158S200
G1 X-4.667S0
G1 X-16.642S200
G1 X-4.627S0
G1 X-8.248S200
G1 X-4.246S0
G1 X-5.874S200
G1 X-6.451S0
G1 X-10.198S200
G1 X-2.5S0
G1 X-0.069Y0.1
G1 X2.5
G1 X10.316S200
G1 X6.379S0
G1 X5.897S200
G1 X4.246S0
G1 X8.215S200
G1 X4.643S0
G1 X16.677S200
G1 X4.683S0
G1 X9.124S200
G1 X4.306S0
G1 X14.047S200
G1 X4.572S0
G1 X6.057S200
G1 X4.642S0
G1 X16.678S200
G1 X4.682S0
G1 X9.326S200
G1 X1.69S0
G1 X11.349S200
G1 X5.017S0
G1 X2.367S200
G1 X1.73S0
G1 X14.046S200
G1 X2.5S0
G1 X0.069Y0.1
G1 X-2.5
G1 X-14.115S200
G1 X-1.73S0
G1 X-2.443S200
G1 X-5.017S0
G1 X-11.273S200
G1 X-1.69S0
G1 X-9.292S200
G1 X-4.699S0
G1 X-16.711S200
G1 X-4.66S0
G1 X-5.998S200
G1 X-4.58S0
G1 X-14.064S200
G1 X-4.306S0
G1 X-9.091S200
G1 X-4.699S0
G1 X-16.711S200
G1 X-4.659S0
G1 X-8.182S200
G1 X-4.246S0
G1 X-5.93S200
G1 X-6.297S0
G1 X-10.434S200
G1 X-2.5S0
G1 X-0.069Y0.1
G1 X2.5
G1 X10.565S200
G1 X6.201S0
G1 X5.964S200
G1 X4.246S0
G1 X8.148S200
G1 X4.677S0
G1 X16.744S200
G1 X4.714S0
G1 X9.059S200
G1 X4.306S0
G1 X14.082S200
G1 X4.586S0
G1 X5.941S200
G1 X4.676S0
G1 X16.745S200
G1 X4.714S0
G1 X9.26S200
G1 X1.69S0
G1 X11.196S200
G1 X5.017S0
G1 X2.52S200
G1 X1.73S0
G1 X14.184S200
G1 X2.5S0
G1 X0.07Y0.1
G1 X-2.5
G1 X-14.254S200
G1 X-1.73S0
G1 X-2.597S200
G1 X-5.016S0
G1 X-11.12S200
G1 X-1.69S0
G1 X-9.233S200
G1 X-4.724S0
G1 X-16.776S200
G1 X-4.69S0
G1 X-5.888S200
G1 X-4.594S0
G1 X-14.099S200
G1 X-4.306S0
G1 X-9.032S200
G1 X-4.724S0
G1 X-16.775S200
G1 X-4.69S0
G1 X-8.121S200
G1 X-4.246S0
G1 X-5.998S200
G1 X-6.106S0
G1 X-10.695S200
G1 X-2.5S0
G1 X-0.07Y0.1
G1 X2.5
G1 X10.826S200
G1 X5.999S0
G1 X6.044S200
G1 X4.246S0
G1 X8.094S200
G1 X4.704S0
G1 X16.805S200
G1 X4.734S0
G1 X9.005S200
G1 X4.306S0
G1 X14.117S200
G1 X4.601S0
G1 X5.837S200
G1 X4.703S0
G1 X16.806S200
G1 X4.734S0
G1 X9.206S200
G1 X1.69S0
G1 X11.043S200
G1 X5.016S0
G1 X2.674S200
G1 X1.73S0
G1 X14.323S200
G1 X2.5S0
G1 X0.069Y0.1
G1 X-2.5
G1 X-14.392S200
G1 X-1.73S0
G1 X-2.751S200
G1 X-5.015S0
G1 X-10.967S200
G1 X-1.69S0
G1 X-9.18S200
G1 X-4.743S0
G1 X-16.837S200
G1 X-4.716S0
G1 X-5.785S200
G1 X-4.61S0
G1 X-14.133S200
G1 X-4.306S0
G1 X-8.979S200
G1 X-4.743S0
G1 X-16.836S200
G1 X-4.716S0
G1 X-8.068S200
G1 X-4.246S0
G1 X-6.09S200
G1 X-5.886S0
G1 X-10.962S200
G1 X-2.5S0
G1 X-0.069Y0.1
G1 X2.5
G1 X11.107S200
G1 X5.759S0
G1 X6.141S200
G1 X4.246S0
G1 X8.041S200
G1 X4.729S0
G1 X16.867S200
G1 X4.753S0
G1 X8.952S200
G1 X4.306S0
G1 X14.146S200
G1 X4.621S0
G1 X5.735S200
G1 X4.728S0
G1 X16.868S200
G1 X4.753S0
G1 X9.153S200
G1 X1.69S0
G1 X10.891S200
G1 X5.015S0
G1 X2.827S200
G1 X1.73S0
G1 X14.461S200
G1 X2.5S0
G1 X0.07Y0.1
G1 X-2.5
G1 X-14.531S200
G1 X-1.73S0
G1 X-2.904S200
G1 X-5.015S0
G1 X-10.814S200
G1 X-1.69S0
G1 X-9.127S200
G1 X-4.763S0
G1 X-16.897S200
G1 X-4.742S0
G1 X-5.683S200
G1 X-4.633S0
G1 X-14.159S200
G1 X-4.306S0
G1 X-8.926S200
G1 X-4.763S0
G1 X-16.896S200
G1 X-4.742S0
G1 X-8.015S200
G1 X-4.246S0
G1 X-6.201S200
G1 X-5.622S0
G1 X-11.253S200
G1 X-2.5S0
G1 X-0.069Y0.1
G1 X2.5
G1 X11.398S200
G1 X5.486S0
G1 X6.261S200
G1 X4.246S0
G1 X7.988S200
G1 X4.755S0
G1 X16.922S200
G1 X4.778S0
G1 X8.899S200
G1 X4.306S0
G1 X14.172S200
G1 X4.645S0
G1 X5.632S200
G1 X4.754S0
G1 X16.923S200
G1 X4.778S0
G1 X9.1S200
G1 X1.69S0
G1 X10.738S200
G1 X5.014S0
G1 X2.981S200
G1 X1.73S0
G1 X14.6S200
G1 X2.5S0
G1 X0.069Y0.1
G1 X-2.5
G1 X-14.669S200
G1 X-1.73S0
G1 X-3.058S200
G1 X-5.013S0
G1 X-10.662S200
G1 X-1.69S0
G1 X-9.073S200
G1 X-4.792S0
G1 X-16.949S200
G1 X-4.768S0
G1 X-5.583S200
G1 X-4.655S0
G1 X-14.184S200
G1 X-4.306S0
G1 X-8.872S200
G1 X-4.792S0
G1 X-16.949S200
G1 X-4.768S0
G1 X-7.961S200
G1 X-4.246S0
G1 X-6.333S200
G1 X-5.324S0
G1 X-11.558S200
G1 X-2.5S0
G1 X-0.068Y0.1
G1 X2.5
G1 X11.719S200
G1 X5.156S0
G1 X6.408S200
G1 X4.246S0
G1 X7.935S200
G1 X4.782S0
G1 X16.973S200
G1 X4.806S0
G1 X8.846S200
G1 X4.306S0
G1 X14.197S200
G1 X4.662S0
G1 X5.536S200
G1 X4.782S0
G1 X16.974S200
G1 X4.806S0
G1 X9.047S200
G1 X1.69S0
G1 X10.585S200
G1 X5.014S0
G1 X3.134S200
G1 X1.73S0
G1 X14.738S200
G1 X2.5S0
G1 X0.066Y0.1
G1 X-2.5
G1 X-14.804S200
G1 X-1.73S0
G1 X-3.211S200
G1 X-5.013S0
G1 X-10.509S200
G1 X-1.69S0
G1 X-9.02S200
G1 X-4.82S0
G1 X-16.998S200
G1 X-4.797S0
G1 X-5.491S200
G1 X-4.668S0
G1 X-14.21S200
G1 X-4.306S0
G1 X-8.819S200
G1 X-4.82S0
G1 X-16.997S200
G1 X-4.798S0
G1 X-7.908S200
G1 X-4.246S0
G1 X-6.49S200
G1 X-4.98S0
G1 X-11.88S200
G1 X-2.5S0
G1 X-0.066Y0.1
G1 X2.5
G1 X12.052S200
G1 X4.781S0
G1 X6.583S200
G1 X4.246S0
G1 X7.882S200
G1 X4.813S0
G1 X17.02S200
G1 X4.833S0
G1 X8.794S200
G1 X4.306S0
G1 X14.222S200
G1 X4.676S0
G1 X5.444S200
G1 X4.813S0
G1 X17.021S200
G1 X4.833S0
G1 X8.995S200
G1 X1.69S0
G1 X10.433S200
G1 X5.012S0
G1 X3.288S200
G1 X1.73S0
G1 X14.87S200
G1 X2.5S0
G1 X0.066Y0.1
G1 X-2.5
G1 X-14.936S200
G1 X-1.73S0
G1 X-3.365S200
G1 X-5.012S0
G1 X-10.356S200
G1 X-1.69S0
G1 X-8.975S200
G1 X-4.84S0
G1 X-17.044S200
G1 X-4.824S0
G1 X-5.403S200
G1 X-4.683S0
G1 X-14.235S200
G1 X-4.306S0
G1 X-8.774S200
G1 X-4.84S0
G1 X-17.043S200
G1 X-4.824S0
G1 X-7.861S200
G1 X-4.246S0
G1 X-6.679S200
G1 X-4.571S0
G1 X-12.232S200
G1 X-2.5S0
G1 X-0.066Y0.1
G1 X2.5
G1 X12.411S200
G1 X4.348S0
G1 X6.789S200
G1 X4.246S0
G1 X7.84S200
G1 X4.834S0
G1 X17.066S200
G1 X4.848S0
G1 X8.754S200
G1 X4.306S0
G1 X14.248S200
G1 X4.689S0
G1 X5.364S200
G1 X4.833S0
G1 X17.067S200
G1 X4.848S0
G1 X8.955S200
G1 X1.69S0
G1 X10.28S200
G1 X5.012S0
G1 X3.441S200
G1 X1.73S0
G1 X15.002S200
G1 X2.5S0
G1 X0.066Y0.1
G1 X-2.5
G1 X-15.068S200
G1 X-1.73S0
G1 X-3.518S200
G1 X-5.011S0
G1 X-10.204S200
G1 X-1.69S0
G1 X-8.935S200
G1 X-4.855S0
G1 X-17.091S200
G1 X-4.842S0
G1 X-5.324S200
G1 X-4.696S0
G1 X-14.261S200
G1 X-4.306S0
G1 X-8.734S200
G1 X-4.855S0
G1 X-17.09S200
G1 X-4.843S0
G1 X-7.82S200
G1 X-4.246S0
G1 X-6.901S200
G1 X-4.097S0
G1 X-12.617S200
G1 X-2.5S0
G1 X-0.066Y0.1
G1 X2.5
G1 X12.824S200
G1 X3.82S0
G1 X7.037S200
G1 X4.246S0
G1 X7.8S200
G1 X4.853S0
G1 X17.112S200
G1 X4.863S0
G1 X8.714S200
G1 X4.306S0
G1 X14.269S200
G1 X4.707S0
G1 X5.285S200
G1 X4.852S0
G1 X17.113S200
G1 X4.863S0
G1 X8.915S200
G1 X1.69S0
G1 X10.127S200
G1 X5.011S0
G1 X3.595S200
G1 X1.73S0
G1 X15.134S200
G1 X2.5S0
G1 X0.066Y0.1
G1 X-2.5
G1 X-15.2S200
G1 X-1.73S0
G1 X-3.672S200
G1 X-5.01S0
G1 X-10.051S200
G1 X-1.69S0
G1 X-8.895S200
G1 X-4.871S0
G1 X-17.136S200
G1 X-4.862S0
G1 X-5.244S200
G1 X-4.718S0
G1 X-14.278S200
G1 X-4.306S0
G1 X-8.694S200
G1 X-4.871S0
G1 X-17.135S200
G1 X-4.862S0
G1 X-7.78S200
G1 X-4.246S0
G1 X-7.183S200
G1 X-3.509S0
G1 X-13.055S200
G1 X-2.5S0
G1 X-0.067Y0.1
G1 X2.5
G1 X13.303S200
G1 X3.158S0
G1 X7.353S200
G1 X4.246S0
G1 X7.76S200
G1 X4.872S0
G1 X17.154S200
G1 X4.883S0
G1 X8.673S200
G1 X4.306S0
G1 X14.286S200
G1 X4.727S0
G1 X5.207S200
G1 X4.872S0
G1 X17.155S200
G1 X4.883S0
G1 X8.874S200
G1 X1.69S0
G1 X9.975S200
G1 X5.009S0
G1 X3.749S200
G1 X1.73S0
G1 X15.266S200
G1 X2.5S0
G1 X0.066Y0.1
G1 X-2.5
G1 X-15.332S200
G1 X-1.73S0
G1 X-3.825S200
G1 X-5.01S0
G1 X-9.898S200
G1 X-1.69S0
G1 X-8.854S200
G1 X-4.895S0
G1 X-17.171S200
G1 X-4.884S0
G1 X-5.172S200
G1 X-4.733S0
G1 X-14.295S200
G1 X-4.306S0
G1 X-8.653S200
G1 X-4.895S0
G1 X-17.17S200
G1 X-4.884S0
G1 X-7.74S200
G1 X-4.246S0
G1 X-7.562S200
G1 X-2.724S0
G1 X-13.594S200
G1 X-2.5S0
G1 X-0.066Y0.1
G1 X2.5
G1 X13.928S200
G1 X2.194S0
G1 X7.824S200
G1 X4.246S0
G1 X7.719S200
G1 X4.897S0
G1 X17.187S200
G1 X4.906S0
G1 X8.633S200
G1 X4.306S0
G1 X14.303S200
G1 X4.74S0
G1 X5.137S200
G1 X4.896S0
G1 X17.188S200
G1 X4.906S0
G1 X8.834S200
G1 X1.69S0
G1 X9.822S200
G1 X5.009S0
G1 X3.902S200
G1 X1.73S0
G1 X15.398S200
G1 X2.5S0
G1 X0.066Y0.1
G1 X-2.5
G1 X-15.464S200
G1 X-1.73S0
G1 X-3.979S200
G1 X-5.008S0
G1 X-9.746S200
G1 X-1.69S0
G1 X-8.814S200
G1 X-4.918S0
G1 X-17.204S200
G1 X-4.908S0
G1 X-5.102S200
G1 X-4.746S0
G1 X-14.312S200
G1 X-4.306S0
G1 X-8.613S200
G1 X-4.918S0
G1 X-17.203S200
G1 X-4.909S0
G1 X-7.699S200
G1 X-4.246S0
G1 X-8.202S200
G1 X-1.418S0
G1 X-14.393S200
G1 X-2.5S0
G1 X-0.066Y0.1
G1 X2.5
G1 X24.079S200
G1 X4.246S0
G1 X7.679S200
G1 X4.921S0
G1 X17.219S200
G1 X4.93S0
G1 X8.593S200
G1 X4.306S0
G1 X14.32S200
G1 X4.753S0
G1 X5.066S200
G1 X4.921S0
G1 X17.22S200
G1 X4.93S0
G1 X8.794S200
G1 X1.69S0
G1 X9.669S200
G1 X5.008S0
G1 X4.056S200
G1 X1.73S0
G1 X15.53S200
G1 X2.5S0
G1 X0.066Y0.1
G1 X-2.5
G1 X-15.596S200
G1 X-1.73S0
G1 X-4.132S200
G1 X-5.008S0
G1 X-9.593S200
G1 X-1.69S0
G1 X-8.78S200
G1 X-4.935S0
G1 X-17.237S200
G1 X-4.929S0
G1 X-5.036S200
G1 X-4.758S0
G1 X-14.329S200
G1 X-4.306S0
G1 X-8.579S200
G1 X-4.935S0
G1 X-17.236S200
G1 X-4.93S0
G1 X-7.662S200
G1 X-4.246S0
G1 X-24.145S200
G1 X-2.5S0
G1 X-0.067Y0.1
G1 X2.5
G1 X24.212S200
G1 X4.246S0
G1 X7.648S200
G1 X4.936S0
G1 X17.252S200
G1 X4.941S0
G1 X8.565S200
G1 X4.306S0
G1 X14.337S200
G1 X4.765S0
G1 X5.007S200
G1 X4.935S0
G1 X17.253S200
G1 X4.941S0
G1 X8.766S200
G1 X1.69S0
G1 X9.517S200
G1 X5.007S0
G1 X4.209S200
G1 X1.73S0
G1 X15.662S200
G1 X2.5S0
G1 X0.066Y0.1
G1 X-2.5
G1 X-15.728S200
G1 X-1.73S0
G1 X-4.286S200
G1 X-5.007S0
G1 X-9.44S200
G1 X-1.69S0
G1 X-8.752S200
G1 X-4.946S0
G1 X-17.27S200
G1 X-4.941S0
G1 X-4.978S200
G1 X-4.771S0
G1 X-14.346S200
G1 X-4.306S0
G1 X-8.551S200
G1 X-4.946S0
G1 X-17.269S200
G1 X-4.942S0
G1 X-7.634S200
G1 X-4.246S0
G1 X-24.278S200
G1 X-2.5S0
G1 X-0.066Y0.1
G1 X2.5
G1 X24.344S200
G1 X4.246S0
G1 X7.62S200
G1 X4.948S0
G1 X17.285S200
G1 X4.952S0
G1 X8.537S200
G1 X4.306S0
G1 X14.354S200
G1 X4.778S0
G1 X4.948S200
G1 X4.948S0
G1 X17.286S200
G1 X4.952S0
G1 X8.738S200
G1 X1.69S0
G1 X9.364S200
G1 X5.006S0
G1 X4.363S200
G1 X1.73S0
G1 X15.794S200
G1 X2.5S0
G1 X0.066Y0.1
G1 X-2.5
G1 X-15.86S200
G1 X-1.73S0
G1 X-4.439S200
G1 X-5.006S0
G1 X-9.288S200
G1 X-1.69S0
G1 X-8.724S200
G1 X-4.957S0
G1 X-17.302S200
G1 X-4.955S0
G1 X-4.921S200
G1 X-4.786S0
G1 X-14.359S200
G1 X-4.306S0
G1 X-8.523S200
G1 X-4.957S0
G1 X-17.301S200
G1 X-4.955S0
G1 X-7.606S200
G1 X-4.246S0
G1 X-24.411S200
G1 X-2.5S0
G1 X-0.064Y0.1
G1 X2.5
G1 X24.475S200
G1 X4.246S0
G1 X7.592S200
G1 X4.964S0
G1 X17.313S200
G1 X4.964S0
G1 X8.509S200
G1 X4.306S0
G1 X14.364S200
G1 X4.792S0
G1 X4.896S200
G1 X4.964S0
G1 X17.314S200
G1 X4.964S0
G1 X8.71S200
G1 X1.69S0
G1 X9.211S200
G1 X5.006S0
G1 X4.516S200
G1 X1.73S0
G1 X15.926S200
G1 X2.5S0
G1 X0.065Y0.1
G1 X-2.5
G1 X-15.991S200
G1 X-1.73S0
G1 X-4.593S200
G1 X-5.005S0
G1 X-9.135S200
G1 X-1.69S0
G1 X-8.696S200
G1 X-4.973S0
G1 X-17.325S200
G1 X-4.972S0
G1 X-4.872S200
G1 X-4.798S0
G1 X-14.368S200
G1 X-4.306S0
G1 X-8.495S200
G1 X-4.973S0
G1 X-17.324S200
G1 X-4.972S0
G1 X-7.578S200
G1 X-4.246S0
G1 X-24.538S200
G1 X-2.5S0
G1 X-0.063Y0.1
G1 X2.5
G1 X24.601S200
G1 X4.246S0
G1 X7.564S200
G1 X4.981S0
G1 X17.334S200
G1 X4.982S0
G1 X8.481S200
G1 X4.306S0
G1 X14.373S200
G1 X4.803S0
G1 X4.848S200
G1 X4.981S0
G1 X17.335S200
G1 X4.982S0
G1 X8.682S200
G1 X1.69S0
G1 X9.058S200
G1 X5.005S0
G1 X4.67S200
G1 X1.73S0
G1 X16.054S200
G1 X2.5S0
G1 X0.062Y0.1
G1 X-2.5
G1 X-16.116S200
G1 X-1.73S0
G1 X-4.746S200
G1 X-5.005S0
G1 X-8.982S200
G1 X-1.69S0
G1 X-8.668S200
G1 X-4.992S0
G1 X-17.344S200
G1 X-4.99S0
G1 X-4.824S200
G1 X-4.808S0
G1 X-14.378S200
G1 X-4.306S0
G1 X-8.467S200
G1 X-4.992S0
G1 X-17.343S200
G1 X-4.99S0
G1 X-7.55S200
G1 X-4.246S0
G1 X-24.665S200
G1 X-2.5S0
G1 X-0.063Y0.1
G1 X2.5
G1 X24.728S200
G1 X4.246S0
G1 X7.536S200
G1 X4.998S0
G1 X17.354S200
G1 X5.001S0
G1 X8.453S200
G1 X4.306S0
G1 X14.383S200
G1 X4.814S0
G1 X4.799S200
G1 X4.998S0
G1 X17.355S200
G1 X5.001S0
G1 X8.654S200
G1 X1.69S0
G1 X8.906S200
G1 X5.004S0
G1 X4.823S200
G1 X1.73S0
G1 X16.179S200
G1 X2.5S0
G1 X0.063Y0.1
G1 X-2.5
G1 X-16.242S200
G1 X-1.73S0
G1 X-4.9S200
G1 X-5.004S0
G1 X-8.829S200
G1 X-1.69S0
G1 X-8.644S200
G1 X-5.006S0
G1 X-17.365S200
G1 X-5.007S0
G1 X-4.775S200
G1 X-4.819S0
G1 X-14.388S200
G1 X-4.306S0
G1 X-8.443S200
G1 X-5.006S0
G1 X-17.364S200
G1 X-5.007S0
G1 X-7.522S200
G1 X-4.246S0
G1 X-24.791S200
G1 X-2.5S0
G1 X-0.064Y0.1
G1 X2.5
G1 X24.855S200
G1 X4.246S0
G1 X7.514S200
G1 X5.009S0
G1 X17.375S200
G1 X5.009S0
G1 X8.435S200
G1 X4.306S0
G1 X14.392S200
G1 X4.825S0
G1 X4.757S200
G1 X5.009S0
G1 X17.376S200
G1 X5.009S0
G1 X8.636S200
G1 X1.69S0
G1 X8.753S200
G1 X5.003S0
G1 X4.977S200
G1 X1.73S0
G1 X16.305S200
G1 X2.5S0
G1 X0.063Y0.1
G1 X-2.5
G1 X-16.368S200
G1 X-1.73S0
G1 X-5.053S200
G1 X-5.003S0
G1 X-8.677S200
G1 X-1.69S0
G1 X-8.627S200
G1 X-5.013S0
G1 X-17.386S200
G1 X-5.012S0
G1 X-4.738S200
G1 X-4.831S0
G1 X-14.397S200
G1 X-4.306S0
G1 X-8.426S200
G1 X-5.013S0
G1 X-17.385S200
G1 X-5.012S0
G1 X-7.506S200
G1 X-4.246S0
G1 X-24.918S200
G1 X-2.5S0
G1 X-0.063Y0.1
G1 X2.5
G1 X24.981S200
G1 X4.246S0
G1 X7.497S200
G1 X5.016S0
G1 X17.394S200
G1 X5.017S0
G1 X8.418S200
G1 X4.306S0
G1 X14.402S200
G1 X4.836S0
G1 X4.72S200
G1 X5.015S0
G1 X17.395S200
G1 X5.017S0
G1 X8.619S200
G1 X1.69S0
G1 X8.6S200
G1 X5.003S0
G1 X5.13S200
G1 X1.73S0
G1 X16.431S200
G1 X2.5S0
G1 X0.063Y0.1
G1 X-2.5
G1 X-16.494S200
G1 X-1.73S0
G1 X-5.207S200
G1 X-5.002S0
G1 X-8.524S200
G1 X-1.69S0
G1 X-8.611S200
G1 X-5.02S0
G1 X-17.403S200
G1 X-5.021S0
G1 X-4.705S200
G1 X-4.837S0
G1 X-14.407S200
G1 X-4.306S0
G1 X-8.41S200
G1 X-5.02S0
G1 X-17.402S200
G1 X-5.021S0
G1 X-7.489S200
G1 X-4.246S0
G1 X-25.045S200
G1 X-2.5S0
G1 X-0.063Y0.1
G1 X2.5
G1 X25.108S200
G1 X4.246S0
G1 X7.481S200
G1 X5.026S0
G1 X17.41S200
G1 X5.023S0
G1 X8.402S200
G1 X4.306S0
G1 X14.41S200
G1 X4.84S0
G1 X4.691S200
G1 X5.026S0
G1 X17.411S200
G1 X5.023S0
G1 X8.603S200
G1 X1.69S0
G1 X8.448S200
G1 X5.001S0
G1 X5.284S200
G1 X1.73S0
G1 X16.556S200
G1 X2.5S0
G1 X0.063Y0.1
G1 X-2.5
G1 X-16.619S200
G1 X-1.73S0
G1 X-5.361S200
G1 X-5.001S0
G1 X-8.371S200
G1 X-1.69S0
G1 X-8.595S200
G1 X-5.026S0
G1 X-17.419S200
G1 X-5.031S0
G1 X-4.676S200
G1 X-4.846S0
G1 X-14.411S200
G1 X-4.306S0
G1 X-8.394S200
G1 X-5.026S0
G1 X-17.418S200
G1 X-5.031S0
G1 X-7.473S200
G1 X-4.246S0
G1 X-25.171S200
G1 X-2.5S0
G1 X-0.064Y0.1
G1 X2.5
G1 X25.235S200
G1 X4.246S0
G1 X7.464S200
G1 X5.037S0
G1 X17.423S200
G1 X5.033S0
G1 X8.385S200
G1 X4.306S0
G1 X14.413S200
G1 X4.85S0
G1 X4.662S200
G1 X5.036S0
G1 X17.424S200
G1 X5.033S0
G1 X8.586S200
G1 X1.69S0
G1 X8.295S200
G1 X5.001S0
G1 X5.437S200
G1 X1.73S0
G1 X16.682S200
G1 X2.5S0
G1 X0.063Y0.1
G1 X-2.5
G1 X-16.745S200
G1 X-1.73S0
G1 X-5.514S200
G1 X-5S0
G1 X-8.219S200
G1 X-1.69S0
G1 X-8.578S200
G1 X-5.04S0
G1 X-17.428S200
G1 X-5.042S0
G1 X-4.647S200
G1 X-4.855S0
G1 X-14.414S200
G1 X-4.306S0
G1 X-8.377S200
G1 X-5.04S0
G1 X-17.427S200
G1 X-5.042S0
G1 X-7.456S200
G1 X-4.246S0
G1 X-25.298S200
G1 X-2.5S0
G1 X-0.063Y0.1
G1 X2.5
G1 X25.361S200
G1 X4.246S0
G1 X7.448S200
G1 X5.047S0
G1 X17.432S200
G1 X5.046S0
G1 X8.369S200
G1 X4.306S0
G1 X14.416S200
G1 X4.859S0
G1 X4.633S200
G1 X5.047S0
G1 X17.433S200
G1 X5.046S0
G1 X8.57S200
G1 X1.69S0
G1 X8.142S200
G1 X5S0
G1 X5.591S200
G1 X1.73S0
G1 X16.808S200
G1 X2.5S0
G1 X0.063Y0.1
G1 X-2.5
G1 X-16.871S200
G1 X-1.73S0
G1 X-5.668S200
G1 X-4.999S0
G1 X-8.066S200
G1 X-1.69S0
G1 X-8.562S200
G1 X-5.053S0
G1 X-17.437S200
G1 X-5.052S0
G1 X-4.619S200
G1 X-4.864S0
G1 X-14.417S200
G1 X-4.306S0
G1 X-8.361S200
G1 X-5.053S0
G1 X-17.436S200
G1 X-5.052S0
G1 X-7.44S200
G1 X-4.246S0
G1 X-25.425S200
G1 X-2.5S0
G1 X-0.063Y0.1
G1 X2.5
G1 X25.488S200
G1 X4.246S0
G1 X7.433S200
G1 X5.055S0
G1 X17.442S200
G1 X5.054S0
G1 X8.358S200
G1 X4.306S0
G1 X14.419S200
G1 X4.868S0
G1 X4.606S200
G1 X5.055S0
G1 X17.443S200
G1 X5.054S0
G1 X8.559S200
G1 X1.69S0
G1 X7.99S200
G1 X4.999S0
G1 X5.744S200
G1 X1.73S0
G1 X16.933S200
G1 X2.5S0
G1 X0.063Y0.1
G1 X-2.5
G1 X-16.996S200
G1 X-1.73S0
G1 X-5.821S200
G1 X-4.999S0
G1 X-7.913S200
G1 X-1.69S0
G1 X-8.556S200
G1 X-5.056S0
G1 X-17.447S200
G1 X-5.054S0
G1 X-4.598S200
G1 X-4.873S0
G1 X-14.42S200
G1 X-4.306S0
G1 X-8.355S200
G1 X-5.056S0
G1 X-17.446S200
G1 X-5.054S0
G1 X-7.431S200
G1 X-4.246S0
G1 X-25.551S200
G1 X-2.5S0
G1 X-0.061Y0.1
G1 X2.5
G1 X25.612S200
G1 X4.246S0
G1 X7.428S200
G1 X5.056S0
G1 X17.449S200
G1 X5.057S0
G1 X8.352S200
G1 X4.306S0
G1 X14.422S200
G1 X4.876S0
G1 X4.59S200
G1 X5.056S0
G1 X17.45S200
G1 X5.057S0
G1 X8.553S200
G1 X1.69S0
G1 X7.837S200
G1 X4.998S0
G1 X5.898S200
G1 X1.73S0
G1 X17.059S200
G1 X2.5S0
G1 X0.063Y0.1
G1 X-2.5
G1 X-17.122S200
G1 X-1.73S0
G1 X-5.975S200
G1 X-4.997S0
G1 X-7.761S200
G1 X-1.69S0
G1 X-8.551S200
G1 X-5.058S0
G1 X-17.452S200
G1 X-5.058S0
G1 X-4.585S200
G1 X-4.877S0
G1 X-14.423S200
G1 X-4.306S0
G1 X-8.35S200
G1 X-5.058S0
G1 X-17.451S200
G1 X-5.058S0
G1 X-7.425S200
G1 X-4.246S0
G1 X-25.672S200
G1 X-2.5S0
G1 X-0.061Y0.1
G1 X2.5
G1 X25.733S200
G1 X4.246S0
G1 X7.422S200
G1 X5.06S0
G1 X17.454S200
G1 X5.059S0
G1 X8.347S200
G1 X4.306S0
G1 X14.425S200
G1 X4.877S0
G1 X4.581S200
G1 X5.059S0
G1 X17.455S200
G1 X5.059S0
G1 X8.548S200
G1 X1.69S0
G1 X7.684S200
G1 X4.998S0
G1 X6.051S200
G1 X1.73S0
G1 X17.184S200
G1 X2.5S0
G1 X0.06Y0.1
G1 X-2.5
G1 X-17.244S200
G1 X-1.73S0
G1 X-6.128S200
G1 X-4.997S0
G1 X-7.608S200
G1 X-1.69S0
G1 X-8.545S200
G1 X-5.061S0
G1 X-17.457S200
G1 X-5.061S0
G1 X-4.576S200
G1 X-4.878S0
G1 X-14.426S200
G1 X-4.306S0
G1 X-8.344S200
G1 X-5.061S0
G1 X-17.456S200
G1 X-5.061S0
G1 X-7.42S200
G1 X-4.246S0
G1 X-25.793S200
G1 X-2.5S0
G1 X-0.061Y0.1
G1 X2.5
G1 X25.854S200
G1 X4.246S0
G1 X7.417S200
G1 X5.063S0
G1 X17.459S200
G1 X5.061S0
G1 X8.342S200
G1 X4.306S0
G1 X14.427S200
G1 X4.879S0
G1 X4.571S200
G1 X5.063S0
G1 X17.46S200
G1 X5.061S0
G1 X8.543S200
G1 X1.69S0
G1 X7.532S200
G1 X4.996S0
G1 X6.205S200
G1 X1.73S0
G1 X17.304S200
G1 X2.5S0
G1 X0.059Y0.1
G1 X-2.5
G1 X-17.363S200
G1 X-1.73S0
G1 X-6.282S200
G1 X-4.996S0
G1 X-7.455S200
G1 X-1.69S0
G1 X-8.54S200
G1 X-5.063S0
G1 X-17.462S200
G1 X-5.065S0
G1 X-4.566S200
G1 X-4.882S0
G1 X-14.426S200
G1 X-4.306S0
G1 X-8.339S200
G1 X-5.063S0
G1 X-17.461S200
G1 X-5.065S0
G1 X-7.414S200
G1 X-4.246S0
G1 X-25.914S200
G1 X-2.5S0
G1 X-0.061Y0.1
G1 X2.5
G1 X25.975S200
G1 X4.246S0
G1 X7.412S200
G1 X5.066S0
G1 X17.461S200
G1 X5.067S0
G1 X8.336S200
G1 X4.306S0
G1 X14.425S200
G1 X4.885S0
G1 X4.562S200
G1 X5.066S0
G1 X17.462S200
G1 X5.067S0
G1 X8.537S200
G1 X1.69S0
G1 X7.379S200
G1 X4.995S0
G1 X6.359S200
G1 X1.73S0
G1 X17.423S200
G1 X2.5S0
G1 X0.06Y0.1
G1 X-2.5
G1 X-17.483S200
G1 X-1.73S0
G1 X-6.435S200
G1 X-4.995S0
G1 X-7.303S200
G1 X-1.69S0
G1 X-8.535S200
G1 X-5.07S0
G1 X-17.462S200
G1 X-5.068S0
G1 X-4.558S200
G1 X-4.887S0
G1 X-14.424S200
G1 X-4.306S0
G1 X-8.334S200
G1 X-5.07S0
G1 X-17.461S200
G1 X-5.068S0
G1 X-7.409S200
G1 X-4.246S0
G1 X-26.035S200
G1 X-2.5S0
G1 X-0.06Y0.1
G1 X2.5
G1 X26.095S200
G1 X4.246S0
G1 X7.406S200
G1 X5.07S0
G1 X17.461S200
G1 X5.074S0
G1 X8.331S200
G1 X4.306S0
G1 X14.423S200
G1 X4.89S0
G1 X4.553S200
G1 X5.07S0
G1 X17.462S200
G1 X5.074S0
G1 X8.532S200
G1 X1.69S0
G1 X7.226S200
G1 X4.995S0
G1 X6.512S200
G1 X1.73S0
G1 X17.543S200
G1 X2.5S0
G1 X0.059Y0.1
G1 X-2.5
G1 X-17.602S200
G1 X-1.73S0
G1 X-6.589S200
G1 X-4.994S0
G1 X-7.15S200
G1 X-1.69S0
G1 X-8.534S200
G1 X-5.074S0
G1 X-17.461S200
G1 X-5.07S0
G1 X-4.55S200
G1 X-4.893S0
G1 X-14.422S200
G1 X-4.306S0
G1 X-8.333S200
G1 X-5.074S0
G1 X-17.46S200
G1 X-5.07S0
G1 X-7.405S200
G1 X-4.246S0
G1 X-26.156S200
G1 X-2.5S0
G1 X-0.06Y0.1
G1 X2.5
G1 X26.216S200
G1 X4.246S0
G1 X7.408S200
G1 X5.068S0
G1 X17.458S200
G1 X5.072S0
G1 X8.336S200
G1 X4.306S0
G1 X14.42S200
G1 X4.896S0
G1 X4.552S200
G1 X5.068S0
G1 X17.459S200
G1 X5.072S0
G1 X8.537S200
G1 X1.69S0
G1 X7.074S200
G1 X4.993S0
G1 X6.666S200
G1 X1.73S0
G1 X17.662S200
G1 X2.5S0
G1 X0.06Y0.1
G1 X-2.5
G1 X-17.722S200
G1 X-1.73S0
G1 X-6.742S200
G1 X-4.994S0
G1 X-6.997S200
G1 X-1.69S0
G1 X-8.54S200
G1 X-5.07S0
G1 X-17.456S200
G1 X-5.067S0
G1 X-4.558S200
G1 X-4.894S0
G1 X-14.419S200
G1 X-4.306S0
G1 X-8.339S200
G1 X-5.07S0
G1 X-17.456S200
G1 X-5.066S0
G1 X-7.411S200
G1 X-4.246S0
G1 X-26.277S200
G1 X-2.5S0
G1 X-0.06Y0.1
G1 X2.5
G1 X26.337S200
G1 X4.246S0
G1 X7.413S200
G1 X5.066S0
G1 X17.452S200
G1 X5.07S0
G1 X8.341S200
G1 X4.306S0
G1 X14.418S200
G1 X4.892S0
G1 X4.563S200
G1 X5.066S0
G1 X17.453S200
G1 X5.07S0
G1 X8.542S200
G1 X1.69S0
G1 X6.921S200
G1 X4.993S0
G1 X6.819S200
G1 X1.73S0
G1 X17.782S200
G1 X2.5S0
G1 X0.059Y0.1
G1 X-2.5
G1 X-17.841S200
G1 X-1.73S0
G1 X-6.896S200
G1 X-4.992S0
G1 X-6.845S200
G1 X-1.69S0
G1 X-8.545S200
G1 X-5.068S0
G1 X-17.451S200
G1 X-5.064S0
G1 X-4.568S200
G1 X-4.891S0
G1 X-14.417S200
G1 X-4.306S0
G1 X-8.344S200
G1 X-5.068S0
G1 X-17.45S200
G1 X-5.064S0
G1 X-7.416S200
G1 X-4.246S0
G1 X-26.398S200
G1 X-2.5S0
G1 X-0.06Y0.1
G1 X2.5
G1 X26.458S200
G1 X4.246S0
G1 X7.419S200
G1 X5.062S0
G1 X17.448S200
G1 X5.066S0
G1 X8.347S200
G1 X4.306S0
G1 X14.413S200
G1 X4.892S0
G1 X4.574S200
G1 X5.062S0
G1 X17.449S200
G1 X5.066S0
G1 X8.548S200
G1 X1.69S0
G1 X6.768S200
G1 X4.992S0
G1 X6.973S200
G1 X1.73S0
G1 X17.901S200
G1 X2.5S0
G1 X0.06Y0.1
G1 X-2.5
G1 X-17.961S200
G1 X-1.73S0
G1 X-7.049S200
G1 X-4.992S0
G1 X-6.692S200
G1 X-1.69S0
G1 X-8.55S200
G1 X-5.066S0
G1 X-17.446S200
G1 X-5.061S0
G1 X-4.579S200
G1 X-4.892S0
G1 X-14.41S200
G1 X-4.306S0
G1 X-8.349S200
G1 X-5.065S0
G1 X-17.446S200
G1 X-5.061S0
G1 X-7.421S200
G1 X-4.246S0
G1 X-26.519S200
G1 X-2.5S0
G1 X-0.06Y0.1
G1 X2.5
G1 X26.579S200
G1 X4.246S0
G1 X7.424S200
G1 X5.059S0
G1 X17.443S200
G1 X5.064S0
G1 X8.352S200
G1 X4.306S0
G1 X14.406S200
G1 X4.894S0
G1 X4.584S200
G1 X5.059S0
G1 X17.444S200
G1 X5.064S0
G1 X8.553S200
G1 X1.69S0
G1 X6.615S200
G1 X4.992S0
G1 X7.126S200
G1 X1.73S0
G1 X18.021S200
G1 X2.5S0
G1 X0.059Y0.1
G1 X-2.5
G1 X-18.08S200
G1 X-1.73S0
G1 X-7.203S200
G1 X-4.991S0
G1 X-6.539S200
G1 X-1.69S0
G1 X-8.556S200
G1 X-5.062S0
G1 X-17.442S200
G1 X-5.058S0
G1 X-4.589S200
G1 X-4.894S0
G1 X-14.403S200
G1 X-4.306S0
G1 X-8.355S200
G1 X-5.062S0
G1 X-17.441S200
G1 X-5.058S0
G1 X-7.426S200
G1 X-4.246S0
G1 X-26.639S200
G1 X-2.5S0
G1 X-0.058Y0.1
G1 X2.5
G1 X26.697S200
G1 X4.246S0
G1 X7.429S200
G1 X5.056S0
G1 X17.439S200
G1 X5.061S0
G1 X8.357S200
G1 X4.306S0
G1 X14.399S200
G1 X4.895S0
G1 X4.595S200
G1 X5.056S0
G1 X17.44S200
G1 X5.061S0
G1 X8.558S200
G1 X1.69S0
G1 X6.463S200
G1 X4.99S0
G1 X7.28S200
G1 X1.73S0
G1 X18.14S200
G1 X2.5S0
G1 X0.06Y0.1
G1 X-2.5
G1 X-18.2S200
G1 X-1.73S0
G1 X-7.356S200
G1 X-4.991S0
G1 X-6.386S200
G1 X-1.69S0
G1 X-8.561S200
G1 X-5.062S0
G1 X-17.433S200
G1 X-5.056S0
G1 X-4.601S200
G1 X-4.895S0
G1 X-14.396S200
G1 X-4.306S0
G1 X-8.36S200
G1 X-5.062S0
G1 X-17.432S200
G1 X-5.056S0
G1 X-7.432S200
G1 X-4.246S0
G1 X-26.755S200
G1 X-2.5S0
G1 X-0.057Y0.1
G1 X2.5
G1 X26.812S200
G1 X4.246S0
G1 X7.437S200
G1 X5.055S0
G1 X17.424S200
G1 X5.058S0
G1 X8.368S200
G1 X4.306S0
G1 X14.393S200
G1 X4.896S0
G1 X4.608S200
G1 X5.055S0
G1 X17.424S200
G1 X5.058S0
G1 X8.569S200
G1 X1.69S0
G1 X6.31S200
G1 X4.99S0
G1 X7.433S200
G1 X1.73S0
G1 X18.26S200
G1 X2.5S0
G1 X0.059Y0.1
G1 X-2.5
G1 X-18.319S200
G1 X-1.73S0
G1 X-7.51S200
G1 X-4.989S0
G1 X-6.234S200
G1 X-1.69S0
G1 X-8.577S200
G1 X-5.055S0
G1 X-17.417S200
G1 X-5.05S0
G1 X-4.619S200
G1 X-4.897S0
G1 X-14.389S200
G1 X-4.306S0
G1 X-8.376S200
G1 X-5.055S0
G1 X-17.416S200
G1 X-5.05S0
G1 X-7.445S200
G1 X-4.246S0
G1 X-26.87S200
G1 X-2.5S0
G1 X-0.058Y0.1
G1 X2.5
G1 X26.928S200
G1 X4.246S0
G1 X7.453S200
G1 X5.045S0
G1 X17.409S200
G1 X5.051S0
G1 X8.384S200
G1 X4.306S0
G1 X14.385S200
G1 X4.896S0
G1 X4.632S200
G1 X5.045S0
G1 X17.41S200
G1 X5.051S0
G1 X8.585S200
G1 X1.69S0
G1 X6.157S200
G1 X4.989S0
G1 X7.587S200
G1 X1.73S0
G1 X18.377S200
G1 X2.5S0
G1 X0.057Y0.1
G1 X-2.5
G1 X-18.434S200
G1 X-1.73S0
G1 X-7.664S200
G1 X-4.988S0
G1 X-6.081S200
G1 X-1.69S0
G1 X-8.593S200
G1 X-5.047S0
G1 X-17.403S200
G1 X-5.04S0
G1 X-4.648S200
G1 X-4.894S0
G1 X-14.379S200
G1 X-4.306S0
G1 X-8.392S200
G1 X-5.047S0
G1 X-17.402S200
G1 X-5.04S0
G1 X-7.461S200
G1 X-4.246S0
G1 X-26.986S200
G1 X-2.5S0
G1 X-0.057Y0.1
G1 X2.5
G1 X27.043S200
G1 X4.246S0
G1 X7.47S200
G1 X5.035S0
G1 X17.394S200
G1 X5.042S0
G1 X8.401S200
G1 X4.306S0
G1 X14.373S200
G1 X4.891S0
G1 X4.666S200
G1 X5.035S0
G1 X17.395S200
G1 X5.042S0
G1 X8.602S200
G1 X1.69S0
G1 X6.005S200
G1 X4.988S0
G1 X7.74S200
G1 X1.73S0
G1 X18.49S200
G1 X2.5S0
G1 X0.057Y0.1
G1 X-2.5
G1 X-18.547S200
G1 X-1.73S0
G1 X-7.817S200
G1 X-4.988S0
G1 X-5.928S200
G1 X-1.69S0
G1 X-8.61S200
G1 X-5.038S0
G1 X-17.388S200
G1 X-5.03S0
G1 X-4.682S200
G1 X-4.889S0
G1 X-14.367S200
G1 X-4.306S0
G1 X-8.409S200
G1 X-5.038S0
G1 X-17.387S200
G1 X-5.03S0
G1 X-7.478S200
G1 X-4.246S0
G1 X-27.101S200
G1 X-2.5S0
G1 X-0.058Y0.1
G1 X2.5
G1 X27.159S200
G1 X4.246S0
G1 X7.486S200
G1 X5.025S0
G1 X17.38S200
G1 X5.034S0
G1 X8.417S200
G1 X4.306S0
G1 X14.361S200
G1 X4.886S0
G1 X4.699S200
G1 X5.025S0
G1 X17.381S200
G1 X5.034S0
G1 X8.618S200
G1 X1.69S0
G1 X5.852S200
G1 X4.987S0
G1 X7.894S200
G1 X1.73S0
G1 X18.604S200
G1 X2.5S0
G1 X0.056Y0.1
G1 X-2.5
G1 X-18.66S200
G1 X-1.73S0
G1 X-7.971S200
G1 X-4.986S0
G1 X-5.776S200
G1 X-1.69S0
G1 X-8.626S200
G1 X-5.031S0
G1 X-17.372S200
G1 X-5.021S0
G1 X-4.715S200
G1 X-4.884S0
G1 X-14.355S200
G1 X-4.306S0
G1 X-8.425S200
G1 X-5.03S0
G1 X-17.372S200
G1 X-5.021S0
G1 X-7.494S200
G1 X-4.246S0
G1 X-27.217S200
G1 X-2.5S0
G1 X-0.057Y0.1
G1 X2.5
G1 X27.274S200
G1 X4.246S0
G1 X7.502S200
G1 X5.019S0
G1 X17.361S200
G1 X5.027S0
G1 X8.433S200
G1 X4.306S0
G1 X14.349S200
G1 X4.881S0
G1 X4.732S200
G1 X5.019S0
G1 X17.362S200
G1 X5.027S0
G1 X8.634S200
G1 X1.69S0
G1 X5.699S200
G1 X4.987S0
G1 X8.047S200
G1 X1.73S0
G1 X18.717S200
G1 X2.5S0
G1 X0.057Y0.1
G1 X-2.5
G1 X-18.774S200
G1 X-1.73S0
G1 X-8.124S200
G1 X-4.986S0
G1 X-5.623S200
G1 X-1.69S0
G1 X-8.643S200
G1 X-5.022S0
G1 X-17.352S200
G1 X-5.017S0
G1 X-4.748S200
G1 X-4.879S0
G1 X-14.343S200
G1 X-4.306S0
G1 X-8.442S200
G1 X-5.022S0
G1 X-17.351S200
G1 X-5.017S0
G1 X-7.51S200
G1 X-4.246S0
G1 X-27.332S200
G1 X-2.5S0
G1 X-0.058Y0.1
G1 X2.5
G1 X27.39S200
G1 X4.246S0
G1 X7.518S200
G1 X5.014S0
G1 X17.342S200
G1 X5.017S0
G1 X8.451S200
G1 X4.306S0
G1 X14.337S200
G1 X4.876S0
G1 X4.765S200
G1 X5.014S0
G1 X17.343S200
G1 X5.017S0
G1 X8.652S200
G1 X1.69S0
G1 X5.547S200
G1 X4.985S0
G1 X8.201S200
G1 X1.73S0
G1 X18.831S200
G1 X2.5S0
G1 X0.056Y0.1
G1 X-2.5
G1 X-18.887S200
G1 X-1.73S0
G1 X-8.278S200
G1 X-4.985S0
G1 X-5.47S200
G1 X-1.69S0
G1 X-8.666S200
G1 X-5.009S0
G1 X-17.331S200
G1 X-5.006S0
G1 X-4.787S200
G1 X-4.876S0
G1 X-14.329S200
G1 X-4.306S0
G1 X-8.465S200
G1 X-5.009S0
G1 X-17.33S200
G1 X-5.006S0
G1 X-7.532S200
G1 X-4.246S0
G1 X-27.448S200
G1 X-2.5S0
G1 X-0.057Y0.1
G1 X2.5
G1 X27.505S200
G1 X4.246S0
G1 X7.546S200
G1 X4.998S0
G1 X17.317S200
G1 X5.002S0
G1 X8.479S200
G1 X4.306S0
G1 X14.32S200
G1 X4.876S0
G1 X4.81S200
G1 X4.998S0
G1 X17.317S200
G1 X5.003S0
G1 X8.68S200
G1 X1.69S0
G1 X5.394S200
G1 X4.985S0
G1 X8.354S200
G1 X1.73S0
G1 X18.944S200
G1 X2.5S0
G1 X0.057Y0.1
G1 X-2.5
G1 X-19.001S200
G1 X-1.73S0
G1 X-8.431S200
G1 X-4.984S0
G1 X-5.318S200
G1 X-1.69S0
G1 X-8.694S200
G1 X-4.996S0
G1 X-17.305S200
G1 X-4.989S0
G1 X-4.832S200
G1 X-4.876S0
G1 X-14.312S200
G1 X-4.306S0
G1 X-8.493S200
G1 X-4.996S0
G1 X-17.304S200
G1 X-4.989S0
G1 X-7.56S200
G1 X-4.246S0
G1 X-27.563S200
G1 X-2.5S0
G1 X-0.058Y0.1
G1 X2.5
G1 X27.621S200
G1 X4.246S0
G1 X7.574S200
G1 X4.981S0
G1 X17.291S200
G1 X4.989S0
G1 X8.507S200
G1 X4.306S0
G1 X14.303S200
G1 X4.872S0
G1 X4.859S200
G1 X4.981S0
G1 X17.292S200
G1 X4.989S0
G1 X8.708S200
G1 X1.69S0
G1 X5.241S200
G1 X4.984S0
G1 X8.508S200
G1 X1.73S0
G1 X19.058S200
G1 X2.5S0
G1 X0.056Y0.1
G1 X-2.5
G1 X-19.114S200
G1 X-1.73S0
G1 X-8.585S200
G1 X-4.983S0
G1 X-5.165S200
G1 X-1.69S0
G1 X-8.723S200
G1 X-4.982S0
G1 X-17.278S200
G1 X-4.973S0
G1 X-4.887S200
G1 X-4.865S0
G1 X-14.295S200
G1 X-4.306S0
G1 X-8.522S200
G1 X-4.981S0
G1 X-17.279S200
G1 X-4.973S0
G1 X-7.587S200
G1 X-4.246S0
G1 X-27.678S200
G1 X-2.5S0
G1 X-0.055Y0.1
G1 X2.5
G1 X27.733S200
G1 X4.246S0
G1 X7.601S200
G1 X4.968S0
G1 X17.262S200
G1 X4.975S0
G1 X8.536S200
G1 X4.306S0
G1 X14.286S200
G1 X4.859S0
G1 X4.916S200
G1 X4.968S0
G1 X17.263S200
G1 X4.975S0
G1 X8.737S200
G1 X1.69S0
G1 X5.089S200
G1 X4.983S0
G1 X8.661S200
G1 X1.73S0
G1 X19.171S200
G1 X2.5S0
G1 X0.057Y0.1
G1 X-2.5
G1 X-19.228S200
G1 X-1.73S0
G1 X-8.738S200
G1 X-4.983S0
G1 X-5.012S200
G1 X-1.69S0
G1 X-8.751S200
G1 X-4.968S0
G1 X-17.248S200
G1 X-4.962S0
G1 X-4.944S200
G1 X-4.854S0
G1 X-14.277S200
G1 X-4.306S0
G1 X-8.55S200
G1 X-4.968S0
G1 X-17.247S200
G1 X-4.962S0
G1 X-7.615S200
G1 X-4.246S0
G1 X-27.788S200
G1 X-2.5S0
G1 X-0.055Y0.1
G1 X2.5
G1 X27.843S200
G1 X4.246S0
G1 X7.629S200
G1 X4.956S0
G1 X17.231S200
G1 X4.962S0
G1 X8.564S200
G1 X4.306S0
G1 X14.269S200
G1 X4.847S0
G1 X4.973S200
G1 X4.956S0
G1 X17.232S200
G1 X4.962S0
G1 X8.765S200
G1 X1.69S0
G1 X4.936S200
G1 X4.982S0
G1 X8.815S200
G1 X1.73S0
G1 X19.284S200
G1 X2.5S0
G1 X0.057Y0.1
G1 X-2.5
G1 X-19.341S200
G1 X-1.73S0
G1 X-8.892S200
G1 X-4.981S0
G1 X-4.86S200
G1 X-1.69S0
G1 X-8.779S200
G1 X-4.955S0
G1 X-17.217S200
G1 X-4.95S0
G1 X-5.002S200
G1 X-4.843S0
G1 X-14.258S200
G1 X-4.306S0
G1 X-8.578S200
G1 X-4.955S0
G1 X-17.216S200
G1 X-4.95S0
G1 X-7.643S200
G1 X-4.246S0
G1 X-27.898S200
G1 X-2.5S0
G1 X-0.056Y0.1
G1 X2.5
G1 X27.954S200
G1 X4.246S0
G1 X7.657S200
G1 X4.944S0
G1 X17.201S200
G1 X4.948S0
G1 X8.592S200
G1 X4.306S0
G1 X14.247S200
G1 X4.84S0
G1 X5.03S200
G1 X4.944S0
G1 X17.202S200
G1 X4.948S0
G1 X8.793S200
G1 X1.69S0
G1 X4.783S200
G1 X4.981S0
G1 X8.969S200
G1 X1.73S0
G1 X19.398S200
G1 X2.5S0
G1 X0.057Y0.1
G1 X-2.5
G1 X-19.455S200
G1 X-1.73S0
G1 X-9.045S200
G1 X-4.981S0
G1 X-4.707S200
G1 X-1.69S0
G1 X-8.812S200
G1 X-4.937S0
G1 X-17.185S200
G1 X-4.935S0
G1 X-5.063S200
G1 X-4.837S0
G1 X-14.235S200
G1 X-4.306S0
G1 X-8.611S200
G1 X-4.937S0
G1 X-17.184S200
G1 X-4.935S0
G1 X-7.675S200
G1 X-4.246S0
G1 X-28.009S200
G1 X-2.5S0
G1 X-0.055Y0.1
G1 X2.5
G1 X28.064S200
G1 X4.246S0
G1 X7.695S200
G1 X4.923S0
G1 X17.169S200
G1 X4.924S0
G1 X8.631S200
G1 X4.306S0
G1 X14.224S200
G1 X4.833S0
G1 X5.098S200
G1 X4.923S0
G1 X17.169S200
G1 X4.925S0
G1 X8.832S200
G1 X1.69S0
G1 X4.631S200
G1 X4.98S0
G1 X9.122S200
G1 X1.73S0
G1 X19.509S200
G1 X2.5S0
G1 X0.055Y0.1
G1 X-2.5
G1 X-19.564S200
G1 X-1.73S0
G1 X-9.199S200
G1 X-4.98S0
G1 X-4.554S200
G1 X-1.69S0
G1 X-8.852S200
G1 X-4.916S0
G1 X-17.15S200
G1 X-4.911S0
G1 X-5.132S200
G1 X-4.831S0
G1 X-14.212S200
G1 X-4.306S0
G1 X-8.651S200
G1 X-4.915S0
G1 X-17.15S200
G1 X-4.911S0
G1 X-7.715S200
G1 X-4.246S0
G1 X-28.119S200
G1 X-2.5S0
G1 X-0.055Y0.1
G1 X2.5
G1 X28.174S200
G1 X4.246S0
G1 X7.735S200
G1 X4.902S0
G1 X17.128S200
G1 X4.905S0
G1 X8.672S200
G1 X4.306S0
G1 X14.2S200
G1 X4.828S0
G1 X5.167S200
G1 X4.902S0
G1 X17.128S200
G1 X4.906S0
G1 X8.873S200
G1 X1.69S0
G1 X4.478S200
G1 X4.979S0
G1 X9.276S200
G1 X1.73S0
G1 X19.619S200
G1 X2.5S0
G1 X0.054Y0.1
G1 X-2.5
G1 X-19.673S200
G1 X-1.73S0
G1 X-9.352S200
G1 X-4.98S0
G1 X-4.401S200
G1 X-1.69S0
G1 X-8.893S200
G1 X-4.897S0
G1 X-17.106S200
G1 X-4.893S0
G1 X-5.206S200
G1 X-4.82S0
G1 X-14.189S200
G1 X-4.306S0
G1 X-8.692S200
G1 X-4.896S0
G1 X-17.106S200
G1 X-4.893S0
G1 X-7.755S200
G1 X-4.246S0
G1 X-28.229S200
G1 X-2.5S0
G1 X-0.055Y0.1
G1 X2.5
G1 X28.284S200
G1 X4.246S0
G1 X7.775S200
G1 X4.884S0
G1 X17.084S200
G1 X4.887S0
G1 X8.712S200
G1 X4.306S0
G1 X14.177S200
G1 X4.811S0
G1 X5.247S200
G1 X4.884S0
G1 X17.084S200
G1 X4.888S0
G1 X8.913S200
G1 X1.69S0
G1 X4.325S200
G1 X4.979S0
G1 X9.429S200
G1 X1.73S0
G1 X19.728S200
G1 X2.5S0
G1 X0.055Y0.1
G1 X-2.5
G1 X-19.783S200
G1 X-1.73S0
G1 X-9.506S200
G1 X-4.978S0
G1 X-4.249S200
G1 X-1.69S0
G1 X-8.933S200
G1 X-4.879S0
G1 X-17.062S200
G1 X-4.875S0
G1 X-5.288S200
G1 X-4.803S0
G1 X-14.164S200
G1 X-4.306S0
G1 X-8.732S200
G1 X-4.878S0
G1 X-17.062S200
G1 X-4.875S0
G1 X-7.795S200
G1 X-4.246S0
G1 X-28.339S200
G1 X-2.5S0
G1 X-0.055Y0.1
G1 X2.5
G1 X28.394S200
G1 X4.246S0
G1 X7.815S200
G1 X4.866S0
G1 X17.04S200
G1 X4.869S0
G1 X8.752S200
G1 X4.306S0
G1 X14.149S200
G1 X4.796S0
G1 X5.33S200
G1 X4.866S0
G1 X17.04S200
G1 X4.87S0
G1 X8.953S200
G1 X1.69S0
G1 X4.172S200
G1 X4.978S0
G1 X9.583S200
G1 X1.73S0
G1 X19.837S200
G1 X2.5S0
G1 X0.055Y0.1
G1 X-2.5
G1 X-19.892S200
G1 X-1.73S0
G1 X-9.659S200
G1 X-4.978S0
G1 X-4.096S200
G1 X-1.69S0
G1 X-8.974S200
G1 X-4.86S0
G1 X-17.018S200
G1 X-4.857S0
G1 X-5.371S200
G1 X-4.79S0
G1 X-14.134S200
G1 X-4.306S0
G1 X-8.773S200
G1 X-4.859S0
G1 X-17.018S200
G1 X-4.857S0
G1 X-7.835S200
G1 X-4.246S0
G1 X-28.449S200
G1 X-2.5S0
G1 X-0.056Y0.1
G1 X2.5
G1 X28.505S200
G1 X4.246S0
G1 X7.855S200
G1 X4.848S0
G1 X16.996S200
G1 X4.85S0
G1 X8.793S200
G1 X4.306S0
G1 X14.12S200
G1 X4.783S0
G1 X5.412S200
G1 X4.848S0
G1 X16.996S200
G1 X4.851S0
G1 X8.994S200
G1 X1.69S0
G1 X4.02S200
G1 X4.977S0
G1 X9.736S200
G1 X1.73S0
G1 X19.947S200
G1 X2.5S0
G1 X0.054Y0.1
G1 X-2.5
G1 X-20.001S200
G1 X-1.73S0
G1 X-9.813S200
G1 X-4.977S0
G1 X-3.943S200
G1 X-1.69S0
G1 X-9.019S200
G1 X-4.837S0
G1 X-16.974S200
G1 X-4.835S0
G1 X-5.457S200
G1 X-4.777S0
G1 X-14.105S200
G1 X-4.306S0
G1 X-8.818S200
G1 X-4.836S0
G1 X-16.974S200
G1 X-4.835S0
G1 X-7.879S200
G1 X-4.246S0
G1 X-28.56S200
G1 X-2.5S0
G1 X-0.055Y0.1
G1 X2.5
G1 X28.615S200
G1 X4.246S0
G1 X7.905S200
G1 X4.823S0
G1 X16.949S200
G1 X4.82S0
G1 X8.845S200
G1 X4.306S0
G1 X14.09S200
G1 X4.77S0
G1 X5.505S200
G1 X4.823S0
G1 X16.949S200
G1 X4.821S0
G1 X9.046S200
G1 X1.69S0
G1 X3.867S200
G1 X4.976S0
G1 X9.89S200
G1 X1.73S0
G1 X20.056S200
G1 X2.5S0
G1 X0.055Y0.1
G1 X-2.5
G1 X-20.111S200
G1 X-1.73S0
G1 X-9.966S200
G1 X-4.976S0
G1 X-3.791S200
G1 X-1.69S0
G1 X-9.072S200
G1 X-4.807S0
G1 X-16.923S200
G1 X-4.811S0
G1 X-5.552S200
G1 X-4.763S0
G1 X-14.076S200
G1 X-4.306S0
G1 X-8.871S200
G1 X-4.806S0
G1 X-16.923S200
G1 X-4.811S0
G1 X-7.931S200
G1 X-4.246S0
G1 X-28.67S200
G1 X-2.5S0
G1 X-0.053Y0.1
G1 X2.5
G1 X28.723S200
G1 X4.246S0
G1 X7.958S200
G1 X4.798S0
G1 X16.893S200
G1 X4.795S0
G1 X8.898S200
G1 X4.306S0
G1 X14.06S200
G1 X4.758S0
G1 X5.6S200
G1 X4.798S0
G1 X16.894S200
G1 X4.795S0
G1 X9.099S200
G1 X1.69S0
G1 X3.714S200
G1 X4.976S0
G1 X10.043S200
G1 X1.73S0
G1 X20.165S200
G1 X2.5S0
G1 X0.055Y0.1
G1 X-2.5
G1 X-20.22S200
G1 X-1.73S0
G1 X-10.12S200
G1 X-4.975S0
G1 X-3.638S200
G1 X-1.69S0
G1 X-9.126S200
G1 X-4.783S0
G1 X-16.865S200
G1 X-4.786S0
G1 X-5.648S200
G1 X-4.754S0
G1 X-14.042S200
G1 X-4.306S0
G1 X-8.925S200
G1 X-4.783S0
G1 X-16.864S200
G1 X-4.786S0
G1 X-7.984S200
G1 X-4.246S0
G1 X-28.775S200
G1 X-2.5S0
G1 X-0.053Y0.1
G1 X2.5
G1 X28.828S200
G1 X4.246S0
G1 X8.011S200
G1 X4.773S0
G1 X16.835S200
G1 X4.772S0
G1 X8.951S200
G1 X4.306S0
G1 X14.024S200
G1 X4.745S0
G1 X5.702S200
G1 X4.773S0
G1 X16.836S200
G1 X4.772S0
G1 X9.152S200
G1 X1.69S0
G1 X3.562S200
G1 X4.974S0
G1 X10.197S200
G1 X1.73S0
G1 X20.275S200
G1 X2.5S0
G1 X0.054Y0.1
G1 X-2.5
G1 X-20.329S200
G1 X-1.73S0
G1 X-10.274S200
G1 X-4.974S0
G1 X-3.485S200
G1 X-1.69S0
G1 X-9.179S200
G1 X-4.761S0
G1 X-16.805S200
G1 X-4.762S0
G1 X-5.757S200
G1 X-4.734S0
G1 X-14.006S200
G1 X-4.306S0
G1 X-8.978S200
G1 X-4.76S0
G1 X-16.805S200
G1 X-4.762S0
G1 X-8.037S200
G1 X-4.246S0
G1 X-28.88S200
G1 X-2.5S0
G1 X-0.053Y0.1
G1 X2.5
G1 X28.933S200
G1 X4.246S0
G1 X8.063S200
G1 X4.75S0
G1 X16.776S200
G1 X4.748S0
G1 X9.005S200
G1 X4.306S0
G1 X13.988S200
G1 X4.724S0
G1 X5.811S200
G1 X4.75S0
G1 X16.776S200
G1 X4.749S0
G1 X9.206S200
G1 X1.69S0
G1 X3.409S200
G1 X4.974S0
G1 X10.35S200
G1 X1.73S0
G1 X20.384S200
G1 X2.5S0
G1 X0.052Y0.1
G1 X-2.5
G1 X-20.436S200
G1 X-1.73S0
G1 X-10.427S200
G1 X-4.973S0
G1 X-3.333S200
G1 X-1.69S0
G1 X-9.233S200
G1 X-4.737S0
G1 X-16.745S200
G1 X-4.739S0
G1 X-5.867S200
G1 X-4.713S0
G1 X-13.97S200
G1 X-4.306S0
G1 X-9.032S200
G1 X-4.736S0
G1 X-16.745S200
G1 X-4.739S0
G1 X-8.09S200
G1 X-4.246S0
G1 X-28.986S200
G1 X-2.5S0
G1 X-0.052Y0.1
G1 X2.5
G1 X29.038S200
G1 X4.246S0
G1 X8.116S200
G1 X4.73S0
G1 X16.712S200
G1 X4.726S0
G1 X9.058S200
G1 X4.306S0
G1 X13.952S200
G1 X4.703S0
G1 X5.921S200
G1 X4.73S0
G1 X16.713S200
G1 X4.726S0
G1 X9.259S200
G1 X1.69S0
G1 X3.256S200
G1 X4.973S0
G1 X10.504S200
G1 X1.73S0
G1 X20.488S200
G1 X2.5S0
G1 X0.052Y0.1
G1 X-2.5
G1 X-20.54S200
G1 X-1.73S0
G1 X-10.581S200
G1 X-4.972S0
G1 X-3.18S200
G1 X-1.69S0
G1 X-9.292S200
G1 X-4.708S0
G1 X-16.68S200
G1 X-4.715S0
G1 X-5.983S200
G1 X-4.692S0
G1 X-13.934S200
G1 X-4.306S0
G1 X-9.091S200
G1 X-4.708S0
G1 X-16.68S200
G1 X-4.714S0
G1 X-8.149S200
G1 X-4.246S0
G1 X-29.091S200
G1 X-2.5S0
G1 X-0.052Y0.1
G1 X2.5
G1 X29.143S200
G1 X4.246S0
G1 X8.182S200
G1 X4.699S0
G1 X16.647S200
G1 X4.689S0
G1 X9.125S200
G1 X4.306S0
G1 X13.913S200
G1 X4.685S0
G1 X6.044S200
G1 X4.699S0
G1 X16.647S200
G1 X4.69S0
G1 X9.326S200
G1 X1.69S0
G1 X3.104S200
G1 X4.972S0
G1 X10.657S200
G1 X1.73S0
G1 X20.593S200
G1 X2.5S0
G1 X0.052Y0.1
G1 X-2.5
G1 X-20.645S200
G1 X-1.73S0
G1 X-10.734S200
G1 X-4.972S0
G1 X-3.027S200
G1 X-1.69S0
G1 X-9.359S200
G1 X-4.673S0
G1 X-16.614S200
G1 X-4.683S0
G1 X-6.105S200
G1 X-4.679S0
G1 X-13.891S200
G1 X-4.306S0
G1 X-9.158S200
G1 X-4.672S0
G1 X-16.614S200
G1 X-4.683S0
G1 X-8.215S200
G1 X-4.246S0
G1 X-29.196S200
G1 X-2.5S0
G1 X-0.052Y0.1
G1 X2.5
G1 X29.248S200
G1 X4.246S0
G1 X8.248S200
G1 X4.668S0
G1 X16.576S200
G1 X4.658S0
G1 X9.192S200
G1 X4.306S0
G1 X13.869S200
G1 X4.672S0
G1 X6.167S200
G1 X4.668S0
G1 X16.576S200
G1 X4.659S0
G1 X9.393S200
G1 X1.69S0
G1 X2.951S200
G1 X4.971S0
G1 X10.811S200
G1 X1.73S0
G1 X20.697S200
G1 X2.5S0
G1 X0.052Y0.1
G1 X-2.5
G1 X-20.749S200
G1 X-1.73S0
G1 X-10.888S200
G1 X-4.97S0
G1 X-2.875S200
G1 X-1.69S0
G1 X-9.427S200
G1 X-4.645S0
G1 X-16.539S200
G1 X-4.652S0
G1 X-6.228S200
G1 X-4.666S0
G1 X-13.847S200
G1 X-4.306S0
G1 X-9.226S200
G1 X-4.644S0
G1 X-16.539S200
G1 X-4.652S0
G1 X-8.281S200
G1 X-4.246S0
G1 X-29.301S200
G1 X-2.5S0
G1 X-0.052Y0.1
G1 X2.5
G1 X29.353S200
G1 X4.246S0
G1 X8.315S200
G1 X4.637S0
G1 X16.5S200
G1 X4.631S0
G1 X9.259S200
G1 X4.306S0
G1 X13.825S200
G1 X4.655S0
G1 X6.295S200
G1 X4.637S0
G1 X16.5S200
G1 X4.632S0
G1 X9.46S200
G1 X1.69S0
G1 X2.798S200
G1 X4.971S0
G1 X10.964S200
G1 X1.73S0
G1 X20.801S200
G1 X2.5S0
G1 X0.053Y0.1
G1 X-2.5
G1 X-20.854S200
G1 X-1.73S0
G1 X-11.041S200
G1 X-4.97S0
G1 X-2.722S200
G1 X-1.69S0
G1 X-9.494S200
G1 X-4.618S0
G1 X-16.459S200
G1 X-4.625S0
G1 X-6.364S200
G1 X-4.64S0
G1 X-13.804S200
G1 X-4.306S0
G1 X-9.293S200
G1 X-4.617S0
G1 X-16.459S200
G1 X-4.625S0
G1 X-8.348S200
G1 X-4.246S0
G1 X-29.406S200
G1 X-2.5S0
G1 X-0.052Y0.1
G1 X2.5
G1 X29.458S200
G1 X4.246S0
G1 X8.381S200
G1 X4.613S0
G1 X16.418S200
G1 X4.603S0
G1 X9.327S200
G1 X4.306S0
G1 X13.782S200
G1 X4.625S0
G1 X6.434S200
G1 X4.613S0
G1 X16.418S200
G1 X4.604S0
G1 X9.528S200
G1 X1.69S0
G1 X2.646S200
G1 X4.969S0
G1 X11.118S200
G1 X1.73S0
G1 X20.906S200
G1 X2.5S0
G1 X0.052Y0.1
G1 X-2.5
G1 X-20.958S200
G1 X-1.73S0
G1 X-11.195S200
G1 X-4.969S0
G1 X-2.569S200
G1 X-1.69S0
G1 X-9.561S200
G1 X-4.591S0
G1 X-16.377S200
G1 X-4.601S0
G1 X-6.503S200
G1 X-4.614S0
G1 X-13.757S200
G1 X-4.306S0
G1 X-9.36S200
G1 X-4.59S0
G1 X-16.377S200
G1 X-4.601S0
G1 X-8.414S200
G1 X-4.246S0
G1 X-29.511S200
G1 X-2.5S0
G1 X-0.052Y0.1
G1 X2.5
G1 X29.563S200
G1 X4.246S0
G1 X8.45S200
G1 X4.586S0
G1 X16.336S200
G1 X4.574S0
G1 X9.396S200
G1 X4.306S0
G1 X13.731S200
G1 X4.604S0
G1 X6.575S200
G1 X4.586S0
G1 X16.336S200
G1 X4.575S0
G1 X9.597S200
G1 X1.69S0
G1 X2.493S200
G1 X4.969S0
G1 X11.271S200
G1 X1.73S0
G1 X21.01S200
G1 X2.5S0
G1 X0.053Y0.1
G1 X-2.5
G1 X-21.063S200
G1 X-1.73S0
G1 X-11.348S200
G1 X-4.968S0
G1 X-2.417S200
G1 X-1.69S0
G1 X-9.638S200
G1 X-4.554S0
G1 X-16.295S200
G1 X-4.566S0
G1 X-6.652S200
G1 X-4.594S0
G1 X-13.705S200
G1 X-4.306S0
G1 X-9.437S200
G1 X-4.553S0
G1 X-16.295S200
G1 X-4.566S0
G1 X-8.491S200
G1 X-4.246S0
G1 X-29.616S200
G1 X-2.5S0
G1 X-0.052Y0.1
G1 X2.5
G1 X29.668S200
G1 X4.246S0
G1 X8.531S200
G1 X4.547S0
G1 X16.254S200
G1 X4.532S0
G1 X9.478S200
G1 X4.306S0
G1 X13.679S200
G1 X4.584S0
G1 X6.728S200
G1 X4.547S0
G1 X16.254S200
G1 X4.533S0
G1 X9.679S200
G1 X1.69S0
G1 X2.34S200
G1 X4.968S0
G1 X11.425S200
G1 X1.73S0
G1 X21.115S200
G1 X2.5S0
G1 X0.052Y0.1
G1 X-2.5
G1 X-21.167S200
G1 X-1.73S0
G1 X-11.502S200
G1 X-4.967S0
G1 X-2.264S200
G1 X-1.69S0
G1 X-9.72S200
G1 X-4.517S0
G1 X-16.205S200
G1 X-4.531S0
G1 X-6.805S200
G1 X-4.573S0
G1 X-13.653S200
G1 X-4.306S0
G1 X-9.519S200
G1 X-4.516S0
G1 X-16.205S200
G1 X-4.531S0
G1 X-8.571S200
G1 X-4.246S0
G1 X-29.718S200
G1 X-2.5S0
G1 X-0.05Y0.1
G1 X2.5
G1 X29.768S200
G1 X4.246S0
G1 X8.612S200
G1 X4.515S0
G1 X16.154S200
G1 X4.501S0
G1 X9.56S200
G1 X4.306S0
G1 X13.627S200
G1 X4.563S0
G1 X6.882S200
G1 X4.515S0
G1 X16.154S200
G1 X4.502S0
G1 X9.761S200
G1 X1.69S0
G1 X2.187S200
G1 X4.967S0
G1 X11.579S200
G1 X1.73S0
G1 X21.219S200
G1 X2.5S0
G1 X0.052Y0.1
G1 X-2.5
G1 X-21.271S200
G1 X-1.73S0
G1 X-11.655S200
G1 X-4.967S0
G1 X-2.111S200
G1 X-1.69S0
G1 X-9.802S200
G1 X-4.486S0
G1 X-16.104S200
G1 X-4.5S0
G1 X-6.958S200
G1 X-4.554S0
G1 X-13.6S200
G1 X-4.306S0
G1 X-9.601S200
G1 X-4.485S0
G1 X-16.104S200
G1 X-4.5S0
G1 X-8.652S200
G1 X-4.246S0
G1 X-29.818S200
G1 X-2.5S0
G1 X-0.05Y0.1
G1 X2.5
G1 X29.868S200
G1 X4.246S0
G1 X8.693S200
G1 X4.484S0
G1 X16.053S200
G1 X4.47S0
G1 X9.642S200
G1 X4.306S0
G1 X13.57S200
G1 X4.542S0
G1 X7.041S200
G1 X4.484S0
G1 X16.053S200
G1 X4.471S0
G1 X9.843S200
G1 X1.69S0
G1 X2.035S200
G1 X4.966S0
G1 X11.732S200
G1 X1.73S0
G1 X21.321S200
G1 X2.5S0
G1 X0.05Y0.1
G1 X-2.5
G1 X-21.371S200
G1 X-1.73S0
G1 X-11.809S200
G1 X-4.966S0
G1 X-1.958S200
G1 X-1.69S0
G1 X-9.884S200
G1 X-4.456S0
G1 X-16.002S200
G1 X-4.469S0
G1 X-7.125S200
G1 X-4.528S0
G1 X-13.54S200
G1 X-4.306S0
G1 X-9.683S200
G1 X-4.455S0
G1 X-16.002S200
G1 X-4.469S0
G1 X-8.733S200
G1 X-4.246S0
G1 X-29.918S200
G1 X-2.5S0
G1 X-0.05Y0.1
G1 X2.5
G1 X29.968S200
G1 X4.246S0
G1 X8.773S200
G1 X4.454S0
G1 X15.952S200
G1 X4.439S0
G1 X9.724S200
G1 X4.306S0
G1 X13.509S200
G1 X4.514S0
G1 X7.21S200
G1 X4.454S0
G1 X15.952S200
G1 X4.44S0
G1 X9.925S200
G1 X1.69S0
G1 X1.882S200
G1 X4.965S0
G1 X11.886S200
G1 X1.73S0
G1 X21.421S200
G1 X2.5S0
G1 X0.049Y0.1
G1 X-2.5
G1 X-21.47S200
G1 X-1.73S0
G1 X-11.962S200
G1 X-4.965S0
G1 X-1.806S200
G1 X-1.69S0
G1 X-9.966S200
G1 X-4.425S0
G1 X-15.9S200
G1 X-4.438S0
G1 X-7.297S200
G1 X-4.499S0
G1 X-13.479S200
G1 X-4.306S0
G1 X-9.765S200
G1 X-4.424S0
G1 X-15.9S200
G1 X-4.438S0
G1 X-8.815S200
G1 X-4.246S0
G1 X-30.018S200
G1 X-2.5S0
G1 X-0.05Y0.1
G1 X2.5
G1 X30.068S200
G1 X4.246S0
G1 X8.863S200
G1 X4.419S0
G1 X15.845S200
G1 X4.401S0
G1 X9.814S200
G1 X4.306S0
G1 X13.449S200
G1 X4.485S0
G1 X7.389S200
G1 X4.419S0
G1 X15.845S200
G1 X4.402S0
G1 X10.015S200
G1 X1.69S0
G1 X1.729S200
G1 X4.965S0
G1 X12.039S200
G1 X1.73S0
G1 X21.52S200
G1 X2.5S0
G1 X0.05Y0.1
G1 X-2.5
G1 X-21.57S200
G1 X-1.73S0
G1 X-12.116S200
G1 X-4.964S0
G1 X-1.653S200
G1 X-1.69S0
G1 X-10.064S200
G1 X-4.38S0
G1 X-15.789S200
G1 X-4.4S0
G1 X-7.482S200
G1 X-4.471S0
G1 X-13.418S200
G1 X-4.306S0
G1 X-9.863S200
G1 X-4.379S0
G1 X-15.789S200
G1 X-4.4S0
G1 X-8.911S200
G1 X-4.246S0
G1 X-30.118S200
G1 X-2.5S0
G1 X-0.051Y0.1
G1 X2.5
G1 X30.169S200
G1 X4.246S0
G1 X8.959S200
G1 X4.382S0
G1 X15.726S200
G1 X4.364S0
G1 X9.911S200
G1 X4.306S0
G1 X13.384S200
G1 X4.46S0
G1 X7.575S200
G1 X4.382S0
G1 X15.726S200
G1 X4.365S0
G1 X10.112S200
G1 X1.69S0
G1 X1.577S200
G1 X4.963S0
G1 X12.193S200
G1 X1.73S0
G1 X21.62S200
G1 X2.5S0
G1 X0.05Y0.1
G1 X-2.5
G1 X-21.67S200
G1 X-1.73S0
G1 X-12.269S200
G1 X-4.964S0
G1 X-1.5S200
G1 X-1.69S0
G1 X-10.161S200
G1 X-4.348S0
G1 X-15.665S200
G1 X-4.363S0
G1 X-7.667S200
G1 X-4.451S0
G1 X-13.349S200
G1 X-4.306S0
G1 X-9.96S200
G1 X-4.347S0
G1 X-15.665S200
G1 X-4.363S0
G1 X-9.007S200
G1 X-4.246S0
G1 X-30.219S200
G1 X-2.5S0
G1 X-0.05Y0.1
G1 X2.5
G1 X30.269S200
G1 X4.246S0
G1 X9.055S200
G1 X4.344S0
G1 X15.603S200
G1 X4.331S0
G1 X10.009S200
G1 X4.306S0
G1 X13.313S200
G1 X4.442S0
G1 X7.76S200
G1 X4.344S0
G1 X15.603S200
G1 X4.332S0
G1 X10.21S200
G1 X1.69S0
G1 X1.424S200
G1 X4.963S0
G1 X12.346S200
G1 X1.73S0
G1 X21.719S200
G1 X2.5S0
G1 X0.05Y0.1
G1 X-2.5
G1 X-21.769S200
G1 X-1.73S0
G1 X-12.423S200
G1 X-4.962S0
G1 X-1.348S200
G1 X-1.69S0
G1 X-10.259S200
G1 X-4.315S0
G1 X-15.541S200
G1 X-4.326S0
G1 X-7.854S200
G1 X-4.431S0
G1 X-13.278S200
G1 X-4.306S0
G1 X-10.058S200
G1 X-4.314S0
G1 X-15.541S200
G1 X-4.326S0
G1 X-9.103S200
G1 X-4.246S0
G1 X-30.319S200
G1 X-2.5S0
G1 X-0.05Y0.1
G1 X2.5
G1 X30.369S200
G1 X4.246S0
G1 X9.151S200
G1 X4.312S0
G1 X15.475S200
G1 X4.297S0
G1 X10.107S200
G1 X4.306S0
G1 X13.243S200
G1 X4.413S0
G1 X7.955S200
G1 X4.312S0
G1 X15.475S200
G1 X4.298S0
G1 X10.308S200
G1 X1.69S0
G1 X1.271S200
G1 X4.962S0
G1 X12.5S200
G1 X1.73S0
G1 X21.819S200
G1 X2.5S0
G1 X0.05Y0.1
G1 X-2.5
G1 X-21.869S200
G1 X-1.73S0
G1 X-12.576S200
G1 X-4.962S0
G1 X-1.195S200
G1 X-1.69S0
G1 X-10.356S200
G1 X-4.283S0
G1 X-15.408S200
G1 X-4.298S0
G1 X-8.057S200
G1 X-4.394S0
G1 X-13.208S200
G1 X-4.306S0
G1 X-10.155S200
G1 X-4.282S0
G1 X-15.408S200
G1 X-4.298S0
G1 X-9.199S200
G1 X-4.246S0
G1 X-30.419S200
G1 X-2.5S0
G1 X-0.05Y0.1
G1 X2.5
G1 X30.469S200
G1 X4.246S0
G1 X9.249S200
G1 X4.283S0
G1 X15.341S200
G1 X4.265S0
G1 X10.204S200
G1 X4.306S0
G1 X13.168S200
G1 X4.38S0
G1 X8.161S200
G1 X4.283S0
G1 X15.341S200
G1 X4.266S0
G1 X10.405S200
G1 X1.69S0
G1 X1.119S200
G1 X4.961S0
G1 X12.653S200
G1 X1.73S0
G1 X21.919S200
G1 X2.5S0
G1 X0.05Y0.1
G1 X-2.5
G1 X-21.969S200
G1 X-1.73S0
G1 X-12.73S200
G1 X-4.961S0
G1 X-1.042S200
G1 X-1.69S0
G1 X-10.461S200
G1 X-4.245S0
G1 X-15.272S200
G1 X-4.261S0
G1 X-8.271S200
G1 X-4.367S0
G1 X-13.127S200
G1 X-4.306S0
G1 X-10.26S200
G1 X-4.244S0
G1 X-15.272S200
G1 X-4.261S0
G1 X-9.305S200
G1 X-4.246S0
G1 X-30.519S200
G1 X-2.5S0
G1 X-0.05Y0.1
G1 X2.5
G1 X30.569S200
G1 X4.246S0
G1 X9.361S200
G1 X4.239S0
G1 X15.198S200
G1 X4.228S0
G1 X10.316S200
G1 X4.306S0
G1 X13.087S200
G1 X4.353S0
G1 X8.381S200
G1 X4.239S0
G1 X15.198S200
G1 X4.229S0
G1 X10.517S200
G1 X1.69S0
G1 X0.966S200
G1 X4.96S0
G1 X12.807S200
G1 X1.73S0
G1 X22.018S200
G1 X2.5S0
G1 X0.05Y0.1
G1 X-2.5
G1 X-22.068S200
G1 X-1.73S0
G1 X-12.884S200
G1 X-4.959S0
G1 X-0.89S200
G1 X-1.69S0
G1 X-10.574S200
G1 X-4.211S0
G1 X-15.123S200
G1 X-4.218S0
G1 X-8.492S200
G1 X-4.34S0
G1 X-13.046S200
G1 X-4.306S0
G1 X-10.373S200
G1 X-4.21S0
G1 X-15.123S200
G1 X-4.218S0
G1 X-9.418S200
G1 X-4.246S0
G1 X-30.618S200
G1 X-2.5S0
G1 X-0.048Y0.1
G1 X2.5
G1 X30.666S200
G1 X4.246S0
G1 X9.474S200
G1 X4.201S0
G1 X15.045S200
G1 X4.193S0
G1 X10.429S200
G1 X4.306S0
G1 X13.005S200
G1 X4.328S0
G1 X8.601S200
G1 X4.201S0
G1 X15.045S200
G1 X4.194S0
G1 X10.63S200
G1 X1.69S0
G1 X0.813S200
G1 X4.96S0
G1 X12.96S200
G1 X1.73S0
G1 X22.118S200
G1 X2.5S0
G1 X0.048Y0.1
G1 X-2.5
G1 X-22.166S200
G1 X-1.731S0
G1 X-13.036S200
G1 X-4.959S0
G1 X-0.737S200
G1 X-1.69S0
G1 X-10.686S200
G1 X-4.177S0
G1 X-14.966S200
G1 X-4.185S0
G1 X-8.711S200
G1 X-4.315S0
G1 X-12.964S200
G1 X-4.306S0
G1 X-10.485S200
G1 X-4.176S0
G1 X-14.966S200
G1 X-4.185S0
G1 X-9.53S200
G1 X-4.246S0
G1 X-30.713S200
G1 X-2.5S0
G1 X-0.048Y0.1
G1 X2.5
G1 X30.761S200
G1 X4.246S0
G1 X9.586S200
G1 X4.169S0
G1 X14.887S200
G1 X4.159S0
G1 X10.541S200
G1 X4.306S0
G1 X12.917S200
G1 X4.308S0
G1 X8.821S200
G1 X4.169S0
G1 X14.887S200
G1 X4.16S0
G1 X10.742S200
G1 X1.69S0
G1 X0.661S200
G1 X4.958S0
G1 X13.11S200
G1 X1.734S0
G1 X22.213S200
G1 X2.5S0
G1 X0.048Y0.1
G1 X-2.5
G1 X-22.261S200
G1 X-1.737S0
G1 X-13.184S200
G1 X-4.958S0
G1 X-0.584S200
G1 X-1.69S0
G1 X-10.798S200
G1 X-4.144S0
G1 X-14.808S200
G1 X-4.152S0
G1 X-8.939S200
G1 X-4.293S0
G1 X-12.87S200
G1 X-4.306S0
G1 X-10.597S200
G1 X-4.143S0
G1 X-14.808S200
G1 X-4.152S0
G1 X-9.642S200
G1 X-4.246S0
G1 X-30.809S200
G1 X-2.5S0
G1 X-0.047Y0.1
G1 X2.5
G1 X30.856S200
G1 X4.246S0
G1 X9.699S200
G1 X4.135S0
G1 X14.728S200
G1 X4.127S0
G1 X10.653S200
G1 X4.306S0
G1 X12.823S200
G1 X4.278S0
G1 X9.058S200
G1 X4.135S0
G1 X14.728S200
G1 X4.128S0
G1 X10.854S200
G1 X1.69S0
