; LightBurn Pro 2.0.05
; GRBL device profile, current position
; Bounds: X-105 Y-99.95 to X105 Y99.95
G00 G17 G40 G21 G54
G91
M4
; Scan @ 12000 mm/min, 50% power
M8
G0 X-7.94Y-99.95
; Layer C27
G1 X5F12000S0
G1 X5.929S500
G1 X5S0
G1 X2.345Y0.1
G1 X-5
G1 X-10.666S500
G1 X-5S0
G1 X-1.618Y0.1
G1 X5
G1 X13.973S500
G1 X5S0
G1 X1.265Y0.1
G1 X-5
G1 X-16.61S500
G1 X-5S0
G1 X-1.073Y0.1
G1 X5
G1 X18.822S500
G1 X5S0
G1 X0.98Y0.1
G1 X-5
G1 X-20.867S500
G1 X-5S0
G1 X-0.879Y0.1
G1 X5
G1 X22.691S500
G1 X5S0
G1 X0.803Y0.1
G1 X-5
G1 X-24.374S500
G1 X-5S0
G1 X-0.781Y0.1
G1 X5
G1 X25.958S500
G1 X5S0
G1 X0.746Y0.1
G1 X-5
G1 X-27.422S500
G1 X-5S0
G1 X-0.719Y0.1
G1 X5
G1 X28.821S500
G1 X5S0
G1 X0.681Y0.1
G1 X-5
G1 X-30.16S500
G1 X-5S0
G1 X-0.622Y0.1
G1 X5
G1 X31.44S500
G1 X5S0
G1 X0.591Y0.1
G1 X-5
G1 X-32.654S500
G1 X-5S0
G1 X-0.607Y0.1
G1 X5
G1 X33.853S500
G1 X5S0
G1 X0.591Y0.1
G1 X-5
G1 X-34.992S500
G1 X-5S0
G1 X-0.549Y0.1
G1 X5
G1 X36.095S500
G1 X5S0
G1 X0.523Y0.1
G1 X-5
G1 X-37.166S500
G1 X-5S0
G1 X-0.529Y0.1
G1 X5
G1 X38.218S500
G1 X5S0
G1 X0.523Y0.1
G1 X-5
G1 X-39.23S500
G1 X-5S0
G1 X-0.49Y0.1
G1 X5
G1 X40.222S500
G1 X5S0
G1 X0.47Y0.1
G1 X-5
G1 X-41.182S500
G1 X-5S0
G1 X-0.489Y0.1
G1 X5
G1 X42.141S500
G1 X5S0
G1 X0.469Y0.1
G1 X-5
G1 X-43.052S500
G1 X-5S0
G1 X-0.441Y0.1
G1 X5
G1 X43.963S500
G1 X5S0
G1 X0.429Y0.1
G1 X-5
G1 X-44.834S500
G1 X-5S0
G1 X-0.442Y0.1
G1 X5
G1 X45.693S500
G1 X5S0
G1 X0.417Y0.1
G1 X-5
G1 X-46.542S500
G1 X-5S0
G1 X-0.403Y0.1
G1 X5
G1 X47.362S500
G1 X5S0
G1 X0.417Y0.1
G1 X-5
G1 X-48.181S500
G1 X-5S0
G1 X-0.402Y0.1
G1 X5
G1 X48.974S500
G1 X5S0
G1 X0.382Y0.1
G1 X-5
G1 X-49.758S500
G1 X-5S0
G1 X-0.401Y0.1
G1 X5
G1 X50.541S500
G1 X5S0
G1 X0.383Y0.1
G1 X-5
G1 X-51.293S500
G1 X-5S0
G1 X-0.369Y0.1
G1 X5
G1 X52.044S500
G1 X5S0
G1 X0.372Y0.1
G1 X-5
G1 X-52.784S500
G1 X-5S0
G1 X-0.369Y0.1
G1 X5
G1 X53.506S500
G1 X5S0
G1 X0.352Y0.1
G1 X-5
G1 X-54.226S500
G1 X-5S0
G1 X-0.359Y0.1
G1 X5
G1 X54.937S500
G1 X5S0
G1 X0.352Y0.1
G1 X-5
G1 X-55.629S500
G1 X-5S0
G1 X-0.339Y0.1
G1 X5
G1 X56.32S500
G1 X5S0
G1 X0.341Y0.1
G1 X-5
G1 X-57.001S500
G1 X-5S0
G1 X-0.34Y0.1
G1 X5
G1 X57.667S500
G1 X5S0
G1 X0.326Y0.1
G1 X-5
G1 X-58.333S500
G1 X-5S0
G1 X-0.333Y0.1
G1 X5
G1 X58.992S500
G1 X5S0
G1 X0.325Y0.1
G1 X-5
G1 X-59.63S500
G1 X-5S0
G1 X-0.312Y0.1
G1 X5
G1 X60.268S500
G1 X5S0
G1 X0.323Y0.1
G1 X-5
G1 X-60.904S500
G1 X-5S0
G1 X-0.312Y0.1
G1 X5
G1 X61.519S500
G1 X5S0
G1 X0.302Y0.1
G1 X-5
G1 X-62.134S500
G1 X-5S0
G1 X-0.308Y0.1
G1 X5
G1 X62.745S500
G1 X5S0
G1 X0.302Y0.1
G1 X-5
G1 X-63.339S500
G1 X-5S0
G1 X-0.292Y0.1
G1 X5
G1 X63.934S500
G1 X5S0
G1 X0.303Y0.1
G1 X-5
G1 X-64.529S500
G1 X-5S0
G1 X-0.293Y0.1
G1 X5
G1 X65.117S500
G1 X5S0
G1 X0.282Y0.1
G1 X-5
G1 X-65.691S500
G1 X-5S0
G1 X-0.292Y0.1
G1 X5
G1 X66.264S500
G1 X5S0
G1 X0.282Y0.1
G1 X-5
G1 X-66.824S500
G1 X-5S0
G1 X-0.274Y0.1
G1 X5
G1 X67.38S500
G1 X5S0
G1 X0.282Y0.1
G1 X-5
G1 X-67.936S500
G1 X-5S0
G1 X-0.275Y0.1
G1 X5
G1 X68.493S500
G1 X5S0
G1 X0.279Y0.1
G1 X-5
G1 X-69.046S500
G1 X-5S0
G1 X-0.275Y0.1
G1 X5
G1 X69.584S500
G1 X5S0
G1 X0.264Y0.1
G1 X-5
G1 X-70.121S500
G1 X-5S0
G1 X-0.259Y0.1
G1 X5
G1 X70.643S500
G1 X5S0
G1 X0.263Y0.1
G1 X-5
G1 X-71.164S500
G1 X-5S0
G1 X-0.259Y0.1
G1 X5
G1 X71.686S500
G1 X5S0
G1 X0.264Y0.1
G1 X-5
G1 X-72.209S500
G1 X-5S0
G1 X-0.258Y0.1
G1 X5
G1 X72.73S500
G1 X5S0
G1 X0.255Y0.1
G1 X-5
G1 X-73.244S500
G1 X-5S0
G1 X-0.258Y0.1
G1 X5
G1 X73.749S500
G1 X5S0
G1 X0.246Y0.1
G1 X-5
G1 X-74.241S500
G1 X-5S0
G1 X-0.244Y0.1
G1 X5
G1 X74.732S500
G1 X5S0
G1 X0.246Y0.1
G1 X-5
G1 X-75.223S500
G1 X-5S0
G1 X-0.244Y0.1
G1 X5
G1 X75.714S500
G1 X5S0
G1 X0.246Y0.1
G1 X-5
G1 X-76.205S500
G1 X-5S0
G1 X-0.244Y0.1
G1 X5
G1 X76.696S500
G1 X5S0
G1 X0.241Y0.1
G1 X-5
G1 X-77.182S500
G1 X-5S0
G1 X-0.239Y0.1
G1 X5
G1 X77.653S500
G1 X5S0
G1 X0.233Y0.1
G1 X-5
G1 X-78.117S500
G1 X-5S0
G1 X-0.232Y0.1
G1 X5
G1 X78.581S500
G1 X5S0
G1 X0.232Y0.1
G1 X-5
G1 X-79.045S500
G1 X-5S0
G1 X-0.232Y0.1
G1 X5
G1 X79.509S500
G1 X4.999S0
G1 X0.232Y0.1
G1 X-5
G1 X-79.973S500
G1 X-5S0
G1 X-0.232Y0.1
G1 X5
G1 X80.437S500
G1 X5S0
G1 X0.232Y0.1
G1 X-5
G1 X-80.901S500
G1 X-5S0
G1 X-0.225Y0.1
G1 X5
G1 X81.347S500
G1 X5S0
G1 X0.22Y0.1
G1 X-5
G1 X-81.787S500
G1 X-5S0
G1 X-0.22Y0.1
G1 X5
G1 X82.226S500
G1 X5S0
G1 X0.22Y0.1
G1 X-5
G1 X-82.666S500
G1 X-5S0
G1 X-0.221Y0.1
G1 X5
G1 X83.106S500
G1 X5S0
G1 X0.22Y0.1
G1 X-5
G1 X-38.601S500
G1 X-6.335S0
G1 X-38.61S500
G1 X-5S0
G1 X-0.22Y0.1
G1 X5
G1 X36.658S500
G1 X10.679S0
G1 X36.649S500
G1 X5S0
G1 X0.219Y0.1
G1 X-5
G1 X-35.404S500
G1 X-13.607S0
G1 X-35.414S500
G1 X-5S0
G1 X-0.216Y0.1
G1 X5
G1 X34.403S500
G1 X16.06S0
G1 X34.398S500
G1 X5S0
G1 X0.207Y0.1
G1 X-5
G1 X-33.527S500
G1 X-18.216S0
G1 X-33.535S500
G1 X-5S0
G1 X-0.21Y0.1
G1 X5
G1 X32.824S500
G1 X20.058S0
G1 X32.814S500
G1 X5S0
G1 X0.208Y0.1
G1 X-5
G1 X-32.141S500
G1 X-21.82S0
G1 X-32.152S500
G1 X-5S0
G1 X-0.21Y0.1
G1 X5
G1 X31.576S500
G1 X23.392S0
G1 X31.563S500
G1 X5S0
G1 X0.208Y0.1
G1 X-5
G1 X-31.026S500
G1 X-24.882S0
G1 X-31.041S500
G1 X-5S0
G1 X-0.209Y0.1
G1 X5
G1 X30.528S500
G1 X26.326S0
G1 X30.511S500
G1 X5S0
G1 X0.208Y0.1
G1 X-5
G1 X-30.074S500
G1 X-27.616S0
G1 X-30.093S500
G1 X-5S0
G1 X-0.21Y0.1
G1 X5
G1 X29.659S500
G1 X28.904S0
G1 X29.637S500
G1 X5S0
G1 X0.208Y0.1
G1 X-5
G1 X-29.23S500
G1 X-30.136S0
G1 X-29.242S500
G1 X-5S0
G1 X-0.197Y0.1
G1 X5
G1 X28.871S500
G1 X31.272S0
G1 X28.862S500
G1 X5S0
G1 X0.197Y0.1
G1 X-5
G1 X-28.491S500
G1 X-32.407S0
G1 X-28.502S500
G1 X-5S0
G1 X-0.197Y0.1
G1 X5
G1 X28.141S500
G1 X33.522S0
G1 X28.131S500
G1 X5S0
G1 X0.197Y0.1
G1 X-5
G1 X-27.82S500
G1 X-34.537S0
G1 X-27.831S500
G1 X-5S0
G1 X-0.198Y0.1
G1 X5
G1 X27.521S500
G1 X35.552S0
G1 X27.51S500
G1 X5S0
G1 X0.197Y0.1
G1 X-5
G1 X-27.2S500
G1 X-36.566S0
G1 X-27.211S500
G1 X-5S0
G1 X-0.198Y0.1
G1 X5
G1 X26.931S500
G1 X37.522S0
G1 X26.918S500
G1 X5S0
G1 X0.197Y0.1
G1 X-5
G1 X-26.657S500
G1 X-38.438S0
G1 X-26.67S500
G1 X-5S0
G1 X-0.196Y0.1
G1 X5
G1 X26.408S500
G1 X39.354S0
G1 X26.396S500
G1 X5S0
G1 X0.197Y0.1
G1 X-5
G1 X-26.135S500
G1 X-40.269S0
G1 X-26.138S500
G1 X-5S0
G1 X-0.188Y0.1
G1 X5
G1 X25.893S500
G1 X41.134S0
G1 X25.89S500
G1 X5S0
G1 X0.187Y0.1
G1 X-5
G1 X-25.66S500
G1 X-41.967S0
G1 X-25.664S500
G1 X-5S0
G1 X-0.187Y0.1
G1 X5
G1 X25.434S500
G1 X42.8S0
G1 X25.431S500
G1 X5S0
G1 X0.187Y0.1
G1 X-5
G1 X-25.201S500
G1 X-43.634S0
G1 X-25.205S500
G1 X-5S0
G1 X-0.187Y0.1
G1 X5
G1 X24.986S500
G1 X44.447S0
G1 X24.98S500
G1 X5S0
G1 X0.187Y0.1
G1 X-5
G1 X-24.785S500
G1 X-45.212S0
G1 X-24.79S500
G1 X-5S0
G1 X-0.188Y0.1
G1 X5
G1 X24.596S500
G1 X45.976S0
G1 X24.59S500
G1 X5S0
G1 X0.187Y0.1
G1 X-5
G1 X-24.394S500
G1 X-46.741S0
G1 X-24.401S500
G1 X-5S0
G1 X-0.187Y0.1
G1 X5
G1 X24.205S500
G1 X47.506S0
G1 X24.198S500
G1 X5S0
G1 X0.187Y0.1
G1 X-5
G1 X-24.021S500
G1 X-48.234S0
G1 X-24.02S500
G1 X-5S0
G1 X-0.178Y0.1
G1 X5
G1 X23.845S500
G1 X48.94S0
G1 X23.847S500
G1 X5S0
G1 X0.178Y0.1
G1 X-5
G1 X-23.672S500
G1 X-49.645S0
G1 X-23.671S500
G1 X-5S0
G1 X-0.178Y0.1
G1 X5
G1 X23.496S500
G1 X50.35S0
G1 X23.497S500
G1 X5S0
G1 X0.177Y0.1
G1 X-5
G1 X-23.321S500
G1 X-51.056S0
G1 X-23.321S500
G1 X-5S0
G1 X-0.178Y0.1
G1 X5
G1 X23.161S500
G1 X51.732S0
G1 X23.16S500
G1 X5S0
G1 X0.178Y0.1
G1 X-5
G1 X-23.01S500
G1 X-52.387S0
G1 X-23.012S500
G1 X-5S0
G1 X-0.178Y0.1
G1 X5
G1 X22.862S500
G1 X53.042S0
G1 X22.86S500
G1 X5S0
G1 X0.177Y0.1
G1 X-5
G1 X-22.71S500
G1 X-53.696S0
G1 X-22.713S500
G1 X-5S0
G1 X-0.178Y0.1
G1 X5
G1 X22.564S500
G1 X54.351S0
G1 X22.56S500
G1 X5S0
G1 X0.177Y0.1
G1 X-5
G1 X-22.414S500
G1 X-54.998S0
G1 X-22.414S500
G1 X-5S0
G1 X-0.17Y0.1
G1 X5
G1 X22.279S500
G1 X55.608S0
G1 X22.284S500
G1 X5S0
G1 X0.169Y0.1
G1 X-5
G1 X-22.148S500
G1 X-56.218S0
G1 X-22.143S500
G1 X-5S0
G1 X-0.17Y0.1
G1 X5
G1 X22.008S500
G1 X56.828S0
G1 X22.011S500
G1 X5S0
G1 X0.168Y0.1
G1 X-5
G1 X-21.874S500
G1 X-57.438S0
G1 X-21.873S500
G1 X-5S0
G1 X-0.169Y0.1
G1 X5
G1 X21.737S500
G1 X58.048S0
G1 X21.738S500
G1 X5S0
G1 X0.168Y0.1
G1 X-5
G1 X-21.609S500
G1 X-58.642S0
G1 X-21.61S500
G1 X-5S0
G1 X-0.169Y0.1
G1 X5
G1 X21.494S500
G1 X59.212S0
G1 X21.493S500
G1 X5S0
G1 X0.168Y0.1
G1 X-5
G1 X-21.376S500
G1 X-59.782S0
G1 X-21.379S500
G1 X-5S0
G1 X-0.169Y0.1
G1 X5
G1 X21.263S500
G1 X60.352S0
G1 X21.26S500
G1 X5S0
G1 X0.168Y0.1
G1 X-5
G1 X-21.142S500
G1 X-60.923S0
G1 X-21.148S500
G1 X-5S0
G1 X-0.165Y0.1
G1 X5
G1 X21.027S500
G1 X61.494S0
G1 X21.026S500
G1 X5S0
G1 X0.166Y0.1
G1 X-5
G1 X-20.912S500
G1 X-62.054S0
G1 X-20.909S500
G1 X-5S0
G1 X-0.162Y0.1
G1 X5
G1 X20.803S500
G1 X62.59S0
G1 X20.804S500
G1 X5S0
G1 X0.16Y0.1
G1 X-5
G1 X-20.697S500
G1 X-63.124S0
G1 X-20.697S500
G1 X-5S0
G1 X-0.162Y0.1
G1 X5
G1 X20.591S500
G1 X63.66S0
G1 X20.589S500
G1 X5S0
G1 X0.16Y0.1
G1 X-5
G1 X-20.481S500
G1 X-64.195S0
G1 X-20.485S500
G1 X-5S0
G1 X-0.162Y0.1
G1 X5
G1 X20.379S500
G1 X64.73S0
G1 X20.375S500
G1 X5S0
G1 X0.16Y0.1
G1 X-5
G1 X-20.267S500
G1 X-65.266S0
G1 X-20.273S500
G1 X-5S0
G1 X-0.161Y0.1
G1 X5
G1 X20.179S500
G1 X65.776S0
G1 X20.172S500
G1 X5S0
G1 X0.16Y0.1
G1 X-5
G1 X-20.08S500
G1 X-66.28S0
G1 X-20.089S500
G1 X-5S0
G1 X-0.161Y0.1
G1 X5
G1 X19.999S500
G1 X66.783S0
G1 X19.988S500
G1 X5S0
G1 X0.16Y0.1
G1 X-5
G1 X-19.896S500
G1 X-67.287S0
G1 X-19.908S500
G1 X-5S0
G1 X-0.154Y0.1
G1 X5
G1 X19.81S500
G1 X67.79S0
G1 X19.805S500
G1 X5S0
G1 X0.156Y0.1
G1 X-5
G1 X-19.709S500
G1 X-68.294S0
G1 X-19.712S500
G1 X-5S0
G1 X-0.155Y0.1
G1 X5
G1 X19.615S500
G1 X68.798S0
G1 X19.611S500
G1 X5S0
G1 X0.154Y0.1
G1 X-5
G1 X-19.527S500
G1 X-69.274S0
G1 X-19.531S500
G1 X-5S0
G1 X-0.154Y0.1
G1 X5
G1 X19.447S500
G1 X69.75S0
G1 X19.443S500
G1 X5S0
G1 X0.154Y0.1
G1 X-5
G1 X-19.359S500
G1 X-70.225S0
G1 X-19.364S500
G1 X-5S0
G1 X-0.155Y0.1
G1 X5
G1 X19.281S500
G1 X70.7S0
G1 X19.276S500
G1 X5S0
G1 X0.154Y0.1
G1 X-5
G1 X-19.192S500
G1 X-71.176S0
G1 X-19.197S500
G1 X-5S0
G1 X-0.154Y0.1
G1 X5
G1 X19.114S500
G1 X71.65S0
G1 X19.11S500
G1 X5S0
G1 X0.154Y0.1
G1 X-5
G1 X-19.026S500
G1 X-72.126S0
G1 X-19.03S500
G1 X-5S0
G1 X-0.154Y0.1
G1 X5
G1 X18.957S500
G1 X72.581S0
G1 X18.952S500
G1 X5S0
G1 X0.154Y0.1
G1 X-5
G1 X-18.882S500
G1 X-73.03S0
G1 X-18.884S500
G1 X-5S0
G1 X-0.147Y0.1
G1 X5
G1 X18.806S500
G1 X73.48S0
G1 X18.811S500
G1 X5S0
G1 X0.148Y0.1
G1 X-5
G1 X-18.734S500
G1 X-73.93S0
G1 X-18.729S500
G1 X-5S0
G1 X-0.147Y0.1
G1 X5
G1 X18.652S500
G1 X74.378S0
G1 X18.656S500
G1 X5S0
G1 X0.147Y0.1
G1 X-5
G1 X-18.578S500
G1 X-74.828S0
G1 X-18.574S500
G1 X-5S0
G1 X-0.148Y0.1
G1 X5
G1 X18.497S500
G1 X75.278S0
G1 X18.499S500
G1 X5S0
G1 X0.147Y0.1
G1 X-5
G1 X-18.424S500
G1 X-75.721S0
G1 X-18.423S500
G1 X-5S0
G1 X-0.147Y0.1
G1 X5
G1 X18.357S500
G1 X76.147S0
G1 X18.357S500
G1 X5S0
G1 X0.147Y0.1
G1 X-5
G1 X-18.292S500
G1 X-76.572S0
G1 X-18.292S500
G1 X-5S0
G1 X-0.147Y0.1
G1 X5
G1 X18.226S500
G1 X76.998S0
G1 X18.225S500
G1 X5S0
G1 X0.147Y0.1
G1 X-5
G1 X-18.159S500
G1 X-77.424S0
G1 X-18.16S500
G1 X-5S0
G1 X-0.148Y0.1
G1 X5
G1 X18.095S500
G1 X77.85S0
G1 X18.092S500
G1 X5S0
G1 X0.147Y0.1
G1 X-5
G1 X-18.026S500
G1 X-78.276S0
G1 X-18.028S500
G1 X-5S0
G1 X-0.141Y0.1
G1 X5
G1 X17.956S500
G1 X78.702S0
G1 X17.959S500
G1 X5S0
G1 X0.143Y0.1
G1 X-5
G1 X-17.893S500
G1 X-79.12S0
G1 X-17.887S500
G1 X-5S0
G1 X-0.141Y0.1
G1 X5
G1 X17.826S500
G1 X79.524S0
G1 X17.831S500
G1 X5S0
G1 X0.139Y0.1
G1 X-5
G1 X-17.768S500
G1 X-79.928S0
G1 X-17.765S500
G1 X-5S0
G1 X-0.141Y0.1
G1 X5
G1 X17.704S500
G1 X80.332S0
G1 X17.706S500
G1 X5S0
G1 X0.14Y0.1
G1 X-5
G1 X-17.644S500
G1 X-80.736S0
G1 X-17.643S500
G1 X-5S0
G1 X-0.141Y0.1
G1 X5
G1 X17.582S500
G1 X81.141S0
G1 X17.58S500
G1 X5S0
G1 X0.14Y0.1
G1 X-5
G1 X-17.518S500
G1 X-81.545S0
G1 X-17.521S500
G1 X-5S0
G1 X-0.141Y0.1
G1 X5
G1 X17.459S500
G1 X81.95S0
G1 X17.455S500
G1 X5S0
G1 X0.14Y0.1
G1 X-5
G1 X-17.395S500
G1 X-82.35S0
G1 X-17.4S500
G1 X-5S0
G1 X-0.14Y0.1
G1 X5
G1 X17.348S500
G1 X82.734S0
G1 X17.341S500
G1 X5S0
G1 X0.14Y0.1
G1 X-5
G1 X-17.289S500
G1 X-83.119S0
G1 X-17.297S500
G1 X-5S0
G1 X-0.137Y0.1
G1 X5
G1 X17.241S500
G1 X83.504S0
G1 X17.236S500
G1 X5S0
G1 X0.14Y0.1
G1 X-5
G1 X-17.184S500
G1 X-83.888S0
G1 X-17.183S500
G1 X-5S0
G1 X-0.134Y0.1
G1 X5
G1 X17.125S500
G1 X84.272S0
G1 X17.127S500
G1 X5S0
G1 X0.133Y0.1
G1 X-5
G1 X-17.068S500
G1 X-84.656S0
G1 X-17.068S500
G1 X-5S0
G1 X-0.134Y0.1
G1 X5
G1 X17.01S500
G1 X85.04S0
G1 X17.009S500
G1 X5S0
G1 X0.133Y0.1
G1 X-5
G1 X-16.949S500
G1 X-85.425S0
G1 X-16.952S500
G1 X-5S0
G1 X-0.135Y0.1
G1 X5
G1 X16.9S500
G1 X85.798S0
G1 X16.896S500
G1 X5S0
G1 X0.133Y0.1
G1 X-5
G1 X-16.846S500
G1 X-86.164S0
G1 X-16.851S500
G1 X-5S0
G1 X-0.135Y0.1
G1 X5
G1 X16.803S500
G1 X86.53S0
G1 X16.796S500
G1 X5S0
G1 X0.133Y0.1
G1 X-5
G1 X-16.746S500
G1 X-86.896S0
G1 X-16.754S500
G1 X-5S0
G1 X-0.131Y0.1
G1 X5
G1 X16.702S500
G1 X87.262S0
G1 X16.696S500
G1 X5S0
G1 X0.133Y0.1
G1 X-5
G1 X-16.646S500
G1 X-87.628S0
G1 X-16.649S500
G1 X-5S0
G1 X-0.13Y0.1
G1 X5
G1 X16.596S500
G1 X87.994S0
G1 X16.596S500
G1 X5S0
G1 X0.134Y0.1
G1 X-5
G1 X-16.547S500
G1 X-88.359S0
G1 X-16.544S500
G1 X-5S0
G1 X-0.13Y0.1
G1 X5
G1 X16.491S500
G1 X88.725S0
G1 X16.497S500
G1 X5S0
G1 X0.13Y0.1
G1 X-5
G1 X-16.45S500
G1 X-89.079S0
G1 X-16.444S500
G1 X-5S0
G1 X-0.13Y0.1
G1 X5
G1 X16.399S500
G1 X89.428S0
G1 X16.403S500
G1 X5S0
G1 X0.127Y0.1
G1 X-5
G1 X-16.356S500
G1 X-89.776S0
G1 X-16.355S500
G1 X-5S0
G1 X-0.13Y0.1
G1 X5
G1 X16.31S500
G1 X90.126S0
G1 X16.308S500
G1 X5S0
G1 X0.127Y0.1
G1 X-5
G1 X-16.261S500
G1 X-90.474S0
G1 X-16.266S500
G1 X-5S0
G1 X-0.128Y0.1
G1 X5
G1 X16.22S500
G1 X90.823S0
G1 X16.213S500
G1 X5S0
G1 X0.127Y0.1
G1 X-5
G1 X-16.166S500
G1 X-91.172S0
G1 X-16.171S500
G1 X-5S0
G1 X-0.125Y0.1
G1 X5
G1 X16.122S500
G1 X91.52S0
G1 X16.119S500
G1 X5S0
G1 X0.127Y0.1
G1 X-5
G1 X-16.071S500
G1 X-91.869S0
G1 X-16.074S500
G1 X-5S0
G1 X-0.125Y0.1
G1 X5
G1 X16.028S500
G1 X92.211S0
G1 X16.027S500
G1 X5S0
G1 X0.127Y0.1
G1 X-5
G1 X-15.988S500
G1 X-92.544S0
G1 X-15.987S500
G1 X-5S0
G1 X-0.126Y0.1
G1 X5
G1 X15.947S500
G1 X92.876S0
G1 X15.949S500
G1 X5S0
G1 X0.127Y0.1
G1 X-5
G1 X-15.909S500
G1 X-93.209S0
G1 X-15.906S500
G1 X-5S0
G1 X-0.126Y0.1
G1 X5
G1 X15.865S500
G1 X93.542S0
G1 X15.87S500
G1 X5S0
G1 X0.122Y0.1
G1 X-5
G1 X-15.826S500
G1 X-93.874S0
G1 X-15.825S500
G1 X-5S0
G1 X-0.125Y0.1
G1 X5
G1 X15.783S500
G1 X94.208S0
G1 X15.781S500
G1 X5S0
G1 X0.121Y0.1
G1 X-5
G1 X-15.736S500
G1 X-94.54S0
G1 X-15.739S500
G1 X-5S0
G1 X-0.122Y0.1
G1 X5
G1 X15.695S500
G1 X94.873S0
G1 X15.691S500
G1 X5S0
G1 X0.121Y0.1
G1 X-5
G1 X-15.646S500
G1 X-95.206S0
G1 X-15.649S500
G1 X-5S0
G1 X-0.122Y0.1
G1 X5
G1 X15.611S500
G1 X95.526S0
G1 X15.608S500
G1 X5S0
G1 X0.121Y0.1
G1 X-5
G1 X-15.57S500
G1 X-95.844S0
G1 X-15.573S500
G1 X-5S0
G1 X-0.121Y0.1
G1 X5
G1 X15.535S500
G1 X96.162S0
G1 X15.533S500
G1 X5S0
G1 X0.121Y0.1
G1 X-5
G1 X-15.495S500
G1 X-96.479S0
G1 X-15.499S500
G1 X-5S0
G1 X-0.121Y0.1
G1 X5
G1 X15.461S500
G1 X96.797S0
G1 X15.458S500
G1 X5S0
G1 X0.121Y0.1
G1 X-5
G1 X-15.42S500
G1 X-97.115S0
G1 X-15.424S500
G1 X-5S0
G1 X-0.121Y0.1
G1 X5
G1 X15.386S500
G1 X97.432S0
G1 X15.384S500
G1 X5S0
G1 X0.121Y0.1
G1 X-5
G1 X-15.346S500
G1 X-97.75S0
G1 X-15.348S500
G1 X-5S0
G1 X-0.118Y0.1
G1 X5
G1 X15.307S500
G1 X98.068S0
G1 X15.309S500
G1 X5S0
G1 X0.116Y0.1
G1 X-5
G1 X-15.266S500
G1 X-98.386S0
G1 X-15.265S500
G1 X-5S0
G1 X-0.117Y0.1
G1 X5
G1 X15.23S500
G1 X98.691S0
G1 X15.229S500
G1 X5S0
G1 X0.117Y0.1
G1 X-5
G1 X-15.194S500
G1 X-98.995S0
G1 X-15.196S500
G1 X-5S0
G1 X-0.117Y0.1
G1 X5
G1 X15.161S500
G1 X99.298S0
G1 X15.159S500
G1 X5S0
G1 X0.116Y0.1
G1 X-5
G1 X-15.123S500
G1 X-99.602S0
G1 X-15.127S500
G1 X-5S0
G1 X-0.117Y0.1
G1 X5
G1 X15.092S500
G1 X99.906S0
G1 X15.087S500
G1 X5S0
G1 X0.117Y0.1
G1 X-5
G1 X-15.052S500
G1 X-100.21S0
G1 X-15.057S500
G1 X-5S0
G1 X-0.118Y0.1
G1 X5
G1 X15.023S500
G1 X100.514S0
G1 X15.016S500
G1 X5S0
G1 X0.116Y0.1
G1 X-5
G1 X-14.98S500
G1 X-100.818S0
G1 X-14.988S500
G1 X-5S0
G1 X-0.117Y0.1
G1 X5
G1 X14.953S500
G1 X101.122S0
G1 X14.944S500
G1 X5S0
G1 X0.117Y0.1
G1 X-5
G1 X-14.909S500
G1 X-101.426S0
G1 X-14.914S500
G1 X-5S0
G1 X-0.114Y0.1
G1 X5
G1 X14.881S500
G1 X101.72S0
G1 X14.878S500
G1 X5S0
G1 X0.116Y0.1
G1 X-5
G1 X-14.848S500
G1 X-102.011S0
G1 X-14.849S500
G1 X-5S0
G1 X-0.114Y0.1
G1 X5
G1 X14.817S500
G1 X102.302S0
G1 X14.819S500
G1 X5S0
G1 X0.114Y0.1
G1 X-5
G1 X-14.788S500
G1 X-102.592S0
G1 X-14.785S500
G1 X-5S0
G1 X-0.114Y0.1
G1 X5
G1 X14.754S500
G1 X102.883S0
G1 X14.753S500
G1 X5S0
G1 X0.112Y0.1
G1 X-5
G1 X-14.72S500
G1 X-103.174S0
G1 X-14.721S500
G1 X-5S0
G1 X-0.114Y0.1
G1 X5
G1 X14.69S500
G1 X103.464S0
G1 X14.686S500
G1 X5S0
G1 X0.111Y0.1
G1 X-5
G1 X-14.651S500
G1 X-103.755S0
G1 X-14.658S500
G1 X-5S0
G1 X-0.114Y0.1
G1 X5
G1 X14.626S500
G1 X104.046S0
G1 X14.618S500
G1 X5S0
G1 X0.111Y0.1
G1 X-5
G1 X-14.584S500
G1 X-104.336S0
G1 X-14.594S500
G1 X-5S0
G1 X-0.11Y0.1
G1 X5
G1 X14.559S500
G1 X104.626S0
G1 X14.55S500
G1 X5S0
G1 X0.112Y0.1
G1 X-5
G1 X-14.523S500
G1 X-104.904S0
G1 X-14.529S500
G1 X-5S0
G1 X-0.11Y0.1
G1 X5
G1 X14.5S500
G1 X105.182S0
G1 X14.495S500
G1 X5S0
G1 X0.111Y0.1
G1 X-5
G1 X-14.467S500
G1 X-105.46S0
G1 X-14.471S500
G1 X-5S0
G1 X-0.109Y0.1
G1 X5
G1 X14.441S500
G1 X105.738S0
G1 X14.44S500
G1 X5S0
G1 X0.111Y0.1
G1 X-5
G1 X-14.411S500
G1 X-106.017S0
G1 X-14.412S500
G1 X-5S0
G1 X-0.11Y0.1
G1 X5
G1 X14.383S500
G1 X106.295S0
G1 X14.383S500
G1 X5S0
G1 X0.112Y0.1
G1 X-5
G1 X-14.356S500
G1 X-106.574S0
G1 X-14.352S500
G1 X-5S0
G1 X-0.11Y0.1
G1 X5
G1 X14.323S500
G1 X106.852S0
G1 X14.325S500
G1 X5S0
G1 X0.108Y0.1
G1 X-5
G1 X-14.294S500
G1 X-107.13S0
G1 X-14.294S500
G1 X-5S0
G1 X-0.109Y0.1
G1 X5
G1 X14.264S500
G1 X107.408S0
G1 X14.263S500
G1 X5S0
G1 X0.108Y0.1
G1 X-5
G1 X-14.233S500
G1 X-107.684S0
G1 X-14.234S500
G1 X-5S0
G1 X-0.106Y0.1
G1 X5
G1 X14.207S500
G1 X107.951S0
G1 X14.206S500
G1 X5S0
G1 X0.108Y0.1
G1 X-5
G1 X-14.181S500
G1 X-108.217S0
G1 X-14.18S500
G1 X-5S0
G1 X-0.105Y0.1
G1 X5
G1 X14.151S500
G1 X108.484S0
G1 X14.156S500
G1 X5S0
G1 X0.107Y0.1
G1 X-5
G1 X-14.13S500
G1 X-108.75S0
G1 X-14.124S500
G1 X-5S0
G1 X-0.106Y0.1
G1 X5
G1 X14.097S500
G1 X109.016S0
G1 X14.102S500
G1 X5S0
G1 X0.106Y0.1
G1 X-5
G1 X-14.074S500
G1 X-109.283S0
G1 X-14.07S500
G1 X-5S0
G1 X-0.106Y0.1
G1 X5
G1 X14.042S500
G1 X109.55S0
G1 X14.046S500
G1 X5S0
G1 X0.106Y0.1
G1 X-5
G1 X-14.019S500
G1 X-109.816S0
G1 X-14.015S500
G1 X-5S0
G1 X-0.106Y0.1
G1 X5
G1 X13.988S500
G1 X110.082S0
G1 X13.991S500
G1 X5S0
G1 X0.106Y0.1
G1 X-5
G1 X-13.963S500
G1 X-110.349S0
G1 X-13.961S500
G1 X-5S0
G1 X-0.106Y0.1
G1 X5
G1 X13.933S500
G1 X110.616S0
G1 X13.935S500
G1 X5S0
G1 X0.102Y0.1
G1 X-5
G1 X-138.688S500
G1 X-5S0
G1 X-0.102Y0.1
G1 X5
G1 X138.891S500
G1 X5S0
G1 X0.101Y0.1
G1 X-5
G1 X-139.095S500
G1 X-5S0
G1 X-0.102Y0.1
G1 X5
G1 X139.298S500
G1 X5S0
G1 X0.101Y0.1
G1 X-5
G1 X-139.501S500
G1 X-5S0
G1 X-0.102Y0.1
G1 X5
G1 X139.704S500
G1 X5S0
G1 X0.101Y0.1
G1 X-5
G1 X-139.907S500
G1 X-5S0
G1 X-0.103Y0.1
G1 X5
G1 X140.111S500
G1 X5S0
G1 X0.101Y0.1
G1 X-5
G1 X-140.314S500
G1 X-5S0
G1 X-0.102Y0.1
G1 X5
G1 X140.517S500
G1 X5S0
G1 X0.101Y0.1
G1 X-5
G1 X-140.72S500
G1 X-5S0
G1 X-0.102Y0.1
G1 X5
G1 X140.923S500
G1 X5S0
G1 X0.101Y0.1
G1 X-5
G1 X-141.126S500
G1 X-5S0
G1 X-0.098Y0.1
G1 X5
G1 X141.325S500
G1 X5S0
G1 X0.101Y0.1
G1 X-5
G1 X-141.525S500
G1 X-5S0
G1 X-0.098Y0.1
G1 X5
G1 X141.724S500
G1 X5S0
G1 X0.102Y0.1
G1 X-5
G1 X-141.924S500
G1 X-5S0
G1 X-0.099Y0.1
G1 X5
G1 X142.124S500
G1 X5S0
G1 X0.101Y0.1
G1 X-5
G1 X-142.323S500
G1 X-5S0
G1 X-0.099Y0.1
G1 X5
G1 X142.523S500
G1 X5S0
G1 X0.101Y0.1
G1 X-5
G1 X-142.722S500
G1 X-5S0
G1 X-0.098Y0.1
G1 X5
G1 X142.92S500
G1 X5S0
G1 X0.095Y0.1
G1 X-5
G1 X-143.114S500
G1 X-5S0
G1 X-0.098Y0.1
G1 X5
G1 X143.307S500
G1 X5S0
G1 X0.095Y0.1
G1 X-5
G1 X-143.5S500
G1 X-5S0
G1 X-0.098Y0.1
G1 X5
G1 X143.693S500
G1 X5S0
G1 X0.094Y0.1
G1 X-5
G1 X-143.882S500
G1 X-5S0
G1 X-0.095Y0.1
G1 X5
G1 X144.072S500
G1 X5S0
G1 X0.095Y0.1
G1 X-5
G1 X-144.262S500
G1 X-5S0
G1 X-0.095Y0.1
G1 X5
G1 X144.452S500
G1 X5S0
G1 X0.095Y0.1
G1 X-5
G1 X-144.642S500
G1 X-5S0
G1 X-0.095Y0.1
G1 X5
G1 X144.832S500
G1 X5S0
G1 X0.095Y0.1
G1 X-5
G1 X-145.022S500
G1 X-5S0
G1 X-0.095Y0.1
G1 X5
G1 X145.212S500
G1 X5S0
G1 X0.095Y0.1
G1 X-5
G1 X-145.402S500
G1 X-5S0
G1 X-0.095Y0.1
G1 X5
G1 X145.592S500
G1 X5S0
G1 X0.094Y0.1
G1 X-5
G1 X-145.781S500
G1 X-5S0
G1 X-0.095Y0.1
G1 X5
G1 X145.971S500
G1 X5S0
G1 X0.095Y0.1
G1 X-5
G1 X-146.161S500
G1 X-5S0
G1 X-0.095Y0.1
G1 X5
G1 X146.351S500
G1 X5S0
G1 X0.095Y0.1
G1 X-5
G1 X-146.541S500
G1 X-5S0
G1 X-0.093Y0.1
G1 X5
G1 X146.729S500
G1 X5S0
G1 X0.095Y0.1
G1 X-5
G1 X-146.915S500
G1 X-5S0
G1 X-0.091Y0.1
G1 X5
G1 X147.101S500
G1 X5S0
G1 X0.091Y0.1
G1 X-5
G1 X-147.282S500
G1 X-5S0
G1 X-0.091Y0.1
G1 X5
G1 X147.462S500
G1 X5S0
G1 X0.089Y0.1
G1 X-5
G1 X-147.642S500
G1 X-5S0
G1 X-0.091Y0.1
G1 X5
G1 X147.822S500
G1 X5S0
G1 X0.089Y0.1
G1 X-5
G1 X-148.002S500
G1 X-5S0
G1 X-0.091Y0.1
G1 X5
G1 X148.182S500
G1 X5S0
G1 X0.089Y0.1
G1 X-5
G1 X-148.361S500
G1 X-5S0
G1 X-0.091Y0.1
G1 X5
G1 X148.541S500
G1 X5S0
G1 X0.089Y0.1
G1 X-5
G1 X-148.721S500
G1 X-5S0
G1 X-0.091Y0.1
G1 X5
G1 X148.901S500
G1 X5S0
G1 X0.089Y0.1
G1 X-5
G1 X-47.017S500
G1 X-0.234S0
G1 X-3.056S500
G1 X-0.346S0
G1 X-58.093S500
G1 X-0.559S0
G1 X-3.056S500
G1 X-0.052S0
G1 X-36.668S500
G1 X-5S0
G1 X-0.09Y0.1
G1 X5
G1 X8.527S500
G1 X2.344S0
G1 X25.317S500
G1 X0.622S0
G1 X3.056S500
G1 X1.129S0
G1 X56.95S500
G1 X0.919S0
G1 X3.056S500
G1 X0.817S0
G1 X46.523S500
G1 X5S0
G1 X0.09Y0.1
G1 X-5
G1 X-46.141S500
G1 X-1.289S0
G1 X-3.056S500
G1 X-1.381S0
G1 X-56.025S500
G1 X-1.592S0
G1 X-3.056S500
G1 X-1.059S0
G1 X-24.173S500
G1 X-3.767S0
G1 X-7.902S500
G1 X-5S0
G1 X-0.09Y0.1
G1 X5
G1 X7.507S500
G1 X4.762S0
G1 X23.282S500
G1 X1.44S0
G1 X3.056S500
G1 X1.991S0
G1 X55.249S500
G1 X1.758S0
G1 X3.056S500
G1 X1.664S0
G1 X45.855S500
G1 X5S0
G1 X0.089Y0.1
G1 X-5
G1 X-45.588S500
G1 X-2.02S0
G1 X-3.056S500
G1 X-2.099S0
G1 X-54.57S500
G1 X-2.329S0
G1 X-3.056S500
G1 X-1.79S0
G1 X-22.536S500
G1 X-5.519S0
G1 X-7.233S500
G1 X-5S0
G1 X-0.087Y0.1
G1 X5
G1 X6.991S500
G1 X6.188S0
G1 X21.901S500
G1 X2.085S0
G1 X3.056S500
G1 X2.648S0
G1 X53.945S500
G1 X2.405S0
G1 X3.056S500
G1 X2.324S0
G1 X45.373S500
G1 X5S0
G1 X0.089Y0.1
G1 X-5
G1 X-6.408S500
G1 X-1.836S0
G1 X-13.025S500
G1 X-10.929S0
G1 X-12.966S500
G1 X-2.622S0
G1 X-3.056S500
G1 X-2.689S0
G1 X-27.993S500
G1 X-12.681S0
G1 X-12.702S500
G1 X-2.933S0
G1 X-3.056S500
G1 X-2.377S0
G1 X-21.295S500
G1 X-6.779S0
G1 X-6.8S500
G1 X-5S0
G1 X-0.087Y0.1
G1 X5
G1 X6.645S500
G1 X7.282S0
G1 X20.782S500
G1 X2.629S0
G1 X3.056S500
G1 X3.198S0
G1 X12.437S500
G1 X12.681S0
G1 X3.056S500
G1 X0.144S0
G1 X24.536S500
G1 X2.946S0
G1 X3.056S500
G1 X2.879S0
G1 X12.709S500
G1 X10.929S0
G1 X12.948S500
G1 X1.913S0
G1 X6.497S500
G1 X5S0
G1 X0.089Y0.1
G1 X-5
G1 X-6.586S500
G1 X-1.989S0
G1 X-12.872S500
G1 X-10.929S0
G1 X-12.452S500
G1 X-3.136S0
G1 X-3.056S500
G1 X-3.203S0
G1 X-23.455S500
G1 X-0.968S0
G1 X-3.056S500
G1 X-12.681S0
G1 X-12.176S500
G1 X-3.459S0
G1 X-3.056S500
G1 X-2.878S0
G1 X-20.275S500
G1 X-7.782S0
G1 X-6.49S500
G1 X-5S0
G1 X-0.087Y0.1
G1 X5
G1 X6.377S500
G1 X8.202S0
G1 X19.825S500
G1 X3.108S0
G1 X3.056S500
G1 X3.685S0
G1 X11.95S500
G1 X12.681S0
G1 X3.056S500
G1 X1.588S0
G1 X22.615S500
G1 X3.423S0
G1 X3.056S500
G1 X3.37S0
G1 X12.218S500
G1 X10.929S0
G1 X12.796S500
G1 X2.065S0
G1 X6.675S500
G1 X5S0
G1 X0.089Y0.1
G1 X-5
G1 X-6.764S500
G1 X-2.142S0
G1 X-12.719S500
G1 X-10.929S0
G1 X-11.996S500
G1 X-3.592S0
G1 X-3.056S500
G1 X-3.644S0
G1 X-21.933S500
G1 X-2.049S0
G1 X-3.056S500
G1 X-12.681S0
G1 X-11.723S500
G1 X-3.912S0
G1 X-3.056S500
G1 X-3.324S0
G1 X-19.392S500
G1 X-8.605S0
G1 X-6.278S500
G1 X-5S0
G1 X-0.087Y0.1
G1 X5
G1 X6.178S500
G1 X8.99S0
G1 X18.978S500
G1 X3.54S0
G1 X3.056S500
G1 X4.132S0
G1 X11.503S500
G1 X12.681S0
G1 X3.056S500
G1 X2.459S0
G1 X21.309S500
G1 X3.858S0
G1 X3.056S500
G1 X3.813S0
G1 X11.775S500
G1 X10.929S0
G1 X12.643S500
G1 X2.218S0
G1 X6.853S500
G1 X5S0
G1 X0.089Y0.1
G1 X-5
G1 X-6.942S500
G1 X-2.294S0
G1 X-12.567S500
G1 X-10.929S0
G1 X-11.576S500
G1 X-4.012S0
G1 X-3.056S500
G1 X-4.05S0
G1 X-20.766S500
G1 X-2.81S0
G1 X-3.056S500
G1 X-12.681S0
G1 X-11.306S500
G1 X-4.329S0
G1 X-3.056S500
G1 X-3.733S0
G1 X-18.603S500
G1 X-9.347S0
G1 X-6.089S500
G1 X-5S0
G1 X-0.087Y0.1
G1 X5
G1 X6.028S500
G1 X9.678S0
G1 X18.229S500
G1 X3.924S0
G1 X3.056S500
G1 X4.526S0
G1 X11.109S500
G1 X12.681S0
G1 X3.056S500
G1 X3.118S0
G1 X20.265S500
G1 X4.243S0
G1 X3.056S500
G1 X4.206S0
G1 X11.382S500
G1 X10.929S0
G1 X12.49S500
G1 X2.371S0
G1 X7.029S500
G1 X5S0
G1 X0.083Y0.1
G1 X-5
G1 X-7.112S500
G1 X-2.447S0
G1 X-12.414S500
G1 X-10.929S0
G1 X-11.187S500
G1 X-4.401S0
G1 X-3.056S500
G1 X-4.433S0
G1 X-19.794S500
G1 X-3.399S0
G1 X-3.056S500
G1 X-12.681S0
G1 X-10.913S500
G1 X-4.722S0
G1 X-3.056S500
G1 X-4.114S0
G1 X-17.878S500
G1 X-9.987S0
G1 X-5.967S500
G1 X-5S0
G1 X-0.087Y0.1
G1 X5
G1 X5.905S500
G1 X10.295S0
G1 X17.547S500
G1 X4.286S0
G1 X3.19S500
G1 X4.764S0
G1 X10.737S500
G1 X12.681S0
G1 X3.056S500
G1 X3.67S0
G1 X19.353S500
G1 X4.603S0
G1 X3.056S500
G1 X4.58S0
G1 X11.008S500
G1 X10.929S0
G1 X12.338S500
G1 X2.523S0
G1 X7.196S500
G1 X5S0
G1 X0.083Y0.1
G1 X-5
G1 X-7.279S500
G1 X-2.6S0
G1 X-12.261S500
G1 X-10.929S0
G1 X-10.835S500
G1 X-4.459S0
G1 X-3.585S500
G1 X-4.539S0
G1 X-18.941S500
G1 X-3.911S0
G1 X-3.056S500
G1 X-12.681S0
G1 X-10.563S500
G1 X-4.431S0
G1 X-3.697S500
G1 X-4.456S0
G1 X-17.219S500
G1 X-5.505S0
G1 X-1.278S500
G1 X-3.812S0
G1 X-5.85S500
G1 X-5S0
G1 X-0.087Y0.1
G1 X5
G1 X5.817S500
G1 X3.249S0
G1 X2.588S500
G1 X5.016S0
G1 X16.912S500
G1 X4.331S0
G1 X4.374S500
G1 X4.221S0
G1 X10.39S500
G1 X12.681S0
G1 X3.056S500
G1 X4.152S0
G1 X18.53S500
G1 X4.31S0
G1 X4.398S500
G1 X4.218S0
G1 X10.662S500
G1 X10.929S0
G1 X12.185S500
G1 X2.676S0
G1 X7.363S500
G1 X5S0
G1 X0.083Y0.1
G1 X-5
G1 X-7.446S500
G1 X-2.752S0
G1 X-12.109S500
G1 X-10.929S0
G1 X-10.493S500
G1 X-4.092S0
G1 X-4.98S500
G1 X-4.18S0
G1 X-18.15S500
G1 X-4.375S0
G1 X-3.056S500
G1 X-12.681S0
G1 X-10.221S500
G1 X-4.07S0
G1 X-5.019S500
G1 X-4.163S0
G1 X-16.618S500
G1 X-4.749S0
G1 X-3.405S500
G1 X-2.956S0
G1 X-5.783S500
G1 X-5S0
G1 X-0.087Y0.1
G1 X5
G1 X5.75S500
G1 X2.754S0
G1 X4.001S500
G1 X4.613S0
G1 X16.332S500
G1 X4.055S0
G1 X5.551S500
G1 X3.946S0
G1 X10.069S500
G1 X12.681S0
G1 X3.056S500
G1 X4.584S0
G1 X17.793S500
G1 X4.041S0
G1 X5.545S500
G1 X3.965S0
G1 X10.342S500
G1 X10.929S0
G1 X12.032S500
G1 X2.829S0
G1 X7.53S500
G1 X5S0
G1 X0.083Y0.1
G1 X-5
G1 X-7.613S500
G1 X-2.905S0
G1 X-11.956S500
G1 X-10.929S0
G1 X-10.191S500
G1 X-3.856S0
G1 X-6.03S500
G1 X-3.963S0
G1 X-17.436S500
G1 X-4.794S0
G1 X-3.056S500
G1 X-12.681S0
G1 X-9.918S500
G1 X-3.859S0
G1 X-6.044S500
G1 X-3.947S0
G1 X-16.063S500
G1 X-4.476S0
G1 X-4.525S500
G1 X-2.609S0
G1 X-5.714S500
G1 X-5S0
G1 X-0.083Y0.1
G1 X5
G1 X5.687S500
G1 X2.495S0
G1 X4.945S500
G1 X4.399S0
G1 X15.796S500
G1 X3.892S0
G1 X6.473S500
G1 X3.784S0
G1 X13.253S500
G1 X6.472S0
G1 X5.779S500
G1 X4.985S0
G1 X17.097S500
G1 X3.892S0
G1 X6.453S500
G1 X3.804S0
G1 X10.725S500
G1 X9.277S0
G1 X12.846S500
G1 X2.981S0
G1 X7.697S500
G1 X5S0
G1 X0.083Y0.1
G1 X-5
G1 X-7.78S500
G1 X-3.058S0
G1 X-13.388S500
G1 X-8.152S0
G1 X-11.08S500
G1 X-3.751S0
G1 X-6.865S500
G1 X-3.831S0
G1 X-16.766S500
G1 X-5.169S0
G1 X-6.188S500
G1 X-5.709S0
G1 X-13.456S500
G1 X-3.738S0
G1 X-6.872S500
G1 X-3.837S0
G1 X-15.529S500
G1 X-4.322S0
G1 X-5.349S500
G1 X-2.386S0
G1 X-5.672S500
G1 X-5S0
G1 X-0.083Y0.1
G1 X5
G1 X5.657S500
G1 X2.305S0
G1 X5.687S500
G1 X4.274S0
G1 X15.282S500
G1 X3.782S0
G1 X7.254S500
G1 X3.696S0
G1 X13.495S500
G1 X5.29S0
G1 X6.419S500
G1 X5.352S0
G1 X16.447S500
G1 X3.792S0
G1 X7.244S500
G1 X3.696S0
G1 X11.281S500
G1 X7.406S0
G1 X13.708S500
G1 X3.134S0
G1 X7.864S500
G1 X5S0
G1 X0.083Y0.1
G1 X-5
G1 X-7.947S500
G1 X-3.211S0
G1 X-13.944S500
G1 X-6.811S0
G1 X-11.432S500
G1 X-3.663S0
G1 X-7.582S500
G1 X-3.745S0
G1 X-16.148S500
G1 X-5.166S0
G1 X-6.948S500
G1 X-4.983S0
G1 X-13.5S500
G1 X-3.656S0
G1 X-7.589S500
G1 X-3.745S0
G1 X-15.052S500
G1 X-4.228S0
G1 X-6.002S500
G1 X-2.237S0
G1 X-5.642S500
G1 X-5S0
G1 X-0.083Y0.1
G1 X5
G1 X5.626S500
G1 X2.177S0
G1 X6.311S500
G1 X4.182S0
G1 X14.821S500
G1 X3.707S0
G1 X7.923S500
G1 X3.618S0
G1 X13.464S500
G1 X4.785S0
G1 X7.413S500
G1 X4.966S0
G1 X15.859S500
G1 X3.698S0
G1 X7.914S500
G1 X3.635S0
G1 X11.519S500
G1 X6.329S0
G1 X14.133S500
G1 X3.287S0
G1 X8.03S500
G1 X5S0
G1 X0.084Y0.1
G1 X-5
G1 X-8.114S500
G1 X-3.363S0
G1 X-14.265S500
G1 X-5.913S0
G1 X-11.596S500
G1 X-3.608S0
G1 X-8.216S500
G1 X-3.682S0
G1 X-15.57S500
G1 X-4.824S0
G1 X-7.814S500
G1 X-4.613S0
G1 X-13.407S500
G1 X-3.599S0
G1 X-8.235S500
G1 X-3.673S0
G1 X-14.59S500
G1 X-4.166S0
G1 X-6.566S500
G1 X-2.134S0
G1 X-5.616S500
G1 X-5S0
G1 X-0.083Y0.1
G1 X5
G1 X5.618S500
G1 X2.078S0
G1 X6.82S500
G1 X4.139S0
G1 X14.373S500
G1 X3.663S0
G1 X8.522S500
G1 X3.579S0
G1 X13.332S500
G1 X4.496S0
G1 X8.139S500
G1 X4.722S0
G1 X15.282S500
G1 X3.666S0
G1 X8.517S500
G1 X3.581S0
G1 X11.63S500
G1 X5.549S0
G1 X14.387S500
G1 X3.44S0
G1 X8.197S500
G1 X5S0
G1 X0.084Y0.1
G1 X-5
G1 X-8.281S500
G1 X-3.516S0
G1 X-14.469S500
G1 X-5.227S0
G1 X-11.663S500
G1 X-3.575S0
G1 X-8.797S500
G1 X-3.649S0
G1 X-15.014S500
G1 X-4.601S0
G1 X-8.464S500
G1 X-4.384S0
G1 X-13.251S500
G1 X-3.576S0
G1 X-8.794S500
G1 X-3.651S0
G1 X-14.157S500
G1 X-4.111S0
G1 X-7.062S500
G1 X-2.035S0
G1 X-5.62S500
G1 X-5S0
G1 X-0.083Y0.1
G1 X5
G1 X5.622S500
G1 X2.004S0
G1 X7.277S500
G1 X4.097S0
G1 X13.958S500
G1 X3.623S0
G1 X9.06S500
G1 X3.569S0
G1 X13.157S500
G1 X4.316S0
G1 X8.742S500
G1 X4.506S0
G1 X14.762S500
G1 X3.621S0
G1 X9.062S500
G1 X3.569S0
G1 X11.678S500
G1 X4.939S0
G1 X14.545S500
G1 X3.592S0
G1 X8.364S500
G1 X5S0
G1 X0.084Y0.1
G1 X-5
G1 X-8.448S500
G1 X-3.669S0
G1 X-14.602S500
G1 X-4.673S0
G1 X-11.697S500
G1 X-3.554S0
G1 X-9.31S500
G1 X-3.612S0
G1 X-14.509S500
G1 X-4.445S0
G1 X-8.977S500
G1 X-4.257S0
G1 X-13.07S500
G1 X-3.556S0
G1 X-9.314S500
G1 X-3.607S0
G1 X-13.76S500
G1 X-4.09S0
G1 X-7.483S500
G1 X-1.972S0
G1 X-5.625S500
G1 X-5S0
G1 X-0.083Y0.1
G1 X5
G1 X5.627S500
G1 X1.949S0
G1 X7.68S500
G1 X4.074S0
G1 X13.573S500
G1 X3.6S0
G1 X9.557S500
G1 X3.543S0
G1 X12.977S500
G1 X4.205S0
G1 X9.212S500
G1 X4.381S0
G1 X14.26S500
G1 X3.602S0
G1 X9.555S500
G1 X3.543S0
G1 X11.707S500
G1 X4.432S0
G1 X14.643S500
G1 X3.745S0
G1 X8.531S500
G1 X5S0
G1 X0.084Y0.1
G1 X-5
G1 X-8.615S500
G1 X-3.821S0
G1 X-14.685S500
G1 X-4.208S0
G1 X-11.7S500
G1 X-3.55S0
G1 X-9.781S500
G1 X-3.593S0
G1 X-14.023S500
G1 X-4.305S0
G1 X-9.427S500
G1 X-4.184S0
G1 X-12.871S500
G1 X-3.551S0
G1 X-9.78S500
G1 X-3.594S0
G1 X-13.385S500
G1 X-4.058S0
G1 X-7.868S500
G1 X-1.923S0
G1 X-5.641S500
G1 X-5S0
G1 X-0.083Y0.1
G1 X5
G1 X5.659S500
G1 X1.894S0
G1 X8.043S500
G1 X4.054S0
G1 X13.198S500
G1 X3.587S0
G1 X10.003S500
G1 X3.558S0
G1 X12.766S500
G1 X4.167S0
G1 X9.618S500
G1 X4.249S0
G1 X13.787S500
G1 X3.583S0
G1 X10.008S500
G1 X3.557S0
G1 X11.692S500
G1 X4.008S0
G1 X14.702S500
G1 X3.898S0
G1 X8.698S500
G1 X5S0
G1 X0.084Y0.1
G1 X-5
G1 X-8.782S500
G1 X-3.974S0
G1 X-14.715S500
G1 X-3.82S0
G1 X-11.678S500
G1 X-3.564S0
G1 X-10.218S500
G1 X-3.588S0
G1 X-13.552S500
G1 X-4.213S0
G1 X-9.79S500
G1 X-4.15S0
G1 X-12.66S500
G1 X-3.565S0
G1 X-10.221S500
G1 X-3.585S0
G1 X-13.014S500
G1 X-4.054S0
G1 X-8.206S500
G1 X-1.87S0
G1 X-5.677S500
G1 X-5S0
G1 X-0.083Y0.1
G1 X5
G1 X5.695S500
G1 X1.857S0
G1 X8.358S500
G1 X4.046S0
G1 X12.852S500
G1 X3.581S0
G1 X10.427S500
G1 X3.565S0
G1 X12.554S500
G1 X4.146S0
G1 X9.956S500
G1 X4.174S0
G1 X13.332S500
G1 X3.583S0
G1 X10.426S500
G1 X3.564S0
G1 X11.658S500
G1 X3.644S0
G1 X14.729S500
G1 X4.05S0
G1 X8.865S500
G1 X5S0
G1 X0.084Y0.1
G1 X-5
G1 X-8.949S500
G1 X-4.127S0
G1 X-14.726S500
G1 X-3.484S0
G1 X-11.645S500
G1 X-3.574S0
G1 X-10.617S500
G1 X-3.577S0
G1 X-13.124S500
G1 X-4.124S0
G1 X-10.118S500
G1 X-4.146S0
G1 X-12.455S500
G1 X-3.574S0
G1 X-10.618S500
G1 X-3.576S0
G1 X-12.69S500
G1 X-4.038S0
G1 X-8.51S500
G1 X-1.844S0
G1 X-5.713S500
G1 X-5S0
G1 X-0.08Y0.1
G1 X5
G1 X5.728S500
G1 X1.833S0
G1 X8.656S500
G1 X4.034S0
G1 X12.527S500
G1 X3.573S0
G1 X10.807S500
G1 X3.583S0
G1 X12.357S500
G1 X4.146S0
G1 X10.279S500
G1 X4.075S0
G1 X12.916S500
G1 X3.571S0
G1 X10.809S500
G1 X3.582S0
G1 X11.632S500
G1 X3.329S0
G1 X14.72S500
G1 X4.203S0
G1 X9.03S500
G1 X5S0
G1 X0.08Y0.1
G1 X-5
G1 X-9.11S500
G1 X-4.279S0
G1 X-14.713S500
G1 X-3.189S0
G1 X-11.604S500
G1 X-3.591S0
G1 X-11S500
G1 X-3.567S0
G1 X-12.707S500
G1 X-4.049S0
G1 X-10.417S500
G1 X-4.146S0
G1 X-12.258S500
G1 X-3.592S0
G1 X-10.998S500
G1 X-3.568S0
G1 X-12.366S500
G1 X-4.04S0
G1 X-8.778S500
G1 X-1.822S0
G1 X-5.755S500
G1 X-5S0
G1 X-0.08Y0.1
G1 X5
G1 X5.785S500
G1 X1.81S0
G1 X8.898S500
G1 X4.038S0
G1 X12.214S500
G1 X3.573S0
G1 X11.179S500
G1 X3.601S0
G1 X12.159S500
G1 X4.146S0
G1 X10.549S500
G1 X4.028S0
G1 X12.5S500
G1 X3.575S0
G1 X11.177S500
G1 X3.601S0
G1 X11.575S500
G1 X3.055S0
G1 X14.7S500
G1 X4.356S0
G1 X9.189S500
G1 X5S0
G1 X0.08Y0.1
G1 X-5
G1 X-9.269S500
G1 X-4.432S0
G1 X-14.678S500
G1 X-2.93S0
G1 X-11.548S500
G1 X-3.615S0
G1 X-11.349S500
G1 X-3.583S0
G1 X-12.301S500
G1 X-3.999S0
G1 X-10.681S500
G1 X-4.146S0
G1 X-12.061S500
G1 X-3.616S0
G1 X-11.349S500
G1 X-3.583S0
G1 X-12.062S500
G1 X-4.034S0
G1 X-9.019S500
G1 X-1.799S0
G1 X-5.813S500
G1 X-5S0
G1 X-0.079Y0.1
G1 X5
G1 X5.841S500
G1 X1.8S0
G1 X9.128S500
G1 X4.031S0
G1 X11.917S500
G1 X3.585S0
G1 X11.512S500
G1 X3.639S0
G1 X11.962S500
G1 X4.146S0
G1 X10.797S500
G1 X3.984S0
G1 X12.111S500
G1 X3.585S0
G1 X11.512S500
G1 X3.638S0
G1 X11.512S500
G1 X2.814S0
G1 X14.655S500
G1 X4.508S0
G1 X9.349S500
G1 X5S0
G1 X0.079Y0.1
G1 X-5
G1 X-9.428S500
G1 X-4.585S0
G1 X-14.631S500
G1 X-2.704S0
G1 X-11.483S500
G1 X-3.648S0
G1 X-11.676S500
G1 X-3.581S0
G1 X-11.926S500
G1 X-3.972S0
G1 X-10.91S500
G1 X-4.146S0
G1 X-11.876S500
G1 X-3.649S0
G1 X-11.676S500
G1 X-3.581S0
G1 X-11.778S500
G1 X-4.033S0
G1 X-9.228S500
G1 X-1.804S0
G1 X-5.87S500
G1 X-5S0
G1 X-0.079Y0.1
G1 X5
G1 X5.898S500
G1 X1.807S0
G1 X9.322S500
G1 X4.037S0
G1 X11.644S500
G1 X3.578S0
G1 X11.839S500
G1 X3.658S0
G1 X11.791S500
G1 X4.146S0
G1 X11.023S500
G1 X3.96S0
G1 X11.74S500
G1 X3.578S0
G1 X11.84S500
G1 X3.658S0
G1 X11.453S500
G1 X2.602S0
G1 X14.601S500
G1 X4.661S0
G1 X9.508S500
G1 X5S0
G1 X0.079Y0.1
G1 X-5
G1 X-9.587S500
G1 X-4.737S0
G1 X-14.565S500
G1 X-2.505S0
G1 X-11.425S500
G1 X-3.667S0
G1 X-11.996S500
G1 X-3.582S0
G1 X-11.559S500
G1 X-3.954S0
G1 X-11.126S500
G1 X-4.146S0
G1 X-11.705S500
G1 X-3.667S0
G1 X-11.996S500
G1 X-3.582S0
G1 X-11.513S500
G1 X-4.039S0
G1 X-9.407S500
G1 X-1.806S0
G1 X-5.938S500
G1 X-5S0
G1 X-0.08Y0.1
G1 X5
G1 X5.981S500
G1 X1.81S0
G1 X9.486S500
G1 X4.039S0
G1 X11.383S500
G1 X3.591S0
G1 X12.142S500
G1 X3.682S0
G1 X11.619S500
G1 X4.146S0
G1 X11.223S500
G1 X3.948S0
G1 X11.384S500
G1 X3.591S0
G1 X12.143S500
G1 X3.681S0
G1 X11.384S500
G1 X2.42S0
G1 X14.528S500
G1 X4.814S0
G1 X9.667S500
G1 X5S0
G1 X0.08Y0.1
G1 X-5
G1 X-9.747S500
G1 X-4.89S0
G1 X-14.491S500
G1 X-2.336S0
G1 X-11.343S500
G1 X-3.702S0
G1 X-12.283S500
G1 X-3.6S0
G1 X-11.21S500
G1 X-3.941S0
G1 X-11.32S500
G1 X-4.146S0
G1 X-11.533S500
G1 X-3.703S0
G1 X-12.282S500
G1 X-3.601S0
G1 X-11.251S500
G1 X-4.04S0
G1 X-9.565S500
G1 X-1.815S0
G1 X-6.022S500
G1 X-5S0
G1 X-0.08Y0.1
G1 X5
G1 X6.064S500
G1 X1.821S0
G1 X9.641S500
G1 X4.042S0
G1 X11.121S500
G1 X3.609S0
G1 X12.423S500
G1 X3.724S0
G1 X11.447S500
G1 X4.146S0
G1 X11.415S500
G1 X3.936S0
G1 X11.036S500
G1 X3.608S0
G1 X12.424S500
G1 X3.723S0
G1 X11.301S500
G1 X2.255S0
G1 X14.452S500
G1 X4.966S0
G1 X9.826S500
G1 X5S0
G1 X0.08Y0.1
G1 X-5
G1 X-9.906S500
G1 X-5.043S0
G1 X-14.403S500
G1 X-2.184S0
G1 X-11.259S500
G1 X-3.743S0
G1 X-12.556S500
G1 X-3.619S0
G1 X-10.867S500
G1 X-3.943S0
G1 X-11.499S500
G1 X-4.146S0
G1 X-11.362S500
G1 X-3.744S0
G1 X-12.555S500
G1 X-3.62S0
G1 X-11.004S500
G1 X-4.047S0
G1 X-9.694S500
G1 X-1.84S0
G1 X-6.105S500
G1 X-5S0
G1 X-0.079Y0.1
G1 X5
G1 X6.147S500
G1 X1.857S0
G1 X9.749S500
G1 X4.05S0
G1 X10.893S500
G1 X3.629S0
G1 X12.684S500
G1 X3.754S0
G1 X11.287S500
G1 X4.146S0
G1 X11.582S500
G1 X3.945S0
G1 X10.708S500
G1 X3.629S0
G1 X12.685S500
G1 X3.753S0
G1 X11.217S500
G1 X2.123S0
G1 X14.355S500
G1 X5.119S0
G1 X9.985S500
G1 X5S0
G1 X0.08Y0.1
G1 X-5
G1 X-10.065S500
G1 X-5.195S0
G1 X-14.308S500
G1 X-2.061S0
G1 X-11.175S500
G1 X-3.763S0
G1 X-12.814S500
G1 X-3.638S0
G1 X-10.555S500
G1 X-3.942S0
G1 X-11.665S500
G1 X-4.146S0
G1 X-11.212S500
G1 X-3.764S0
G1 X-12.813S500
G1 X-3.639S0
G1 X-10.78S500
G1 X-4.054S0
G1 X-9.803S500
G1 X-1.869S0
G1 X-6.196S500
G1 X-5S0
G1 X-0.079Y0.1
G1 X5
G1 X6.249S500
G1 X1.883S0
G1 X9.85S500
G1 X4.057S0
G1 X10.668S500
G1 X3.649S0
G1 X12.934S500
G1 X3.782S0
G1 X11.137S500
G1 X4.146S0
G1 X11.745S500
G1 X3.943S0
G1 X10.4S500
G1 X3.648S0
G1 X12.935S500
G1 X3.781S0
G1 X11.133S500
G1 X2S0
G1 X14.259S500
G1 X5.272S0
G1 X10.144S500
G1 X5S0
G1 X0.08Y0.1
G1 X-5
G1 X-10.224S500
G1 X-5.348S0
G1 X-14.204S500
G1 X-1.947S0
G1 X-11.09S500
G1 X-3.8S0
G1 X-13.051S500
G1 X-3.661S0
G1 X-10.246S500
G1 X-3.952S0
G1 X-11.817S500
G1 X-4.146S0
G1 X-11.063S500
G1 X-3.8S0
G1 X-13.05S500
G1 X-3.662S0
G1 X-10.56S500
G1 X-4.058S0
G1 X-9.891S500
G1 X-1.902S0
G1 X-6.302S500
G1 X-5S0
G1 X-0.08Y0.1
G1 X5
G1 X6.356S500
G1 X1.922S0
G1 X9.927S500
G1 X4.059S0
G1 X10.455S500
G1 X3.681S0
G1 X13.161S500
G1 X3.819S0
G1 X10.988S500
G1 X4.146S0
G1 X11.889S500
G1 X3.96S0
G1 X10.092S500
G1 X3.68S0
G1 X13.161S500
G1 X3.819S0
G1 X11.038S500
G1 X1.906S0
G1 X14.147S500
G1 X5.424S0
G1 X10.304S500
G1 X5S0
G1 X0.077Y0.1
G1 X-5
G1 X-10.381S500
G1 X-5.501S0
G1 X-14.089S500
G1 X-1.864S0
G1 X-10.986S500
G1 X-3.838S0
G1 X-13.272S500
G1 X-3.698S0
G1 X-9.944S500
G1 X-3.964S0
G1 X-11.96S500
G1 X-4.146S0
G1 X-10.913S500
G1 X-3.838S0
G1 X-13.272S500
G1 X-3.699S0
G1 X-10.351S500
G1 X-4.065S0
G1 X-9.958S500
G1 X-1.942S0
G1 X-6.406S500
G1 X-5S0
G1 X-0.076Y0.1
G1 X5
G1 X6.457S500
G1 X1.972S0
G1 X9.978S500
G1 X4.07S0
G1 X10.248S500
G1 X3.717S0
G1 X13.382S500
G1 X3.858S0
G1 X10.838S500
G1 X4.146S0
G1 X12.03S500
G1 X3.966S0
G1 X9.799S500
G1 X3.716S0
G1 X13.383S500
G1 X3.857S0
G1 X10.933S500
G1 X1.824S0
G1 X14.031S500
G1 X5.577S0
G1 X10.457S500
G1 X5S0
G1 X0.077Y0.1
G1 X-5
G1 X-10.534S500
G1 X-5.654S0
G1 X-13.973S500
G1 X-1.782S0
G1 X-10.887S500
G1 X-3.87S0
G1 X-13.494S500
G1 X-3.726S0
G1 X-9.662S500
G1 X-3.977S0
G1 X-12.091S500
G1 X-4.146S0
G1 X-10.77S500
G1 X-3.87S0
G1 X-13.493S500
G1 X-3.727S0
G1 X-10.152S500
G1 X-4.075S0
G1 X-9.999S500
G1 X-2.003S0
G1 X-6.507S500
G1 X-5S0
G1 X-0.076Y0.1
G1 X5
G1 X6.567S500
G1 X2.029S0
G1 X10.014S500
G1 X4.076S0
G1 X10.062S500
G1 X3.743S0
G1 X13.59S500
G1 X3.886S0
G1 X10.705S500
G1 X4.146S0
G1 X12.153S500
G1 X3.986S0
G1 X9.527S500
G1 X3.742S0
G1 X13.591S500
G1 X3.886S0
G1 X10.835S500
G1 X1.756S0
G1 X13.91S500
G1 X5.73S0
G1 X10.61S500
G1 X5S0
G1 X0.076Y0.1
G1 X-5
G1 X-10.686S500
G1 X-5.806S0
G1 X-13.844S500
G1 X-1.733S0
G1 X-10.783S500
G1 X-3.903S0
G1 X-13.686S500
G1 X-3.759S0
G1 X-9.391S500
G1 X-3.997S0
G1 X-12.214S500
G1 X-4.146S0
G1 X-10.64S500
G1 X-3.903S0
G1 X-13.685S500
G1 X-3.76S0
G1 X-9.975S500
G1 X-4.074S0
G1 X-10.02S500
G1 X-2.063S0
G1 X-6.628S500
G1 X-5S0
G1 X-0.075Y0.1
G1 X5
G1 X6.689S500
G1 X2.099S0
G1 X10.019S500
G1 X4.077S0
G1 X9.886S500
G1 X3.778S0
G1 X13.78S500
G1 X3.92S0
G1 X10.575S500
G1 X4.146S0
G1 X12.275S500
G1 X4.003S0
G1 X9.259S500
G1 X3.777S0
G1 X13.781S500
G1 X3.92S0
G1 X10.731S500
G1 X1.71S0
G1 X13.777S500
G1 X5.883S0
G1 X10.762S500
G1 X5S0
G1 X0.076Y0.1
G1 X-5
G1 X-10.838S500
G1 X-5.959S0
G1 X-13.712S500
G1 X-1.686S0
G1 X-10.68S500
G1 X-3.936S0
G1 X-13.876S500
G1 X-3.794S0
G1 X-9.131S500
G1 X-4.013S0
G1 X-12.329S500
G1 X-4.146S0
G1 X-10.51S500
G1 X-3.937S0
G1 X-13.875S500
G1 X-3.795S0
G1 X-9.799S500
G1 X-4.083S0
G1 X-10.001S500
G1 X-2.149S0
G1 X-6.75S500
G1 X-5S0
G1 X-0.076Y0.1
G1 X5
G1 X6.811S500
G1 X2.209S0
G1 X9.973S500
G1 X4.089S0
G1 X9.712S500
G1 X3.812S0
G1 X13.97S500
G1 X3.954S0
G1 X10.445S500
G1 X4.146S0
G1 X12.382S500
G1 X4.023S0
G1 X9.004S500
G1 X3.811S0
G1 X13.97S500
G1 X3.954S0
G1 X10.623S500
G1 X1.668S0
G1 X13.646S500
G1 X6.035S0
G1 X10.914S500
G1 X5S0
G1 X0.076Y0.1
G1 X-5
G1 X-10.99S500
G1 X-6.112S0
G1 X-13.576S500
G1 X-1.657S0
G1 X-10.562S500
G1 X-3.971S0
G1 X-14.059S500
G1 X-3.835S0
G1 X-8.876S500
G1 X-4.034S0
G1 X-12.434S500
G1 X-4.146S0
G1 X-10.38S500
G1 X-3.971S0
G1 X-14.059S500
G1 X-3.836S0
G1 X-9.628S500
G1 X-4.091S0
G1 X-7.251S500
G1 X-0.942S0
G1 X-1.736S500
G1 X-2.285S0
G1 X-6.872S500
G1 X-5S0
G1 X-0.076Y0.1
G1 X5
G1 X6.934S500
G1 X2.383S0
G1 X1.264S500
G1 X1.623S0
G1 X6.975S500
G1 X4.09S0
G1 X9.548S500
G1 X3.86S0
G1 X14.145S500
G1 X3.99S0
G1 X10.315S500
G1 X4.146S0
G1 X12.487S500
G1 X4.045S0
G1 X8.748S500
G1 X3.859S0
G1 X14.145S500
G1 X3.99S0
G1 X10.501S500
G1 X1.649S0
G1 X13.504S500
G1 X6.188S0
G1 X11.066S500
G1 X5S0
G1 X0.076Y0.1
G1 X-5
G1 X-11.142S500
G1 X-6.264S0
G1 X-13.431S500
G1 X-1.642S0
G1 X-10.446S500
G1 X-4.008S0
G1 X-14.227S500
G1 X-3.874S0
G1 X-8.631S500
G1 X-4.055S0
G1 X-12.538S500
G1 X-4.146S0
G1 X-10.256S500
G1 X-4.008S0
G1 X-14.227S500
G1 X-3.875S0
G1 X-9.476S500
G1 X-4.09S0
G1 X-6.788S500
G1 X-2.175S0
G1 X-0.791S500
G1 X-2.512S0
G1 X-7.005S500
G1 X-5S0
G1 X-0.076Y0.1
G1 X5
G1 X7.076S500
G1 X5.647S0
G1 X6.641S500
G1 X4.089S0
G1 X9.404S500
G1 X3.891S0
G1 X14.308S500
G1 X4.023S0
G1 X10.2S500
G1 X4.146S0
G1 X12.583S500
G1 X4.066S0
G1 X8.519S500
G1 X3.89S0
G1 X14.308S500
G1 X4.023S0
G1 X10.394S500
G1 X1.635S0
G1 X13.357S500
G1 X6.341S0
G1 X11.218S500
G1 X5S0
G1 X0.076Y0.1
G1 X-5
G1 X-11.294S500
G1 X-6.417S0
G1 X-13.284S500
G1 X-1.632S0
G1 X-10.337S500
G1 X-4.039S0
G1 X-14.389S500
G1 X-3.906S0
G1 X-8.408S500
G1 X-4.077S0
G1 X-12.627S500
G1 X-4.146S0
G1 X-10.144S500
G1 X-4.038S0
G1 X-14.389S500
G1 X-3.907S0
G1 X-9.332S500
G1 X-4.095S0
G1 X-6.505S500
G1 X-5.798S0
G1 X-7.146S500
G1 X-5S0
G1 X-0.076Y0.1
G1 X5
G1 X7.217S500
G1 X5.913S0
G1 X6.405S500
G1 X4.097S0
G1 X9.263S500
G1 X3.927S0
G1 X14.467S500
G1 X4.053S0
G1 X10.088S500
G1 X4.146S0
G1 X12.672S500
G1 X4.088S0
G1 X8.295S500
G1 X3.926S0
G1 X14.467S500
G1 X4.054S0
G1 X10.281S500
G1 X1.628S0
G1 X13.212S500
G1 X6.493S0
G1 X11.37S500
G1 X5S0
G1 X0.076Y0.1
G1 X-5
G1 X-11.446S500
G1 X-1.666S0
G1 X-0.06S500
G1 X-4.844S0
G1 X-13.135S500
G1 X-1.628S0
G1 X-10.225S500
G1 X-4.069S0
G1 X-14.543S500
G1 X-3.947S0
G1 X-8.184S500
G1 X-4.099S0
G1 X-12.716S500
G1 X-4.146S0
G1 X-10.031S500
G1 X-4.069S0
G1 X-14.543S500
G1 X-3.948S0
G1 X-9.197S500
G1 X-4.098S0
G1 X-6.305S500
G1 X-6.026S0
G1 X-7.289S500
G1 X-5S0
G1 X-0.076Y0.1
G1 X5
G1 X7.36S500
G1 X6.139S0
G1 X6.207S500
G1 X4.097S0
G1 X9.132S500
G1 X3.97S0
G1 X14.618S500
G1 X4.084S0
G1 X9.975S500
G1 X4.146S0
G1 X12.759S500
G1 X4.112S0
G1 X8.072S500
G1 X3.969S0
G1 X14.618S500
G1 X4.084S0
G1 X10.169S500
G1 X1.628S0
G1 X13.059S500
G1 X4.843S0
G1 X0.137S500
G1 X1.666S0
G1 X11.522S500
G1 X5S0
G1 X0.076Y0.1
G1 X-5
G1 X-11.598S500
G1 X-1.666S0
G1 X-0.214S500
G1 X-4.842S0
G1 X-12.983S500
G1 X-1.628S0
G1 X-10.112S500
G1 X-4.101S0
G1 X-14.693S500
G1 X-3.99S0
G1 X-7.966S500
G1 X-4.125S0
G1 X-12.796S500
G1 X-4.146S0
G1 X-9.919S500
G1 X-4.101S0
G1 X-14.692S500
G1 X-3.991S0
G1 X-9.066S500
G1 X-4.098S0
G1 X-6.141S500
G1 X-6.219S0
G1 X-7.431S500
G1 X-5S0
G1 X-0.074Y0.1
G1 X5
G1 X7.507S500
G1 X6.291S0
G1 X6.077S500
G1 X4.097S0
G1 X9.001S500
G1 X4.013S0
G1 X14.761S500
G1 X4.122S0
G1 X9.863S500
G1 X4.146S0
G1 X12.834S500
G1 X4.135S0
G1 X7.862S500
G1 X4.012S0
G1 X14.762S500
G1 X4.122S0
G1 X10.056S500
G1 X1.628S0
G1 X12.906S500
G1 X4.843S0
G1 X0.29S500
G1 X1.666S0
G1 X11.673S500
G1 X5S0
G1 X0.073Y0.1
G1 X-5
G1 X-11.746S500
G1 X-1.666S0
G1 X-0.367S500
G1 X-4.842S0
G1 X-12.83S500
G1 X-1.628S0
G1 X-10.002S500
G1 X-4.141S0
G1 X-14.832S500
G1 X-4.029S0
G1 X-7.762S500
G1 X-4.146S0
G1 X-12.871S500
G1 X-4.146S0
G1 X-9.809S500
G1 X-4.141S0
G1 X-14.831S500
G1 X-4.03S0
G1 X-8.942S500
G1 X-4.095S0
G1 X-6.011S500
G1 X-6.362S0
G1 X-7.584S500
G1 X-5S0
G1 X-0.072Y0.1
G1 X5
G1 X7.659S500
G1 X6.434S0
G1 X5.939S500
G1 X4.095S0
G1 X8.891S500
G1 X4.048S0
G1 X14.896S500
G1 X4.154S0
G1 X9.761S500
G1 X4.146S0
G1 X12.908S500
G1 X4.158S0
G1 X7.665S500
G1 X4.047S0
G1 X14.897S500
G1 X4.154S0
G1 X9.954S500
G1 X1.628S0
G1 X12.754S500
G1 X4.841S0
G1 X0.444S500
G1 X1.666S0
G1 X11.819S500
G1 X5S0
G1 X0.072Y0.1
G1 X-5
G1 X-11.891S500
G1 X-1.666S0
G1 X-0.521S500
G1 X-4.841S0
G1 X-12.677S500
G1 X-1.628S0
G1 X-9.906S500
G1 X-4.168S0
G1 X-14.96S500
G1 X-4.066S0
G1 X-7.569S500
G1 X-4.169S0
G1 X-12.945S500
G1 X-4.146S0
G1 X-9.712S500
G1 X-4.168S0
G1 X-14.96S500
G1 X-4.067S0
G1 X-8.84S500
G1 X-4.095S0
G1 X-5.893S500
G1 X-6.48S0
G1 X-7.735S500
G1 X-5S0
G1 X-0.072Y0.1
G1 X5
G1 X7.81S500
G1 X6.525S0
G1 X5.848S500
G1 X4.095S0
G1 X8.789S500
G1 X4.086S0
G1 X15.024S500
G1 X4.181S0
G1 X9.664S500
G1 X4.146S0
G1 X12.982S500
G1 X4.18S0
G1 X7.473S500
G1 X4.085S0
G1 X15.024S500
G1 X4.181S0
G1 X9.858S500
G1 X1.628S0
G1 X12.601S500
G1 X4.841S0
G1 X0.597S500
G1 X1.666S0
G1 X11.964S500
G1 X5S0
G1 X0.072Y0.1
G1 X-5
G1 X-12.036S500
G1 X-1.666S0
G1 X-0.674S500
G1 X-4.84S0
G1 X-12.525S500
G1 X-1.628S0
G1 X-9.809S500
G1 X-4.195S0
G1 X-15.089S500
G1 X-4.102S0
G1 X-7.385S500
G1 X-4.184S0
G1 X-13.019S500
G1 X-4.146S0
G1 X-9.616S500
G1 X-4.194S0
G1 X-15.088S500
G1 X-4.104S0
G1 X-8.739S500
G1 X-4.096S0
G1 X-5.802S500
G1 X-6.565S0
G1 X-7.891S500
G1 X-5S0
G1 X-0.072Y0.1
G1 X5
G1 X7.973S500
G1 X6.603S0
G1 X5.757S500
G1 X4.096S0
G1 X8.688S500
G1 X4.122S0
G1 X15.153S500
G1 X4.207S0
G1 X9.568S500
G1 X4.146S0
G1 X13.049S500
G1 X4.196S0
G1 X7.295S500
G1 X4.121S0
G1 X15.153S500
G1 X4.208S0
G1 X9.761S500
G1 X1.628S0
G1 X12.448S500
G1 X4.84S0
G1 X0.751S500
G1 X1.666S0
G1 X12.109S500
G1 X5S0
G1 X0.073Y0.1
G1 X-5
G1 X-12.182S500
G1 X-1.666S0
G1 X-0.828S500
G1 X-4.839S0
G1 X-12.372S500
G1 X-1.628S0
G1 X-9.713S500
G1 X-4.226S0
G1 X-15.212S500
G1 X-4.14S0
G1 X-7.206S500
G1 X-4.208S0
G1 X-13.078S500
G1 X-4.146S0
G1 X-9.519S500
G1 X-4.226S0
G1 X-15.212S500
G1 X-4.141S0
G1 X-8.64S500
G1 X-4.093S0
G1 X-5.721S500
G1 X-6.632S0
G1 X-8.056S500
G1 X-5S0
G1 X-0.072Y0.1
G1 X5
G1 X8.139S500
G1 X6.648S0
G1 X5.697S500
G1 X4.09S0
G1 X8.592S500
G1 X4.163S0
G1 X15.266S500
G1 X4.246S0
G1 X9.471S500
G1 X4.146S0
G1 X13.108S500
G1 X4.22S0
G1 X7.116S500
G1 X4.162S0
G1 X15.266S500
G1 X4.246S0
G1 X9.665S500
G1 X1.628S0
G1 X12.296S500
G1 X4.839S0
G1 X0.904S500
G1 X1.666S0
G1 X12.254S500
G1 X5S0
G1 X0.073Y0.1
G1 X-5
G1 X-12.327S500
G1 X-1.666S0
G1 X-0.981S500
G1 X-4.839S0
G1 X-12.219S500
G1 X-1.628S0
G1 X-9.616S500
G1 X-4.267S0
G1 X-15.319S500
G1 X-4.185S0
G1 X-7.027S500
G1 X-4.232S0
G1 X-13.137S500
G1 X-4.146S0
G1 X-9.423S500
G1 X-4.266S0
G1 X-15.318S500
G1 X-4.187S0
G1 X-8.544S500
G1 X-4.089S0
G1 X-5.672S500
G1 X-6.664S0
G1 X-8.221S500
G1 X-5S0
G1 X-0.073Y0.1
G1 X5
G1 X8.309S500
G1 X6.675S0
G1 X5.646S500
G1 X4.089S0
G1 X8.501S500
G1 X4.205S0
G1 X15.371S500
G1 X4.282S0
G1 X9.379S500
G1 X4.146S0
G1 X13.167S500
G1 X4.242S0
G1 X6.944S500
G1 X4.204S0
G1 X15.371S500
G1 X4.283S0
G1 X9.572S500
G1 X1.628S0
G1 X12.143S500
G1 X4.838S0
G1 X1.058S500
G1 X1.666S0
G1 X12.399S500
G1 X5S0
G1 X0.073Y0.1
G1 X-5
G1 X-12.472S500
G1 X-1.666S0
G1 X-1.135S500
G1 X-4.837S0
G1 X-12.067S500
G1 X-1.628S0
G1 X-9.532S500
G1 X-4.295S0
G1 X-15.424S500
G1 X-4.219S0
G1 X-6.868S500
G1 X-4.248S0
G1 X-13.197S500
G1 X-4.146S0
G1 X-9.338S500
G1 X-4.295S0
G1 X-15.424S500
G1 X-4.22S0
G1 X-8.461S500
G1 X-4.089S0
G1 X-5.619S500
G1 X-6.684S0
G1 X-8.399S500
G1 X-5S0
G1 X-0.073Y0.1
G1 X5
G1 X8.49S500
G1 X6.684S0
G1 X5.601S500
G1 X4.089S0
G1 X8.42S500
G1 X4.237S0
G1 X15.476S500
G1 X4.307S0
G1 X9.298S500
G1 X4.146S0
G1 X13.226S500
G1 X4.255S0
G1 X6.791S500
G1 X4.235S0
G1 X15.478S500
G1 X4.307S0
G1 X9.491S500
G1 X1.628S0
G1 X11.99S500
G1 X4.838S0
G1 X1.211S500
G1 X1.666S0
G1 X12.545S500
G1 X5S0
G1 X0.072Y0.1
G1 X-5
G1 X-12.617S500
G1 X-1.666S0
G1 X-1.288S500
G1 X-4.837S0
G1 X-11.914S500
G1 X-1.628S0
G1 X-9.451S500
G1 X-4.319S0
G1 X-15.53S500
G1 X-4.251S0
G1 X-6.715S500
G1 X-4.262S0
G1 X-13.255S500
G1 X-4.146S0
G1 X-9.257S500
G1 X-4.32S0
G1 X-15.529S500
G1 X-4.252S0
G1 X-8.38S500
G1 X-4.089S0
G1 X-5.593S500
G1 X-6.674S0
G1 X-8.58S500
G1 X-5S0
G1 X-0.073Y0.1
G1 X5
G1 X8.672S500
G1 X6.663S0
G1 X5.585S500
G1 X4.089S0
G1 X8.34S500
G1 X4.268S0
G1 X15.581S500
G1 X4.332S0
G1 X9.217S500
G1 X4.146S0
G1 X13.278S500
G1 X4.274S0
G1 X6.64S500
G1 X4.267S0
G1 X15.582S500
G1 X4.332S0
G1 X9.41S500
G1 X1.628S0
G1 X11.837S500
G1 X4.837S0
G1 X1.365S500
G1 X1.666S0
G1 X12.69S500
G1 X5S0
G1 X0.073Y0.1
G1 X-5
G1 X-12.763S500
G1 X-1.666S0
G1 X-1.442S500
G1 X-4.836S0
G1 X-11.761S500
G1 X-1.628S0
G1 X-9.369S500
G1 X-4.349S0
G1 X-15.626S500
G1 X-4.288S0
G1 X-6.563S500
G1 X-4.287S0
G1 X-13.301S500
G1 X-4.146S0
G1 X-9.176S500
G1 X-4.348S0
G1 X-15.626S500
G1 X-4.289S0
G1 X-8.299S500
G1 X-4.089S0
G1 X-5.577S500
G1 X-6.646S0
G1 X-8.769S500
G1 X-5S0
G1 X-0.073Y0.1
G1 X5
G1 X8.869S500
G1 X6.627S0
G1 X5.569S500
G1 X4.089S0
G1 X8.259S500
G1 X4.308S0
G1 X15.669S500
G1 X4.367S0
G1 X9.135S500
G1 X4.146S0
G1 X13.324S500
G1 X4.3S0
G1 X6.487S500
G1 X4.307S0
G1 X15.67S500
G1 X4.366S0
G1 X9.329S500
G1 X1.628S0
G1 X11.685S500
G1 X4.835S0
G1 X1.519S500
G1 X1.666S0
G1 X12.835S500
G1 X5S0
G1 X0.073Y0.1
G1 X-5
G1 X-12.908S500
G1 X-1.666S0
G1 X-1.595S500
G1 X-4.836S0
G1 X-11.608S500
G1 X-1.628S0
G1 X-9.288S500
G1 X-4.385S0
G1 X-15.713S500
G1 X-4.326S0
G1 X-6.411S500
G1 X-4.313S0
G1 X-13.347S500
G1 X-4.146S0
G1 X-9.095S500
G1 X-4.385S0
G1 X-15.711S500
G1 X-4.328S0
G1 X-8.219S500
G1 X-4.089S0
G1 X-5.562S500
G1 X-6.607S0
G1 X-8.968S500
G1 X-5S0
G1 X-0.07Y0.1
G1 X5
G1 X9.065S500
G1 X6.576S0
G1 X5.566S500
G1 X4.089S0
G1 X8.178S500
G1 X4.348S0
G1 X15.755S500
G1 X4.403S0
G1 X9.054S500
G1 X4.146S0
G1 X13.37S500
G1 X4.323S0
G1 X6.337S500
G1 X4.347S0
G1 X15.755S500
G1 X4.404S0
G1 X9.247S500
G1 X1.628S0
G1 X11.532S500
G1 X4.835S0
G1 X1.672S500
G1 X1.666S0
G1 X12.978S500
G1 X5S0
G1 X0.07Y0.1
G1 X-5
G1 X-13.048S500
G1 X-1.666S0
G1 X-1.749S500
G1 X-4.834S0
G1 X-11.456S500
G1 X-1.628S0
G1 X-9.211S500
G1 X-4.418S0
G1 X-15.798S500
G1 X-4.363S0
G1 X-6.27S500
G1 X-4.33S0
G1 X-13.393S500
G1 X-4.146S0
G1 X-9.018S500
G1 X-4.417S0
G1 X-15.798S500
G1 X-4.364S0
G1 X-8.141S500
G1 X-4.089S0
G1 X-5.57S500
G1 X-6.541S0
G1 X-9.166S500
G1 X-5S0
G1 X-0.069Y0.1
G1 X5
G1 X9.271S500
G1 X6.501S0
G1 X5.574S500
G1 X4.089S0
G1 X8.108S500
G1 X4.377S0
G1 X15.84S500
G1 X4.429S0
G1 X8.984S500
G1 X4.146S0
G1 X13.416S500
G1 X4.338S0
G1 X6.206S500
G1 X4.376S0
G1 X15.841S500
G1 X4.429S0
G1 X9.177S500
G1 X1.628S0
G1 X11.379S500
G1 X4.834S0
G1 X1.826S500
G1 X1.666S0
G1 X13.117S500
G1 X5S0
G1 X0.069Y0.1
G1 X-5
G1 X-13.186S500
G1 X-1.666S0
G1 X-1.902S500
G1 X-4.834S0
G1 X-11.303S500
G1 X-1.628S0
G1 X-9.144S500
G1 X-4.44S0
G1 X-15.882S500
G1 X-4.391S0
G1 X-6.142S500
G1 X-4.345S0
G1 X-13.439S500
G1 X-4.146S0
G1 X-8.951S500
G1 X-4.44S0
G1 X-15.881S500
G1 X-4.392S0
G1 X-8.074S500
G1 X-4.089S0
G1 X-5.586S500
G1 X-6.452S0
G1 X-9.377S500
G1 X-5S0
G1 X-0.069Y0.1
G1 X5
G1 X9.483S500
G1 X6.402S0
G1 X5.599S500
G1 X4.089S0
G1 X8.041S500
G1 X4.408S0
G1 X15.92S500
G1 X4.452S0
G1 X8.917S500
G1 X4.146S0
G1 X13.459S500
G1 X4.355S0
G1 X6.079S500
G1 X4.407S0
G1 X15.921S500
G1 X4.451S0
G1 X9.111S500
G1 X1.628S0
G1 X11.227S500
G1 X4.833S0
G1 X1.979S500
G1 X1.666S0
G1 X13.255S500
G1 X5S0
G1 X0.07Y0.1
G1 X-5
G1 X-13.325S500
G1 X-1.666S0
G1 X-2.056S500
G1 X-4.833S0
G1 X-11.15S500
G1 X-1.628S0
G1 X-9.077S500
G1 X-4.463S0
G1 X-15.96S500
G1 X-4.423S0
G1 X-6.016S500
G1 X-4.368S0
G1 X-13.476S500
G1 X-4.146S0
G1 X-8.884S500
G1 X-4.462S0
G1 X-15.96S500
G1 X-4.424S0
G1 X-8.008S500
G1 X-4.089S0
G1 X-5.613S500
G1 X-6.349S0
G1 X-9.591S500
G1 X-5S0
G1 X-0.07Y0.1
G1 X5
G1 X9.709S500
G1 X6.28S0
G1 X5.634S500
G1 X4.089S0
G1 X7.975S500
G1 X4.44S0
G1 X15.994S500
G1 X4.478S0
G1 X8.851S500
G1 X4.146S0
G1 X13.494S500
G1 X4.38S0
G1 X5.952S500
G1 X4.44S0
G1 X15.995S500
G1 X4.478S0
G1 X9.044S500
G1 X1.628S0
G1 X11.074S500
G1 X4.832S0
G1 X2.133S500
G1 X1.666S0
G1 X13.394S500
G1 X5S0
G1 X0.069Y0.1
G1 X-5
G1 X-13.463S500
G1 X-1.666S0
G1 X-2.209S500
G1 X-4.832S0
G1 X-10.998S500
G1 X-1.628S0
G1 X-9.01S500
G1 X-4.495S0
G1 X-16.029S500
G1 X-4.456S0
G1 X-5.889S500
G1 X-4.393S0
G1 X-13.511S500
G1 X-4.146S0
G1 X-8.817S500
G1 X-4.495S0
G1 X-16.028S500
G1 X-4.457S0
G1 X-7.941S500
G1 X-4.089S0
G1 X-5.657S500
G1 X-6.208S0
G1 X-9.827S500
G1 X-5S0
G1 X-0.069Y0.1
G1 X5
G1 X9.944S500
G1 X6.137S0
G1 X5.68S500
G1 X4.089S0
G1 X7.908S500
G1 X4.473S0
G1 X16.062S500
G1 X4.511S0
G1 X8.784S500
G1 X4.146S0
G1 X13.529S500
G1 X4.404S0
G1 X5.827S500
G1 X4.472S0
G1 X16.063S500
G1 X4.511S0
G1 X8.977S500
G1 X1.628S0
G1 X10.921S500
G1 X4.832S0
G1 X2.286S500
G1 X1.666S0
G1 X13.532S500
G1 X5S0
G1 X0.07Y0.1
G1 X-5
G1 X-13.602S500
G1 X-1.666S0
G1 X-2.363S500
G1 X-4.831S0
G1 X-10.845S500
G1 X-1.628S0
G1 X-8.944S500
G1 X-4.527S0
G1 X-16.097S500
G1 X-4.488S0
G1 X-5.77S500
G1 X-4.411S0
G1 X-13.546S500
G1 X-4.146S0
G1 X-8.75S500
G1 X-4.528S0
G1 X-16.096S500
G1 X-4.489S0
G1 X-7.875S500
G1 X-4.089S0
G1 X-5.714S500
G1 X-6.052S0
G1 X-10.064S500
G1 X-5S0
G1 X-0.069Y0.1
G1 X5
G1 X10.195S500
G1 X5.956S0
G1 X5.748S500
G1 X4.089S0
G1 X7.842S500
G1 X4.506S0
G1 X16.129S500
G1 X4.542S0
G1 X8.719S500
G1 X4.146S0
G1 X13.564S500
G1 X4.418S0
G1 X5.711S500
G1 X4.506S0
G1 X16.13S500
G1 X4.542S0
G1 X8.912S500
G1 X1.628S0
G1 X10.769S500
G1 X4.83S0
G1 X2.44S500
G1 X1.666S0
G1 X13.671S500
G1 X5S0
G1 X0.069Y0.1
G1 X-5
G1 X-13.74S500
G1 X-1.666S0
G1 X-2.516S500
G1 X-4.831S0
G1 X-10.692S500
G1 X-1.628S0
G1 X-8.886S500
G1 X-4.551S0
G1 X-16.161S500
G1 X-4.518S0
G1 X-5.66S500
G1 X-4.425S0
G1 X-13.582S500
G1 X-4.146S0
G1 X-8.692S500
G1 X-4.551S0
G1 X-16.16S500
G1 X-4.52S0
G1 X-7.815S500
G1 X-4.089S0
G1 X-5.785S500
G1 X-5.858S0
G1 X-10.326S500
G1 X-5S0
G1 X-0.069Y0.1
G1 X5
G1 X10.457S500
G1 X5.75S0
G1 X5.831S500
G1 X4.089S0
G1 X7.789S500
G1 X4.532S0
G1 X16.191S500
G1 X4.56S0
G1 X8.666S500
G1 X4.146S0
G1 X13.599S500
G1 X4.432S0
G1 X5.609S500
G1 X4.532S0
G1 X16.191S500
G1 X4.561S0
G1 X8.859S500
G1 X1.628S0
G1 X10.616S500
G1 X4.83S0
G1 X2.593S500
G1 X1.666S0
G1 X13.81S500
G1 X5S0
G1 X0.069Y0.1
G1 X-5
G1 X-13.879S500
G1 X-1.666S0
G1 X-2.67S500
G1 X-4.829S0
G1 X-10.54S500
G1 X-1.628S0
G1 X-8.832S500
G1 X-4.571S0
G1 X-16.222S500
G1 X-4.544S0
G1 X-5.558S500
G1 X-4.442S0
G1 X-13.614S500
G1 X-4.146S0
G1 X-8.639S500
G1 X-4.57S0
G1 X-16.222S500
G1 X-4.545S0
G1 X-7.762S500
G1 X-4.089S0
G1 X-5.877S500
G1 X-5.634S0
G1 X-10.596S500
G1 X-5S0
G1 X-0.069Y0.1
G1 X5
G1 X10.741S500
G1 X5.503S0
G1 X5.932S500
G1 X4.089S0
G1 X7.735S500
G1 X4.559S0
G1 X16.252S500
G1 X4.579S0
G1 X8.613S500
G1 X4.146S0
G1 X13.627S500
G1 X4.454S0
G1 X5.506S500
G1 X4.557S0
G1 X16.253S500
G1 X4.58S0
G1 X8.806S500
G1 X1.628S0
G1 X10.463S500
G1 X4.829S0
G1 X2.747S500
G1 X1.666S0
G1 X13.948S500
G1 X5S0
G1 X0.069Y0.1
G1 X-5
G1 X-14.017S500
G1 X-1.666S0
G1 X-2.824S500
G1 X-4.828S0
G1 X-10.387S500
G1 X-1.628S0
G1 X-8.779S500
G1 X-4.593S0
G1 X-16.28S500
G1 X-4.571S0
G1 X-5.454S500
G1 X-4.466S0
G1 X-13.64S500
G1 X-4.146S0
G1 X-8.586S500
G1 X-4.592S0
G1 X-16.28S500
G1 X-4.571S0
G1 X-7.709S500
G1 X-4.089S0
G1 X-5.992S500
G1 X-5.366S0
G1 X-10.887S500
G1 X-5S0
G1 X-0.07Y0.1
G1 X5
G1 X11.037S500
G1 X5.223S0
G1 X6.055S500
G1 X4.089S0
G1 X7.682S500
G1 X4.585S0
G1 X16.305S500
G1 X4.607S0
G1 X8.559S500
G1 X4.146S0
G1 X13.652S500
G1 X4.478S0
G1 X5.404S500
G1 X4.583S0
G1 X16.307S500
G1 X4.606S0
G1 X8.753S500
G1 X1.628S0
G1 X10.311S500
G1 X4.828S0
G1 X2.9S500
G1 X1.666S0
G1 X14.087S500
G1 X5S0
G1 X0.069Y0.1
G1 X-5
G1 X-14.156S500
G1 X-1.666S0
G1 X-2.977S500
G1 X-4.828S0
G1 X-10.234S500
G1 X-1.628S0
G1 X-8.726S500
G1 X-4.621S0
G1 X-16.332S500
G1 X-4.597S0
G1 X-5.356S500
G1 X-4.486S0
G1 X-13.665S500
G1 X-4.146S0
G1 X-8.533S500
G1 X-4.62S0
G1 X-16.332S500
G1 X-4.597S0
G1 X-7.656S500
G1 X-4.089S0
G1 X-6.13S500
G1 X-5.055S0
G1 X-11.199S500
G1 X-5S0
G1 X-0.067Y0.1
G1 X5
G1 X11.359S500
G1 X4.887S0
G1 X6.205S500
G1 X4.089S0
G1 X7.629S500
G1 X4.612S0
G1 X16.356S500
G1 X4.635S0
G1 X8.506S500
G1 X4.146S0
G1 X13.678S500
G1 X4.492S0
G1 X5.311S500
G1 X4.611S0
G1 X16.357S500
G1 X4.635S0
G1 X8.699S500
G1 X1.628S0
G1 X10.158S500
G1 X4.827S0
G1 X3.054S500
G1 X1.666S0
G1 X14.223S500
G1 X5S0
G1 X0.066Y0.1
G1 X-5
G1 X-14.289S500
G1 X-1.666S0
G1 X-3.131S500
G1 X-4.826S0
G1 X-10.082S500
G1 X-1.628S0
G1 X-8.673S500
G1 X-4.649S0
G1 X-16.38S500
G1 X-4.627S0
G1 X-5.264S500
G1 X-4.499S0
G1 X-13.691S500
G1 X-4.146S0
G1 X-8.48S500
G1 X-4.648S0
G1 X-16.379S500
G1 X-4.628S0
G1 X-7.603S500
G1 X-4.089S0
G1 X-6.296S500
G1 X-4.699S0
G1 X-11.522S500
G1 X-5S0
G1 X-0.067Y0.1
G1 X5
G1 X11.702S500
G1 X4.493S0
G1 X6.389S500
G1 X4.089S0
G1 X7.578S500
G1 X4.642S0
G1 X16.402S500
G1 X4.658S0
G1 X8.458S500
G1 X4.146S0
G1 X13.703S500
G1 X4.506S0
G1 X5.221S500
G1 X4.641S0
G1 X16.403S500
G1 X4.658S0
G1 X8.651S500
G1 X1.628S0
G1 X10.005S500
G1 X4.827S0
G1 X3.207S500
G1 X1.666S0
G1 X14.355S500
G1 X5S0
G1 X0.066Y0.1
G1 X-5
G1 X-14.421S500
G1 X-1.666S0
G1 X-3.284S500
G1 X-4.826S0
G1 X-9.929S500
G1 X-1.628S0
G1 X-8.631S500
G1 X-4.666S0
G1 X-16.426S500
G1 X-4.65S0
G1 X-5.181S500
G1 X-4.513S0
G1 X-13.716S500
G1 X-4.146S0
G1 X-8.438S500
G1 X-4.665S0
G1 X-16.425S500
G1 X-4.652S0
G1 X-7.558S500
G1 X-4.089S0
G1 X-6.494S500
G1 X-4.274S0
G1 X-11.882S500
G1 X-5S0
G1 X-0.066Y0.1
G1 X5
G1 X12.076S500
G1 X4.036S0
G1 X6.604S500
G1 X4.089S0
G1 X7.538S500
G1 X4.661S0
G1 X16.448S500
G1 X4.673S0
G1 X8.418S500
G1 X4.146S0
G1 X13.729S500
G1 X4.52S0
G1 X5.141S500
G1 X4.659S0
G1 X16.45S500
G1 X4.673S0
G1 X8.611S500
G1 X1.628S0
G1 X9.853S500
G1 X4.825S0
G1 X3.361S500
G1 X1.666S0
G1 X14.487S500
G1 X5S0
G1 X0.066Y0.1
G1 X-5
G1 X-14.553S500
G1 X-1.666S0
G1 X-3.438S500
G1 X-4.825S0
G1 X-9.776S500
G1 X-1.628S0
G1 X-8.591S500
G1 X-4.681S0
G1 X-16.472S500
G1 X-4.67S0
G1 X-5.101S500
G1 X-4.529S0
G1 X-13.739S500
G1 X-4.146S0
G1 X-8.398S500
G1 X-4.68S0
G1 X-16.472S500
G1 X-4.67S0
G1 X-7.518S500
G1 X-4.089S0
G1 X-6.733S500
G1 X-3.766S0
G1 X-12.284S500
G1 X-5S0
G1 X-0.066Y0.1
G1 X5
G1 X12.503S500
G1 X3.477S0
G1 X6.869S500
G1 X4.089S0
G1 X7.498S500
G1 X4.68S0
G1 X16.494S500
G1 X4.689S0
G1 X8.377S500
G1 X4.146S0
G1 X13.747S500
G1 X4.541S0
G1 X5.061S500
G1 X4.679S0
G1 X16.496S500
G1 X4.688S0
G1 X8.571S500
G1 X1.628S0
G1 X9.7S500
G1 X4.825S0
G1 X3.514S500
G1 X1.666S0
G1 X14.619S500
G1 X5S0
G1 X0.066Y0.1
G1 X-5
G1 X-14.685S500
G1 X-1.666S0
G1 X-3.591S500
G1 X-4.825S0
G1 X-9.623S500
G1 X-1.628S0
G1 X-8.55S500
G1 X-4.7S0
G1 X-16.515S500
G1 X-4.689S0
G1 X-5.023S500
G1 X-4.55S0
G1 X-13.756S500
G1 X-4.146S0
G1 X-8.357S500
G1 X-4.699S0
G1 X-16.515S500
G1 X-4.689S0
G1 X-7.478S500
G1 X-4.089S0
G1 X-7.04S500
G1 X-3.125S0
G1 X-12.75S500
G1 X-5S0
G1 X-0.067Y0.1
G1 X5
G1 X13.027S500
G1 X2.718S0
G1 X7.237S500
G1 X4.089S0
G1 X7.458S500
G1 X4.7S0
G1 X16.532S500
G1 X4.711S0
G1 X8.337S500
G1 X4.146S0
G1 X13.764S500
G1 X4.557S0
G1 X4.988S500
G1 X4.7S0
G1 X16.533S500
G1 X4.711S0
G1 X8.53S500
G1 X1.628S0
G1 X9.547S500
G1 X4.824S0
G1 X3.668S500
G1 X1.666S0
G1 X14.751S500
G1 X5S0
G1 X0.066Y0.1
G1 X-5
G1 X-14.817S500
G1 X-1.666S0
G1 X-3.745S500
G1 X-4.823S0
G1 X-9.471S500
G1 X-1.628S0
G1 X-8.51S500
G1 X-4.723S0
G1 X-16.549S500
G1 X-4.712S0
G1 X-4.953S500
G1 X-4.563S0
G1 X-13.773S500
G1 X-4.146S0
G1 X-8.317S500
G1 X-4.723S0
G1 X-16.547S500
G1 X-4.714S0
G1 X-7.437S500
G1 X-4.089S0
G1 X-7.484S500
G1 X-2.223S0
G1 X-13.341S500
G1 X-5S0
G1 X-0.066Y0.1
G1 X5
G1 X13.77S500
G1 X1.504S0
G1 X7.84S500
G1 X4.089S0
G1 X7.417S500
G1 X4.726S0
G1 X16.564S500
G1 X4.734S0
G1 X8.297S500
G1 X4.146S0
G1 X13.782S500
G1 X4.569S0
G1 X4.918S500
G1 X4.724S0
G1 X16.565S500
G1 X4.735S0
G1 X8.49S500
G1 X1.628S0
G1 X9.394S500
G1 X4.824S0
G1 X3.821S500
G1 X1.666S0
G1 X14.883S500
G1 X5S0
G1 X0.066Y0.1
G1 X-5
G1 X-14.949S500
G1 X-1.666S0
G1 X-3.898S500
G1 X-4.823S0
G1 X-9.318S500
G1 X-1.628S0
G1 X-8.47S500
G1 X-4.746S0
G1 X-16.582S500
G1 X-4.737S0
G1 X-4.882S500
G1 X-4.576S0
G1 X-13.79S500
G1 X-4.146S0
G1 X-8.277S500
G1 X-4.746S0
G1 X-16.58S500
G1 X-4.738S0
G1 X-7.397S500
G1 X-4.089S0
G1 X-23.181S500
G1 X-5S0
G1 X-0.066Y0.1
G1 X5
G1 X23.247S500
G1 X4.089S0
G1 X7.38S500
G1 X4.747S0
G1 X16.597S500
G1 X4.751S0
G1 X8.263S500
G1 X4.146S0
G1 X13.799S500
G1 X4.582S0
G1 X4.85S500
G1 X4.746S0
G1 X16.598S500
G1 X4.752S0
G1 X8.456S500
G1 X1.628S0
G1 X9.242S500
G1 X4.822S0
G1 X3.975S500
G1 X1.666S0
G1 X15.015S500
G1 X5S0
G1 X0.066Y0.1
G1 X-5
G1 X-15.081S500
G1 X-1.666S0
G1 X-4.052S500
G1 X-4.822S0
G1 X-9.165S500
G1 X-1.628S0
G1 X-8.442S500
G1 X-4.757S0
G1 X-16.615S500
G1 X-4.752S0
G1 X-4.822S500
G1 X-4.588S0
G1 X-13.807S500
G1 X-4.146S0
G1 X-8.249S500
G1 X-4.757S0
G1 X-16.613S500
G1 X-4.753S0
G1 X-7.366S500
G1 X-4.089S0
G1 X-23.313S500
G1 X-5S0
G1 X-0.067Y0.1
G1 X5
G1 X23.38S500
G1 X4.089S0
G1 X7.352S500
G1 X4.759S0
G1 X16.63S500
G1 X4.762S0
G1 X8.235S500
G1 X4.146S0
G1 X13.816S500
G1 X4.594S0
G1 X4.793S500
G1 X4.759S0
G1 X16.63S500
G1 X4.763S0
G1 X8.428S500
G1 X1.628S0
G1 X9.089S500
G1 X4.821S0
G1 X4.129S500
G1 X1.666S0
G1 X15.147S500
G1 X5S0
G1 X0.066Y0.1
G1 X-5
G1 X-15.213S500
G1 X-1.666S0
G1 X-4.205S500
G1 X-4.821S0
G1 X-9.013S500
G1 X-1.628S0
G1 X-8.414S500
G1 X-4.768S0
G1 X-16.647S500
G1 X-4.765S0
G1 X-4.764S500
G1 X-4.602S0
G1 X-13.823S500
G1 X-4.146S0
G1 X-8.221S500
G1 X-4.768S0
G1 X-16.646S500
G1 X-4.765S0
G1 X-7.338S500
G1 X-4.089S0
G1 X-23.446S500
G1 X-5S0
G1 X-0.066Y0.1
G1 X5
G1 X23.512S500
G1 X4.089S0
G1 X7.324S500
G1 X4.772S0
G1 X16.662S500
G1 X4.773S0
G1 X8.207S500
G1 X4.146S0
G1 X13.828S500
G1 X4.61S0
G1 X4.737S500
G1 X4.772S0
G1 X16.662S500
G1 X4.774S0
G1 X8.4S500
G1 X1.628S0
G1 X8.936S500
G1 X4.821S0
G1 X4.282S500
G1 X1.666S0
G1 X15.279S500
G1 X5S0
G1 X0.066Y0.1
G1 X-5
G1 X-15.345S500
G1 X-1.666S0
G1 X-4.359S500
G1 X-4.82S0
G1 X-8.86S500
G1 X-1.628S0
G1 X-8.386S500
G1 X-4.781S0
G1 X-16.675S500
G1 X-4.78S0
G1 X-4.713S500
G1 X-4.615S0
G1 X-13.833S500
G1 X-4.146S0
G1 X-8.193S500
G1 X-4.781S0
G1 X-16.673S500
G1 X-4.781S0
G1 X-7.31S500
G1 X-4.089S0
G1 X-23.576S500
G1 X-5S0
G1 X-0.063Y0.1
G1 X5
G1 X23.639S500
G1 X4.089S0
G1 X7.296S500
G1 X4.789S0
G1 X16.684S500
G1 X4.79S0
G1 X8.179S500
G1 X4.146S0
G1 X13.838S500
G1 X4.621S0
G1 X4.688S500
G1 X4.789S0
G1 X16.685S500
G1 X4.79S0
G1 X8.372S500
G1 X1.628S0
G1 X8.784S500
G1 X4.819S0
G1 X4.436S500
G1 X1.666S0
G1 X15.409S500
G1 X5S0
G1 X0.063Y0.1
G1 X-5
G1 X-15.472S500
G1 X-1.666S0
G1 X-4.512S500
G1 X-4.82S0
G1 X-8.707S500
G1 X-1.628S0
G1 X-8.358S500
G1 X-4.799S0
G1 X-16.695S500
G1 X-4.798S0
G1 X-4.664S500
G1 X-4.626S0
G1 X-13.843S500
G1 X-4.146S0
G1 X-8.165S500
G1 X-4.799S0
G1 X-16.694S500
G1 X-4.799S0
G1 X-7.281S500
G1 X-4.089S0
G1 X-23.703S500
G1 X-5S0
G1 X-0.063Y0.1
G1 X5
G1 X23.766S500
G1 X4.089S0
G1 X7.267S500
G1 X4.808S0
G1 X16.704S500
G1 X4.808S0
G1 X8.151S500
G1 X4.146S0
G1 X13.848S500
G1 X4.631S0
G1 X4.64S500
G1 X4.806S0
G1 X16.705S500
G1 X4.809S0
G1 X8.344S500
G1 X1.628S0
G1 X8.631S500
G1 X4.819S0
G1 X4.589S500
G1 X1.666S0
G1 X15.535S500
G1 X5S0
G1 X0.063Y0.1
G1 X-5
G1 X-15.598S500
G1 X-1.666S0
G1 X-4.666S500
G1 X-4.818S0
G1 X-8.555S500
G1 X-1.628S0
G1 X-8.33S500
G1 X-4.818S0
G1 X-16.715S500
G1 X-4.815S0
G1 X-4.615S500
G1 X-4.638S0
G1 X-13.852S500
G1 X-4.146S0
G1 X-8.137S500
G1 X-4.817S0
G1 X-16.715S500
G1 X-4.816S0
G1 X-7.253S500
G1 X-4.089S0
G1 X-23.829S500
G1 X-5S0
G1 X-0.064Y0.1
G1 X5
G1 X23.893S500
G1 X4.089S0
G1 X7.241S500
G1 X4.823S0
G1 X16.724S500
G1 X4.822S0
G1 X8.128S500
G1 X4.146S0
G1 X13.857S500
G1 X4.643S0
G1 X4.593S500
G1 X4.821S0
G1 X16.726S500
G1 X4.822S0
G1 X8.321S500
G1 X1.628S0
G1 X8.478S500
G1 X4.818S0
G1 X4.743S500
G1 X1.666S0
G1 X15.661S500
G1 X5S0
G1 X0.063Y0.1
G1 X-5
G1 X-15.724S500
G1 X-1.666S0
G1 X-4.819S500
G1 X-4.818S0
G1 X-8.402S500
G1 X-1.628S0
G1 X-8.313S500
G1 X-4.825S0
G1 X-16.736S500
G1 X-4.825S0
G1 X-4.574S500
G1 X-4.648S0
G1 X-13.862S500
G1 X-4.146S0
G1 X-8.12S500
G1 X-4.825S0
G1 X-16.735S500
G1 X-4.825S0
G1 X-7.233S500
G1 X-4.089S0
G1 X-23.956S500
G1 X-5S0
G1 X-0.063Y0.1
G1 X5
G1 X24.019S500
G1 X4.089S0
G1 X7.225S500
G1 X4.828S0
G1 X16.745S500
G1 X4.829S0
G1 X8.111S500
G1 X4.146S0
G1 X13.867S500
G1 X4.654S0
G1 X4.555S500
G1 X4.828S0
G1 X16.746S500
G1 X4.829S0
G1 X8.304S500
G1 X1.628S0
G1 X8.326S500
G1 X4.817S0
G1 X4.896S500
G1 X1.666S0
G1 X15.786S500
G1 X5S0
G1 X0.063Y0.1
G1 X-5
G1 X-15.849S500
G1 X-1.666S0
G1 X-4.973S500
G1 X-4.817S0
G1 X-8.249S500
G1 X-1.628S0
G1 X-8.296S500
G1 X-4.833S0
G1 X-16.754S500
G1 X-4.832S0
G1 X-4.539S500
G1 X-4.657S0
G1 X-13.872S500
G1 X-4.146S0
G1 X-8.103S500
G1 X-4.832S0
G1 X-16.754S500
G1 X-4.832S0
G1 X-7.217S500
G1 X-4.089S0
G1 X-24.083S500
G1 X-5S0
G1 X-0.063Y0.1
G1 X5
G1 X24.146S500
G1 X4.089S0
G1 X7.209S500
G1 X4.837S0
G1 X16.762S500
G1 X4.835S0
G1 X8.095S500
G1 X4.146S0
G1 X13.876S500
G1 X4.659S0
G1 X4.525S500
G1 X4.837S0
G1 X16.762S500
G1 X4.836S0
G1 X8.288S500
G1 X1.628S0
G1 X8.173S500
G1 X4.816S0
G1 X5.05S500
G1 X1.666S0
G1 X15.912S500
G1 X5S0
G1 X0.063Y0.1
G1 X-5
G1 X-15.975S500
G1 X-1.666S0
G1 X-5.126S500
G1 X-4.816S0
G1 X-8.097S500
G1 X-1.628S0
G1 X-8.28S500
G1 X-4.839S0
G1 X-16.77S500
G1 X-4.843S0
G1 X-4.51S500
G1 X-4.663S0
G1 X-13.878S500
G1 X-4.146S0
G1 X-8.087S500
G1 X-4.839S0
G1 X-16.769S500
G1 X-4.843S0
G1 X-7.2S500
G1 X-4.089S0
G1 X-24.21S500
G1 X-5S0
G1 X-0.063Y0.1
G1 X5
G1 X24.273S500
G1 X4.089S0
G1 X7.192S500
G1 X4.848S0
G1 X16.776S500
G1 X4.843S0
G1 X8.079S500
G1 X4.146S0
G1 X13.879S500
G1 X4.668S0
G1 X4.496S500
G1 X4.848S0
G1 X16.776S500
G1 X4.844S0
G1 X8.272S500
G1 X1.628S0
G1 X8.02S500
G1 X4.816S0
G1 X5.203S500
G1 X1.666S0
G1 X16.038S500
G1 X5S0
G1 X0.063Y0.1
G1 X-5
G1 X-16.101S500
G1 X-1.666S0
G1 X-5.28S500
G1 X-4.815S0
G1 X-7.944S500
G1 X-1.628S0
G1 X-8.263S500
G1 X-4.851S0
G1 X-16.782S500
G1 X-4.852S0
G1 X-4.482S500
G1 X-4.672S0
G1 X-13.881S500
G1 X-4.146S0
G1 X-8.07S500
G1 X-4.851S0
G1 X-16.78S500
G1 X-4.853S0
G1 X-7.184S500
G1 X-4.089S0
G1 X-24.336S500
G1 X-5S0
G1 X-0.064Y0.1
G1 X5
G1 X24.4S500
G1 X4.089S0
G1 X7.176S500
G1 X4.858S0
G1 X16.785S500
G1 X4.857S0
G1 X8.062S500
G1 X4.146S0
G1 X13.882S500
G1 X4.677S0
G1 X4.468S500
G1 X4.857S0
G1 X16.786S500
G1 X4.858S0
G1 X8.255S500
G1 X1.628S0
G1 X7.868S500
G1 X4.814S0
G1 X5.357S500
G1 X1.666S0
G1 X16.164S500
G1 X5S0
G1 X0.062Y0.1
G1 X-5
G1 X-16.226S500
G1 X-1.666S0
G1 X-5.434S500
G1 X-4.814S0
G1 X-7.791S500
G1 X-1.628S0
G1 X-8.247S500
G1 X-4.864S0
G1 X-16.791S500
G1 X-4.863S0
G1 X-4.453S500
G1 X-4.681S0
G1 X-13.884S500
G1 X-4.146S0
G1 X-8.054S500
G1 X-4.864S0
G1 X-16.789S500
G1 X-4.864S0
G1 X-7.167S500
G1 X-4.089S0
G1 X-24.463S500
G1 X-5S0
G1 X-0.063Y0.1
G1 X5
G1 X24.526S500
G1 X4.089S0
G1 X7.159S500
G1 X4.869S0
G1 X16.794S500
G1 X4.867S0
G1 X8.049S500
G1 X4.146S0
G1 X13.885S500
G1 X4.687S0
G1 X4.438S500
G1 X4.868S0
G1 X16.795S500
G1 X4.868S0
G1 X8.242S500
G1 X1.628S0
G1 X7.715S500
G1 X4.814S0
G1 X5.51S500
G1 X1.666S0
G1 X16.289S500
G1 X5S0
G1 X0.063Y0.1
G1 X-5
G1 X-16.352S500
G1 X-1.666S0
G1 X-5.587S500
G1 X-4.813S0
G1 X-7.639S500
G1 X-1.628S0
G1 X-8.24S500
G1 X-4.868S0
G1 X-16.8S500
G1 X-4.867S0
G1 X-4.43S500
G1 X-4.691S0
G1 X-13.887S500
G1 X-4.146S0
G1 X-8.047S500
G1 X-4.868S0
G1 X-16.798S500
G1 X-4.869S0
G1 X-7.156S500
G1 X-4.089S0
G1 X-24.59S500
G1 X-5S0
G1 X-0.06Y0.1
G1 X5
G1 X24.65S500
G1 X4.089S0
G1 X7.154S500
G1 X4.869S0
G1 X16.802S500
G1 X4.869S0
G1 X8.044S500
G1 X4.146S0
G1 X13.888S500
G1 X4.695S0
G1 X4.422S500
G1 X4.868S0
G1 X16.803S500
G1 X4.87S0
G1 X8.237S500
G1 X1.628S0
G1 X7.562S500
G1 X4.813S0
G1 X5.664S500
G1 X1.666S0
G1 X16.415S500
G1 X5S0
G1 X0.063Y0.1
G1 X-5
G1 X-16.478S500
G1 X-1.666S0
G1 X-5.741S500
G1 X-4.812S0
G1 X-7.486S500
G1 X-1.628S0
G1 X-8.234S500
G1 X-4.871S0
G1 X-16.806S500
G1 X-4.87S0
G1 X-4.417S500
G1 X-4.695S0
G1 X-13.89S500
G1 X-4.146S0
G1 X-8.041S500
G1 X-4.871S0
G1 X-16.804S500
G1 X-4.871S0
G1 X-7.151S500
G1 X-4.089S0
G1 X-24.711S500
G1 X-5S0
G1 X-0.06Y0.1
G1 X5
G1 X24.771S500
G1 X4.089S0
G1 X7.148S500
G1 X4.873S0
G1 X16.807S500
G1 X4.871S0
G1 X8.039S500
G1 X4.146S0
G1 X13.891S500
G1 X4.696S0
G1 X4.412S500
G1 X4.872S0
G1 X16.808S500
G1 X4.872S0
G1 X8.232S500
G1 X1.628S0
G1 X7.41S500
G1 X4.812S0
G1 X5.817S500
G1 X1.666S0
G1 X16.54S500
G1 X5S0
G1 X0.06Y0.1
G1 X-5
G1 X-16.6S500
G1 X-1.666S0
G1 X-5.894S500
G1 X-4.812S0
G1 X-7.333S500
G1 X-1.628S0
G1 X-8.229S500
G1 X-4.873S0
G1 X-16.811S500
G1 X-4.873S0
G1 X-4.408S500
G1 X-4.696S0
G1 X-13.893S500
G1 X-4.146S0
G1 X-8.036S500
G1 X-4.873S0
G1 X-16.809S500
G1 X-4.874S0
G1 X-7.146S500
G1 X-4.089S0
G1 X-24.832S500
G1 X-5S0
G1 X-0.06Y0.1
G1 X5
G1 X24.892S500
G1 X4.089S0
G1 X7.143S500
G1 X4.876S0
G1 X16.812S500
G1 X4.874S0
G1 X8.033S500
G1 X4.146S0
G1 X13.894S500
G1 X4.697S0
G1 X4.403S500
G1 X4.875S0
G1 X16.814S500
G1 X4.874S0
G1 X8.226S500
G1 X1.628S0
G1 X7.257S500
G1 X4.811S0
G1 X5.971S500
G1 X1.666S0
G1 X16.66S500
G1 X5S0
G1 X0.06Y0.1
G1 X-5
G1 X-16.72S500
G1 X-1.666S0
G1 X-6.048S500
G1 X-4.811S0
G1 X-7.18S500
G1 X-1.628S0
G1 X-8.224S500
G1 X-4.875S0
G1 X-16.816S500
G1 X-4.877S0
G1 X-4.398S500
G1 X-4.7S0
G1 X-13.893S500
G1 X-4.146S0
G1 X-8.031S500
G1 X-4.874S0
G1 X-16.815S500
G1 X-4.878S0
G1 X-7.14S500
G1 X-4.089S0
G1 X-24.953S500
G1 X-5S0
G1 X-0.06Y0.1
G1 X5
G1 X25.013S500
G1 X4.089S0
G1 X7.138S500
G1 X4.879S0
G1 X16.814S500
G1 X4.879S0
G1 X8.028S500
G1 X4.146S0
G1 X13.891S500
G1 X4.704S0
G1 X4.394S500
G1 X4.878S0
G1 X16.816S500
G1 X4.879S0
G1 X8.221S500
G1 X1.628S0
G1 X7.104S500
G1 X4.811S0
G1 X6.124S500
G1 X1.666S0
G1 X16.779S500
G1 X5S0
G1 X0.06Y0.1
G1 X-5
G1 X-16.839S500
G1 X-1.666S0
G1 X-6.201S500
G1 X-4.81S0
G1 X-7.028S500
G1 X-1.628S0
G1 X-8.218S500
G1 X-4.883S0
G1 X-16.816S500
G1 X-4.88S0
G1 X-4.389S500
G1 X-4.707S0
G1 X-13.89S500
G1 X-4.146S0
G1 X-8.025S500
G1 X-4.883S0
G1 X-16.814S500
G1 X-4.881S0
G1 X-7.135S500
G1 X-4.089S0
G1 X-25.074S500
G1 X-5S0
G1 X-0.06Y0.1
G1 X5
G1 X25.134S500
G1 X4.089S0
G1 X7.132S500
G1 X4.883S0
G1 X16.814S500
G1 X4.886S0
G1 X8.023S500
G1 X4.146S0
G1 X13.889S500
G1 X4.71S0
G1 X4.384S500
G1 X4.882S0
G1 X16.815S500
G1 X4.887S0
G1 X8.216S500
G1 X1.628S0
G1 X6.951S500
G1 X4.81S0
G1 X6.278S500
G1 X1.666S0
G1 X16.899S500
G1 X5S0
G1 X0.06Y0.1
G1 X-5
G1 X-16.959S500
G1 X-1.666S0
G1 X-6.355S500
G1 X-4.809S0
G1 X-6.875S500
G1 X-1.628S0
G1 X-8.218S500
G1 X-4.886S0
G1 X-16.814S500
G1 X-4.882S0
G1 X-4.382S500
G1 X-4.713S0
G1 X-13.888S500
G1 X-4.146S0
G1 X-8.025S500
G1 X-4.885S0
G1 X-16.814S500
G1 X-4.882S0
G1 X-7.132S500
G1 X-4.089S0
G1 X-25.195S500
G1 X-5S0
G1 X-0.06Y0.1
G1 X5
G1 X25.255S500
G1 X4.089S0
G1 X7.135S500
G1 X4.88S0
G1 X16.811S500
G1 X4.884S0
G1 X8.028S500
G1 X4.146S0
G1 X13.887S500
G1 X4.714S0
G1 X4.385S500
G1 X4.88S0
G1 X16.812S500
G1 X4.884S0
G1 X8.221S500
G1 X1.628S0
G1 X6.799S500
G1 X4.809S0
G1 X6.431S500
G1 X1.666S0
G1 X17.018S500
G1 X5S0
G1 X0.06Y0.1
G1 X-5
G1 X-17.078S500
G1 X-1.666S0
G1 X-6.508S500
G1 X-4.809S0
G1 X-6.722S500
G1 X-1.628S0
G1 X-8.224S500
G1 X-4.883S0
G1 X-16.809S500
G1 X-4.879S0
G1 X-4.39S500
G1 X-4.712S0
G1 X-13.886S500
G1 X-4.146S0
G1 X-8.031S500
G1 X-4.882S0
G1 X-16.809S500
G1 X-4.879S0
G1 X-7.137S500
G1 X-4.089S0
G1 X-25.316S500
G1 X-5S0
G1 X-0.06Y0.1
G1 X5
G1 X25.376S500
G1 X4.089S0
G1 X7.14S500
G1 X4.877S0
G1 X16.807S500
G1 X4.881S0
G1 X8.033S500
G1 X4.146S0
G1 X13.885S500
G1 X4.71S0
G1 X4.396S500
G1 X4.877S0
G1 X16.807S500
G1 X4.882S0
G1 X8.226S500
G1 X1.628S0
G1 X6.646S500
G1 X4.808S0
G1 X6.585S500
G1 X1.666S0
G1 X17.138S500
G1 X5S0
G1 X0.06Y0.1
G1 X-5
G1 X-17.198S500
G1 X-1.666S0
G1 X-6.662S500
G1 X-4.807S0
G1 X-6.57S500
G1 X-1.628S0
G1 X-8.229S500
G1 X-4.88S0
G1 X-16.805S500
G1 X-4.875S0
G1 X-4.401S500
G1 X-4.71S0
G1 X-13.883S500
G1 X-4.146S0
G1 X-8.036S500
G1 X-4.88S0
G1 X-16.803S500
G1 X-4.876S0
G1 X-7.143S500
G1 X-4.089S0
G1 X-25.437S500
G1 X-5S0
G1 X-0.06Y0.1
G1 X5
G1 X25.497S500
G1 X4.089S0
G1 X7.145S500
G1 X4.875S0
G1 X16.801S500
G1 X4.878S0
G1 X8.039S500
G1 X4.146S0
G1 X13.879S500
G1 X4.711S0
G1 X4.406S500
G1 X4.874S0
G1 X16.803S500
G1 X4.878S0
G1 X8.232S500
G1 X1.628S0
G1 X6.493S500
G1 X4.807S0
G1 X6.739S500
G1 X1.666S0
G1 X17.257S500
G1 X5S0
G1 X0.06Y0.1
G1 X-5
G1 X-17.317S500
G1 X-1.666S0
G1 X-6.815S500
G1 X-4.807S0
G1 X-6.417S500
G1 X-1.628S0
G1 X-8.234S500
G1 X-4.878S0
G1 X-16.8S500
G1 X-4.872S0
G1 X-4.412S500
G1 X-4.711S0
G1 X-13.876S500
G1 X-4.146S0
G1 X-8.041S500
G1 X-4.877S0
G1 X-16.799S500
G1 X-4.873S0
G1 X-7.148S500
G1 X-4.089S0
G1 X-25.558S500
G1 X-5S0
G1 X-0.06Y0.1
G1 X5
G1 X25.618S500
G1 X4.089S0
G1 X7.15S500
G1 X4.872S0
G1 X16.796S500
G1 X4.876S0
G1 X8.044S500
G1 X4.146S0
G1 X13.872S500
G1 X4.712S0
G1 X4.417S500
G1 X4.871S0
G1 X16.798S500
G1 X4.876S0
G1 X8.237S500
G1 X1.628S0
G1 X6.341S500
G1 X4.806S0
G1 X6.892S500
G1 X1.666S0
G1 X17.377S500
G1 X5S0
G1 X0.06Y0.1
G1 X-5
G1 X-17.437S500
G1 X-1.666S0
G1 X-6.969S500
G1 X-4.806S0
G1 X-6.264S500
G1 X-1.628S0
G1 X-8.24S500
G1 X-4.874S0
G1 X-16.796S500
G1 X-4.869S0
G1 X-4.422S500
G1 X-4.713S0
G1 X-13.869S500
G1 X-4.146S0
G1 X-8.047S500
G1 X-4.874S0
G1 X-16.794S500
G1 X-4.87S0
G1 X-7.153S500
G1 X-4.089S0
G1 X-25.677S500
G1 X-5S0
G1 X-0.058Y0.1
G1 X5
G1 X25.735S500
G1 X4.089S0
G1 X7.156S500
G1 X4.869S0
G1 X16.79S500
G1 X4.874S0
G1 X8.049S500
G1 X4.146S0
G1 X13.865S500
G1 X4.714S0
G1 X4.428S500
G1 X4.868S0
G1 X16.791S500
G1 X4.875S0
G1 X8.242S500
G1 X1.628S0
G1 X6.188S500
G1 X4.805S0
G1 X7.046S500
G1 X1.666S0
G1 X17.496S500
G1 X5S0
G1 X0.06Y0.1
G1 X-5
G1 X-17.556S500
G1 X-1.666S0
G1 X-7.122S500
G1 X-4.805S0
G1 X-6.112S500
G1 X-1.628S0
G1 X-8.247S500
G1 X-4.874S0
G1 X-16.783S500
G1 X-4.87S0
G1 X-4.433S500
G1 X-4.714S0
G1 X-13.862S500
G1 X-4.146S0
G1 X-8.054S500
G1 X-4.873S0
G1 X-16.783S500
G1 X-4.87S0
G1 X-7.158S500
G1 X-4.089S0
G1 X-25.792S500
G1 X-5S0
G1 X-0.058Y0.1
G1 X5
G1 X25.85S500
G1 X4.089S0
G1 X7.167S500
G1 X4.864S0
G1 X16.775S500
G1 X4.869S0
G1 X8.063S500
G1 X4.146S0
G1 X13.859S500
G1 X4.715S0
G1 X4.444S500
G1 X4.864S0
G1 X16.776S500
G1 X4.869S0
G1 X8.256S500
G1 X1.628S0
G1 X6.035S500
G1 X4.805S0
G1 X7.199S500
G1 X1.666S0
G1 X17.616S500
G1 X5S0
G1 X0.059Y0.1
G1 X-5
G1 X-17.675S500
G1 X-1.666S0
G1 X-7.276S500
G1 X-4.804S0
G1 X-5.959S500
G1 X-1.628S0
G1 X-8.264S500
G1 X-4.865S0
G1 X-16.769S500
G1 X-4.859S0
G1 X-4.455S500
G1 X-4.716S0
G1 X-13.855S500
G1 X-4.146S0
G1 X-8.071S500
G1 X-4.865S0
G1 X-16.767S500
G1 X-4.86S0
G1 X-7.175S500
G1 X-4.089S0
G1 X-25.908S500
G1 X-5S0
G1 X-0.058Y0.1
G1 X5
G1 X25.966S500
G1 X4.089S0
G1 X7.183S500
G1 X4.855S0
G1 X16.76S500
G1 X4.861S0
G1 X8.079S500
G1 X4.146S0
G1 X13.849S500
G1 X4.714S0
G1 X4.471S500
G1 X4.855S0
G1 X16.761S500
G1 X4.861S0
G1 X8.272S500
G1 X1.628S0
G1 X5.883S500
G1 X4.803S0
G1 X7.353S500
G1 X1.666S0
G1 X17.731S500
G1 X5S0
G1 X0.057Y0.1
G1 X-5
G1 X-17.788S500
G1 X-1.666S0
G1 X-7.429S500
G1 X-4.804S0
G1 X-5.806S500
G1 X-1.628S0
G1 X-8.28S500
G1 X-4.858S0
G1 X-16.753S500
G1 X-4.85S0
G1 X-4.488S500
G1 X-4.711S0
G1 X-13.843S500
G1 X-4.146S0
G1 X-8.087S500
G1 X-4.857S0
G1 X-16.753S500
G1 X-4.85S0
G1 X-7.191S500
G1 X-4.089S0
G1 X-26.023S500
G1 X-5S0
G1 X-0.058Y0.1
G1 X5
G1 X26.081S500
G1 X4.089S0
G1 X7.199S500
G1 X4.846S0
G1 X16.745S500
G1 X4.853S0
G1 X8.095S500
G1 X4.146S0
G1 X13.837S500
G1 X4.709S0
G1 X4.504S500
G1 X4.845S0
G1 X16.746S500
G1 X4.854S0
G1 X8.288S500
G1 X1.628S0
G1 X5.73S500
G1 X4.803S0
G1 X7.506S500
G1 X1.666S0
G1 X17.845S500
G1 X5S0
G1 X0.057Y0.1
G1 X-5
G1 X-17.902S500
G1 X-1.666S0
G1 X-7.583S500
G1 X-4.802S0
G1 X-5.654S500
G1 X-1.628S0
G1 X-8.297S500
G1 X-4.849S0
G1 X-16.739S500
G1 X-4.84S0
G1 X-4.521S500
G1 X-4.706S0
G1 X-13.831S500
G1 X-4.146S0
G1 X-8.104S500
G1 X-4.848S0
G1 X-16.738S500
G1 X-4.841S0
G1 X-7.207S500
G1 X-4.089S0
G1 X-26.139S500
G1 X-5S0
G1 X-0.058Y0.1
G1 X5
G1 X26.197S500
G1 X4.089S0
G1 X7.215S500
G1 X4.836S0
G1 X16.731S500
G1 X4.844S0
G1 X8.112S500
G1 X4.146S0
G1 X13.825S500
G1 X4.704S0
G1 X4.537S500
G1 X4.836S0
G1 X16.731S500
G1 X4.845S0
G1 X8.305S500
G1 X1.628S0
G1 X5.577S500
G1 X4.802S0
G1 X7.66S500
G1 X1.666S0
G1 X17.958S500
G1 X5S0
G1 X0.057Y0.1
G1 X-5
G1 X-18.015S500
G1 X-1.666S0
G1 X-7.736S500
G1 X-4.802S0
G1 X-5.501S500
G1 X-1.628S0
G1 X-8.313S500
G1 X-4.841S0
G1 X-16.721S500
G1 X-4.834S0
G1 X-4.554S500
G1 X-4.7S0
G1 X-13.82S500
G1 X-4.146S0
G1 X-8.12S500
G1 X-4.841S0
G1 X-16.72S500
G1 X-4.834S0
G1 X-7.223S500
G1 X-4.089S0
G1 X-26.254S500
G1 X-5S0
G1 X-0.058Y0.1
G1 X5
G1 X26.312S500
G1 X4.089S0
G1 X7.232S500
G1 X4.831S0
G1 X16.71S500
G1 X4.837S0
G1 X8.128S500
G1 X4.146S0
G1 X13.814S500
G1 X4.698S0
G1 X4.571S500
G1 X4.83S0
G1 X16.712S500
G1 X4.837S0
G1 X8.321S500
G1 X1.628S0
G1 X5.425S500
G1 X4.801S0
G1 X7.813S500
G1 X1.666S0
G1 X18.072S500
G1 X5S0
G1 X0.056Y0.1
G1 X-5
G1 X-18.128S500
G1 X-1.666S0
G1 X-7.89S500
G1 X-4.801S0
G1 X-5.348S500
G1 X-1.628S0
G1 X-8.33S500
G1 X-4.832S0
G1 X-16.702S500
G1 X-4.828S0
G1 X-4.588S500
G1 X-4.695S0
G1 X-13.808S500
G1 X-4.146S0
G1 X-8.137S500
G1 X-4.832S0
G1 X-16.701S500
G1 X-4.828S0
G1 X-7.24S500
G1 X-4.089S0
G1 X-26.37S500
G1 X-5S0
G1 X-0.058Y0.1
G1 X5
G1 X26.428S500
G1 X4.089S0
G1 X7.253S500
G1 X4.821S0
G1 X16.689S500
G1 X4.824S0
G1 X8.151S500
G1 X4.146S0
G1 X13.8S500
G1 X4.695S0
G1 X4.609S500
G1 X4.821S0
G1 X16.69S500
G1 X4.824S0
G1 X8.344S500
G1 X1.628S0
G1 X5.272S500
G1 X4.8S0
G1 X7.967S500
G1 X1.666S0
G1 X18.185S500
G1 X5S0
G1 X0.057Y0.1
G1 X-5
G1 X-18.242S500
G1 X-1.666S0
G1 X-8.044S500
G1 X-4.799S0
G1 X-5.196S500
G1 X-1.628S0
G1 X-8.358S500
G1 X-4.818S0
G1 X-16.677S500
G1 X-4.812S0
G1 X-4.632S500
G1 X-4.695S0
G1 X-13.791S500
G1 X-4.146S0
G1 X-8.165S500
G1 X-4.817S0
G1 X-16.676S500
G1 X-4.813S0
G1 X-7.267S500
G1 X-4.089S0
G1 X-26.485S500
G1 X-5S0
G1 X-0.058Y0.1
G1 X5
G1 X26.543S500
G1 X4.089S0
G1 X7.28S500
G1 X4.805S0
G1 X16.663S500
G1 X4.811S0
G1 X8.179S500
G1 X4.146S0
G1 X13.782S500
G1 X4.696S0
G1 X4.653S500
G1 X4.805S0
G1 X16.664S500
G1 X4.81S0
G1 X8.373S500
G1 X1.628S0
G1 X5.119S500
G1 X4.8S0
G1 X8.12S500
G1 X1.666S0
G1 X18.299S500
G1 X5S0
G1 X0.056Y0.1
G1 X-5
G1 X-18.355S500
G1 X-1.666S0
G1 X-8.197S500
G1 X-4.799S0
G1 X-5.043S500
G1 X-1.628S0
G1 X-8.387S500
G1 X-4.804S0
G1 X-16.65S500
G1 X-4.797S0
G1 X-4.68S500
G1 X-4.691S0
G1 X-13.774S500
G1 X-4.146S0
G1 X-8.193S500
G1 X-4.804S0
G1 X-16.65S500
G1 X-4.797S0
G1 X-7.294S500
G1 X-4.089S0
G1 X-26.601S500
G1 X-5S0
G1 X-0.057Y0.1
G1 X5
G1 X26.658S500
G1 X4.089S0
G1 X7.308S500
G1 X4.789S0
G1 X16.637S500
G1 X4.796S0
G1 X8.208S500
G1 X4.146S0
G1 X13.765S500
G1 X4.685S0
G1 X4.709S500
G1 X4.788S0
G1 X16.638S500
G1 X4.797S0
G1 X8.401S500
G1 X1.628S0
G1 X4.966S500
G1 X4.799S0
G1 X8.274S500
G1 X1.666S0
G1 X18.412S500
G1 X5S0
G1 X0.057Y0.1
G1 X-5
G1 X-18.469S500
G1 X-1.666S0
G1 X-8.351S500
G1 X-4.798S0
G1 X-4.89S500
G1 X-1.628S0
G1 X-8.415S500
G1 X-4.79S0
G1 X-16.623S500
G1 X-4.782S0
G1 X-4.738S500
G1 X-4.678S0
G1 X-13.757S500
G1 X-4.146S0
G1 X-8.222S500
G1 X-4.79S0
G1 X-16.621S500
G1 X-4.783S0
G1 X-7.322S500
G1 X-4.089S0
G1 X-26.713S500
G1 X-5S0
G1 X-0.055Y0.1
G1 X5
G1 X26.768S500
G1 X4.089S0
G1 X7.336S500
G1 X4.777S0
G1 X16.606S500
G1 X4.783S0
G1 X8.236S500
G1 X4.146S0
G1 X13.748S500
G1 X4.673S0
G1 X4.766S500
G1 X4.777S0
G1 X16.606S500
G1 X4.784S0
G1 X8.429S500
G1 X1.628S0
G1 X4.814S500
G1 X4.798S0
G1 X8.427S500
G1 X1.666S0
G1 X18.525S500
G1 X5S0
G1 X0.057Y0.1
G1 X-5
G1 X-18.582S500
G1 X-1.666S0
G1 X-8.504S500
G1 X-4.798S0
G1 X-4.737S500
G1 X-1.628S0
G1 X-8.443S500
G1 X-4.777S0
G1 X-16.591S500
G1 X-4.771S0
G1 X-4.795S500
G1 X-4.667S0
G1 X-13.739S500
G1 X-4.146S0
G1 X-8.25S500
G1 X-4.776S0
G1 X-16.591S500
G1 X-4.771S0
G1 X-7.35S500
G1 X-4.089S0
G1 X-26.823S500
G1 X-5S0
G1 X-0.055Y0.1
G1 X5
G1 X26.878S500
G1 X4.089S0
G1 X7.364S500
G1 X4.766S0
G1 X16.574S500
G1 X4.77S0
G1 X8.264S500
G1 X4.146S0
G1 X13.728S500
G1 X4.663S0
G1 X4.824S500
G1 X4.765S0
G1 X16.576S500
G1 X4.77S0
G1 X8.457S500
G1 X1.628S0
G1 X4.661S500
G1 X4.797S0
G1 X8.581S500
G1 X1.666S0
G1 X18.639S500
G1 X5S0
G1 X0.057Y0.1
G1 X-5
G1 X-18.696S500
G1 X-1.666S0
G1 X-8.658S500
G1 X-4.796S0
G1 X-4.585S500
G1 X-1.628S0
G1 X-8.472S500
G1 X-4.763S0
G1 X-16.56S500
G1 X-4.759S0
G1 X-4.852S500
G1 X-4.66S0
G1 X-13.717S500
G1 X-4.146S0
G1 X-8.279S500
G1 X-4.762S0
G1 X-16.559S500
G1 X-4.76S0
G1 X-7.378S500
G1 X-4.089S0
G1 X-26.933S500
G1 X-5S0
G1 X-0.055Y0.1
G1 X5
G1 X26.988S500
G1 X4.089S0
G1 X7.397S500
G1 X4.749S0
G1 X16.544S500
G1 X4.749S0
G1 X8.299S500
G1 X4.146S0
G1 X13.705S500
G1 X4.657S0
G1 X4.886S500
G1 X4.749S0
G1 X16.544S500
G1 X4.75S0
G1 X8.492S500
G1 X1.628S0
G1 X4.508S500
G1 X4.797S0
G1 X8.734S500
G1 X1.666S0
G1 X18.752S500
G1 X5S0
G1 X0.054Y0.1
G1 X-5
G1 X-18.806S500
G1 X-1.666S0
G1 X-8.811S500
G1 X-4.796S0
G1 X-4.432S500
G1 X-1.628S0
G1 X-8.512S500
G1 X-4.739S0
G1 X-16.527S500
G1 X-4.737S0
G1 X-4.921S500
G1 X-4.653S0
G1 X-13.694S500
G1 X-4.146S0
G1 X-8.319S500
G1 X-4.738S0
G1 X-16.527S500
G1 X-4.737S0
G1 X-7.417S500
G1 X-4.089S0
G1 X-27.044S500
G1 X-5S0
G1 X-0.055Y0.1
G1 X5
G1 X27.099S500
G1 X4.089S0
G1 X7.437S500
G1 X4.726S0
G1 X16.507S500
G1 X4.729S0
G1 X8.339S500
G1 X4.146S0
G1 X13.682S500
G1 X4.651S0
G1 X4.955S500
G1 X4.726S0
G1 X16.507S500
G1 X4.73S0
G1 X8.532S500
G1 X1.628S0
G1 X4.356S500
G1 X4.795S0
G1 X8.888S500
G1 X1.666S0
G1 X18.861S500
G1 X5S0
G1 X0.055Y0.1
G1 X-5
G1 X-18.916S500
G1 X-1.666S0
G1 X-8.965S500
G1 X-4.795S0
G1 X-4.279S500
G1 X-1.628S0
G1 X-8.553S500
G1 X-4.72S0
G1 X-16.485S500
G1 X-4.717S0
G1 X-4.99S500
G1 X-4.648S0
G1 X-13.67S500
G1 X-4.146S0
G1 X-8.359S500
G1 X-4.72S0
G1 X-16.485S500
G1 X-4.717S0
G1 X-7.457S500
G1 X-4.089S0
G1 X-27.154S500
G1 X-5S0
G1 X-0.055Y0.1
G1 X5
G1 X27.209S500
G1 X4.089S0
G1 X7.477S500
G1 X4.708S0
G1 X16.463S500
G1 X4.71S0
G1 X8.38S500
G1 X4.146S0
G1 X13.659S500
G1 X4.637S0
G1 X5.032S500
G1 X4.708S0
G1 X16.463S500
G1 X4.711S0
G1 X8.573S500
G1 X1.628S0
G1 X4.203S500
G1 X4.795S0
G1 X9.041S500
G1 X1.666S0
G1 X18.97S500
G1 X5S0
G1 X0.055Y0.1
G1 X-5
G1 X-19.025S500
G1 X-1.666S0
G1 X-9.118S500
G1 X-4.794S0
G1 X-4.127S500
G1 X-1.628S0
G1 X-8.593S500
G1 X-4.702S0
G1 X-16.441S500
G1 X-4.699S0
G1 X-5.073S500
G1 X-4.628S0
G1 X-13.647S500
G1 X-4.146S0
G1 X-8.4S500
G1 X-4.701S0
G1 X-16.441S500
G1 X-4.699S0
G1 X-7.497S500
G1 X-4.089S0
G1 X-27.264S500
G1 X-5S0
G1 X-0.055Y0.1
G1 X5
G1 X27.319S500
G1 X4.089S0
G1 X7.517S500
G1 X4.69S0
G1 X16.419S500
G1 X4.692S0
G1 X8.42S500
G1 X4.146S0
G1 X13.632S500
G1 X4.622S0
G1 X5.114S500
G1 X4.69S0
G1 X16.419S500
G1 X4.693S0
G1 X8.613S500
G1 X1.628S0
G1 X4.05S500
G1 X4.794S0
G1 X9.195S500
G1 X1.666S0
G1 X19.08S500
G1 X5S0
G1 X0.054Y0.1
G1 X-5
G1 X-19.134S500
G1 X-1.666S0
G1 X-9.272S500
G1 X-4.793S0
G1 X-3.974S500
G1 X-1.628S0
G1 X-8.633S500
G1 X-4.684S0
G1 X-16.397S500
G1 X-4.681S0
G1 X-5.156S500
G1 X-4.615S0
G1 X-13.617S500
G1 X-4.146S0
G1 X-8.44S500
G1 X-4.683S0
G1 X-16.397S500
G1 X-4.681S0
G1 X-7.537S500
G1 X-4.089S0
G1 X-27.374S500
G1 X-5S0
G1 X-0.055Y0.1
G1 X5
G1 X27.429S500
G1 X4.089S0
G1 X7.557S500
G1 X4.672S0
G1 X16.375S500
G1 X4.674S0
G1 X8.46S500
G1 X4.146S0
G1 X13.603S500
G1 X4.608S0
G1 X5.197S500
G1 X4.672S0
G1 X16.375S500
G1 X4.674S0
G1 X8.654S500
G1 X1.628S0
G1 X3.898S500
G1 X4.792S0
G1 X9.349S500
G1 X1.666S0
G1 X19.189S500
G1 X5S0
G1 X0.055Y0.1
G1 X-5
G1 X-19.244S500
G1 X-1.666S0
G1 X-9.425S500
G1 X-4.793S0
G1 X-3.821S500
G1 X-1.628S0
G1 X-8.676S500
G1 X-4.663S0
G1 X-16.353S500
G1 X-4.661S0
G1 X-5.24S500
G1 X-4.602S0
G1 X-13.588S500
G1 X-4.146S0
G1 X-8.483S500
G1 X-4.662S0
G1 X-16.353S500
G1 X-4.661S0
G1 X-7.579S500
G1 X-4.089S0
G1 X-27.484S500
G1 X-5S0
G1 X-0.055Y0.1
G1 X5
G1 X27.539S500
G1 X4.089S0
G1 X7.605S500
G1 X4.649S0
G1 X16.328S500
G1 X4.646S0
G1 X8.51S500
G1 X4.146S0
G1 X13.573S500
G1 X4.596S0
G1 X5.287S500
G1 X4.648S0
G1 X16.329S500
G1 X4.647S0
G1 X8.703S500
G1 X1.628S0
G1 X3.745S500
G1 X4.792S0
G1 X9.502S500
G1 X1.666S0
G1 X19.298S500
G1 X5S0
G1 X0.055Y0.1
G1 X-5
G1 X-19.353S500
G1 X-1.666S0
G1 X-9.579S500
G1 X-4.791S0
G1 X-3.669S500
G1 X-1.628S0
G1 X-8.73S500
G1 X-4.631S0
G1 X-16.304S500
G1 X-4.635S0
G1 X-5.336S500
G1 X-4.588S0
G1 X-13.559S500
G1 X-4.146S0
G1 X-8.537S500
G1 X-4.631S0
G1 X-16.302S500
G1 X-4.636S0
G1 X-7.632S500
G1 X-4.089S0
G1 X-27.595S500
G1 X-5S0
G1 X-0.053Y0.1
G1 X5
G1 X27.648S500
G1 X4.089S0
G1 X7.658S500
G1 X4.624S0
G1 X16.273S500
G1 X4.62S0
G1 X8.563S500
G1 X4.146S0
G1 X13.544S500
G1 X4.582S0
G1 X5.383S500
G1 X4.623S0
G1 X16.275S500
G1 X4.619S0
G1 X8.757S500
G1 X1.628S0
G1 X3.592S500
G1 X4.791S0
G1 X9.656S500
G1 X1.666S0
G1 X19.408S500
G1 X5S0
G1 X0.055Y0.1
G1 X-5
G1 X-19.463S500
G1 X-1.666S0
G1 X-9.732S500
G1 X-4.791S0
G1 X-3.516S500
G1 X-1.628S0
G1 X-8.783S500
G1 X-4.609S0
G1 X-16.244S500
G1 X-4.611S0
G1 X-5.431S500
G1 X-4.579S0
G1 X-13.526S500
G1 X-4.146S0
G1 X-8.59S500
G1 X-4.608S0
G1 X-16.244S500
G1 X-4.611S0
G1 X-7.685S500
G1 X-4.089S0
G1 X-27.701S500
G1 X-5S0
G1 X-0.052Y0.1
G1 X5
G1 X27.753S500
G1 X4.089S0
G1 X7.711S500
G1 X4.599S0
G1 X16.215S500
G1 X4.596S0
G1 X8.617S500
G1 X4.146S0
G1 X13.508S500
G1 X4.57S0
G1 X5.484S500
G1 X4.599S0
G1 X16.215S500
G1 X4.597S0
G1 X8.81S500
G1 X1.628S0
G1 X3.44S500
G1 X4.79S0
G1 X9.809S500
G1 X1.666S0
G1 X19.517S500
G1 X5S0
G1 X0.055Y0.1
G1 X-5
G1 X-19.572S500
G1 X-1.666S0
G1 X-9.886S500
G1 X-4.79S0
G1 X-3.363S500
G1 X-1.628S0
G1 X-8.837S500
G1 X-4.585S0
G1 X-16.186S500
G1 X-4.586S0
G1 X-5.539S500
G1 X-4.56S0
G1 X-13.49S500
G1 X-4.146S0
G1 X-8.643S500
G1 X-4.585S0
G1 X-16.186S500
G1 X-4.586S0
G1 X-7.738S500
G1 X-4.089S0
G1 X-27.806S500
G1 X-5S0
G1 X-0.052Y0.1
G1 X5
G1 X27.858S500
G1 X4.089S0
G1 X7.764S500
G1 X4.574S0
G1 X16.157S500
G1 X4.573S0
G1 X8.67S500
G1 X4.146S0
G1 X13.472S500
G1 X4.549S0
G1 X5.594S500
G1 X4.574S0
G1 X16.157S500
G1 X4.573S0
G1 X8.864S500
G1 X1.628S0
G1 X3.287S500
G1 X4.789S0
G1 X9.963S500
G1 X1.666S0
G1 X19.626S500
G1 X5S0
G1 X0.053Y0.1
G1 X-5
G1 X-19.679S500
G1 X-1.666S0
G1 X-10.039S500
G1 X-4.789S0
G1 X-3.211S500
G1 X-1.628S0
G1 X-8.89S500
G1 X-4.562S0
G1 X-16.126S500
G1 X-4.564S0
G1 X-5.648S500
G1 X-4.539S0
G1 X-13.454S500
G1 X-4.146S0
G1 X-8.697S500
G1 X-4.562S0
G1 X-16.125S500
G1 X-4.564S0
G1 X-7.79S500
G1 X-4.089S0
G1 X-27.911S500
G1 X-5S0
G1 X-0.052Y0.1
G1 X5
G1 X27.963S500
G1 X4.089S0
G1 X7.817S500
G1 X4.554S0
G1 X16.093S500
G1 X4.55S0
G1 X8.724S500
G1 X4.146S0
G1 X13.436S500
G1 X4.528S0
G1 X5.704S500
G1 X4.554S0
G1 X16.094S500
G1 X4.55S0
G1 X8.917S500
G1 X1.628S0
G1 X3.134S500
G1 X4.789S0
G1 X10.116S500
G1 X1.666S0
G1 X19.731S500
G1 X5S0
G1 X0.052Y0.1
G1 X-5
G1 X-19.783S500
G1 X-1.666S0
G1 X-10.193S500
G1 X-4.788S0
G1 X-3.058S500
G1 X-1.628S0
G1 X-8.95S500
G1 X-4.533S0
G1 X-16.061S500
G1 X-4.539S0
G1 X-5.764S500
G1 X-4.518S0
G1 X-13.418S500
G1 X-4.146S0
G1 X-8.757S500
G1 X-4.532S0
G1 X-16.06S500
G1 X-4.54S0
G1 X-7.849S500
G1 X-4.089S0
G1 X-28.016S500
G1 X-5S0
G1 X-0.052Y0.1
G1 X5
G1 X28.068S500
G1 X4.089S0
G1 X7.882S500
G1 X4.524S0
G1 X16.028S500
G1 X4.514S0
G1 X8.79S500
G1 X4.146S0
G1 X13.396S500
G1 X4.511S0
G1 X5.826S500
G1 X4.524S0
G1 X16.028S500
G1 X4.514S0
G1 X8.984S500
G1 X1.628S0
G1 X2.982S500
G1 X4.787S0
G1 X10.27S500
G1 X1.666S0
G1 X19.835S500
G1 X5S0
G1 X0.052Y0.1
G1 X-5
G1 X-19.887S500
G1 X-1.666S0
G1 X-10.346S500
G1 X-4.788S0
G1 X-2.905S500
G1 X-1.628S0
G1 X-9.017S500
G1 X-4.498S0
G1 X-15.994S500
G1 X-4.507S0
G1 X-5.888S500
G1 X-4.505S0
G1 X-13.374S500
G1 X-4.146S0
G1 X-8.824S500
G1 X-4.497S0
G1 X-15.994S500
G1 X-4.507S0
G1 X-7.916S500
G1 X-4.089S0
G1 X-28.121S500
G1 X-5S0
G1 X-0.053Y0.1
G1 X5
G1 X28.174S500
G1 X4.089S0
G1 X7.949S500
G1 X4.492S0
G1 X15.956S500
G1 X4.483S0
G1 X8.858S500
G1 X4.146S0
G1 X13.352S500
G1 X4.498S0
G1 X5.95S500
G1 X4.492S0
G1 X15.956S500
G1 X4.484S0
G1 X9.051S500
G1 X1.628S0
G1 X2.829S500
G1 X4.787S0
G1 X10.423S500
G1 X1.666S0
G1 X19.94S500
G1 X5S0
G1 X0.052Y0.1
G1 X-5
G1 X-19.992S500
G1 X-1.666S0
G1 X-10.5S500
G1 X-4.787S0
G1 X-2.752S500
G1 X-1.628S0
G1 X-9.085S500
G1 X-4.47S0
G1 X-15.919S500
G1 X-4.476S0
G1 X-6.011S500
G1 X-4.491S0
G1 X-13.331S500
G1 X-4.146S0
G1 X-8.891S500
G1 X-4.47S0
G1 X-15.919S500
G1 X-4.476S0
G1 X-7.982S500
G1 X-4.089S0
G1 X-28.226S500
G1 X-5S0
G1 X-0.053Y0.1
G1 X5
G1 X28.279S500
G1 X4.089S0
G1 X8.015S500
G1 X4.463S0
G1 X15.879S500
G1 X4.456S0
G1 X8.925S500
G1 X4.146S0
G1 X13.309S500
G1 X4.479S0
G1 X6.078S500
G1 X4.463S0
G1 X15.879S500
G1 X4.457S0
G1 X9.118S500
G1 X1.628S0
G1 X2.676S500
G1 X4.786S0
G1 X10.577S500
G1 X1.666S0
G1 X20.044S500
G1 X5S0
G1 X0.052Y0.1
G1 X-5
G1 X-20.096S500
G1 X-1.666S0
G1 X-10.654S500
G1 X-4.785S0
G1 X-2.6S500
G1 X-1.628S0
G1 X-9.152S500
G1 X-4.443S0
G1 X-15.838S500
G1 X-4.451S0
G1 X-6.148S500
G1 X-4.464S0
G1 X-13.287S500
G1 X-4.146S0
G1 X-8.958S500
G1 X-4.443S0
G1 X-15.838S500
G1 X-4.451S0
G1 X-8.048S500
G1 X-4.089S0
G1 X-28.331S500
G1 X-5S0
G1 X-0.053Y0.1
G1 X5
G1 X28.384S500
G1 X4.089S0
G1 X8.082S500
G1 X4.438S0
G1 X15.797S500
G1 X4.429S0
G1 X8.992S500
G1 X4.146S0
G1 X13.264S500
G1 X4.451S0
G1 X6.218S500
G1 X4.438S0
G1 X15.797S500
G1 X4.43S0
G1 X9.185S500
G1 X1.628S0
G1 X2.523S500
G1 X4.786S0
G1 X10.73S500
G1 X1.666S0
G1 X20.149S500
G1 X5S0
G1 X0.052Y0.1
G1 X-5
G1 X-20.201S500
G1 X-1.666S0
G1 X-10.807S500
G1 X-4.785S0
G1 X-2.447S500
G1 X-1.628S0
G1 X-9.219S500
G1 X-4.416S0
G1 X-15.756S500
G1 X-4.426S0
G1 X-6.287S500
G1 X-4.44S0
G1 X-13.239S500
G1 X-4.146S0
G1 X-9.026S500
G1 X-4.415S0
G1 X-15.756S500
G1 X-4.426S0
G1 X-8.115S500
G1 X-4.089S0
G1 X-28.436S500
G1 X-5S0
G1 X-0.053Y0.1
G1 X5
G1 X28.489S500
G1 X4.089S0
G1 X8.153S500
G1 X4.409S0
G1 X15.715S500
G1 X4.397S0
G1 X9.064S500
G1 X4.146S0
G1 X13.213S500
G1 X4.43S0
G1 X6.361S500
G1 X4.409S0
G1 X15.715S500
G1 X4.397S0
G1 X9.258S500
G1 X1.628S0
G1 X2.371S500
G1 X4.784S0
G1 X10.884S500
G1 X1.666S0
G1 X20.253S500
G1 X5S0
G1 X0.052Y0.1
G1 X-5
G1 X-20.305S500
G1 X-1.666S0
G1 X-10.961S500
G1 X-4.784S0
G1 X-2.294S500
G1 X-1.628S0
G1 X-9.299S500
G1 X-4.376S0
G1 X-15.674S500
G1 X-4.389S0
G1 X-6.439S500
G1 X-4.419S0
G1 X-13.187S500
G1 X-4.146S0
G1 X-9.105S500
G1 X-4.376S0
G1 X-15.674S500
G1 X-4.389S0
G1 X-8.194S500
G1 X-4.089S0
G1 X-28.541S500
G1 X-5S0
G1 X-0.051Y0.1
G1 X5
G1 X28.592S500
G1 X4.089S0
G1 X8.234S500
G1 X4.371S0
G1 X15.63S500
G1 X4.357S0
G1 X9.146S500
G1 X4.146S0
G1 X13.161S500
G1 X4.409S0
G1 X6.515S500
G1 X4.371S0
G1 X15.63S500
G1 X4.357S0
G1 X9.34S500
G1 X1.628S0
G1 X2.218S500
G1 X4.784S0
G1 X11.037S500
G1 X1.666S0
G1 X20.357S500
G1 X5S0
G1 X0.053Y0.1
G1 X-5
G1 X-20.41S500
G1 X-1.666S0
G1 X-11.114S500
G1 X-4.783S0
G1 X-2.142S500
G1 X-1.628S0
G1 X-9.381S500
G1 X-4.342S0
G1 X-15.579S500
G1 X-4.355S0
G1 X-6.592S500
G1 X-4.399S0
G1 X-13.135S500
G1 X-4.146S0
G1 X-9.187S500
G1 X-4.342S0
G1 X-15.579S500
G1 X-4.355S0
G1 X-8.275S500
G1 X-4.089S0
G1 X-28.642S500
G1 X-5S0
G1 X-0.05Y0.1
G1 X5
G1 X28.692S500
G1 X4.089S0
G1 X8.315S500
G1 X4.34S0
G1 X15.529S500
G1 X4.326S0
G1 X9.228S500
G1 X4.146S0
G1 X13.109S500
G1 X4.389S0
G1 X6.668S500
G1 X4.339S0
G1 X15.53S500
G1 X4.326S0
G1 X9.422S500
G1 X1.628S0
G1 X2.065S500
G1 X4.783S0
G1 X11.191S500
G1 X1.666S0
G1 X20.462S500
G1 X5S0
G1 X0.05Y0.1
G1 X-5
G1 X-20.512S500
G1 X-1.666S0
G1 X-11.268S500
G1 X-4.782S0
G1 X-1.989S500
G1 X-1.628S0
G1 X-9.463S500
G1 X-4.311S0
G1 X-15.479S500
G1 X-4.324S0
G1 X-6.746S500
G1 X-4.38S0
G1 X-13.08S500
G1 X-4.146S0
G1 X-9.269S500
G1 X-4.311S0
G1 X-15.478S500
G1 X-4.325S0
G1 X-8.355S500
G1 X-4.089S0
G1 X-28.742S500
G1 X-5S0
G1 X-0.05Y0.1
G1 X5
G1 X28.792S500
G1 X4.089S0
G1 X8.396S500
G1 X4.309S0
G1 X15.427S500
G1 X4.296S0
G1 X9.31S500
G1 X4.146S0
G1 X13.05S500
G1 X4.365S0
G1 X6.832S500
G1 X4.308S0
G1 X15.428S500
G1 X4.296S0
G1 X9.504S500
G1 X1.628S0
G1 X1.913S500
G1 X4.782S0
G1 X11.344S500
G1 X1.666S0
G1 X20.562S500
G1 X5S0
G1 X0.05Y0.1
G1 X-5
G1 X-20.612S500
G1 X-1.666S0
G1 X-11.421S500
G1 X-4.782S0
G1 X-1.836S500
G1 X-1.628S0
G1 X-9.545S500
G1 X-4.28S0
G1 X-15.378S500
G1 X-4.293S0
G1 X-6.917S500
G1 X-4.351S0
G1 X-13.019S500
G1 X-4.146S0
G1 X-9.351S500
G1 X-4.28S0
G1 X-15.378S500
G1 X-4.293S0
G1 X-8.436S500
G1 X-4.089S0
G1 X-28.842S500
G1 X-5S0
G1 X-0.051Y0.1
G1 X5
G1 X28.893S500
G1 X4.089S0
G1 X8.477S500
G1 X4.277S0
G1 X15.327S500
G1 X4.265S0
G1 X9.392S500
G1 X4.146S0
G1 X12.989S500
G1 X4.337S0
G1 X7.002S500
G1 X4.277S0
G1 X15.327S500
G1 X4.265S0
G1 X9.586S500
G1 X1.628S0
G1 X1.76S500
G1 X4.781S0
G1 X11.498S500
G1 X1.666S0
G1 X20.662S500
G1 X5S0
G1 X0.05Y0.1
G1 X-5
G1 X-20.712S500
G1 X-1.666S0
G1 X-11.575S500
G1 X-4.78S0
G1 X-1.684S500
G1 X-1.628S0
G1 X-9.632S500
G1 X-4.245S0
G1 X-15.272S500
G1 X-4.259S0
G1 X-7.094S500
G1 X-4.322S0
G1 X-12.959S500
G1 X-4.146S0
G1 X-9.439S500
G1 X-4.244S0
G1 X-15.271S500
G1 X-4.26S0
G1 X-8.524S500
G1 X-4.089S0
G1 X-28.943S500
G1 X-5S0
G1 X-0.05Y0.1
G1 X5
G1 X28.993S500
G1 X4.089S0
G1 X8.572S500
G1 X4.241S0
G1 X15.216S500
G1 X4.221S0
G1 X9.488S500
G1 X4.146S0
G1 X12.928S500
G1 X4.308S0
G1 X7.187S500
G1 X4.241S0
G1 X15.216S500
G1 X4.222S0
G1 X9.681S500
G1 X1.628S0
G1 X1.607S500
G1 X4.781S0
G1 X11.651S500
G1 X1.666S0
G1 X20.762S500
G1 X5S0
G1 X0.049Y0.1
G1 X-5
G1 X-20.811S500
G1 X-1.666S0
G1 X-11.728S500
G1 X-4.78S0
G1 X-1.531S500
G1 X-1.628S0
G1 X-9.73S500
G1 X-4.205S0
G1 X-15.155S500
G1 X-4.222S0
G1 X-7.279S500
G1 X-4.297S0
G1 X-12.895S500
G1 X-4.146S0
G1 X-9.537S500
G1 X-4.204S0
G1 X-15.155S500
G1 X-4.222S0
G1 X-8.62S500
G1 X-4.089S0
G1 X-29.043S500
G1 X-5S0
G1 X-0.05Y0.1
G1 X5
G1 X29.093S500
G1 X4.089S0
G1 X8.668S500
G1 X4.204S0
G1 X15.092S500
G1 X4.189S0
G1 X9.585S500
G1 X4.146S0
G1 X12.859S500
G1 X4.288S0
G1 X7.372S500
G1 X4.203S0
G1 X15.093S500
G1 X4.189S0
G1 X9.779S500
G1 X1.628S0
G1 X1.455S500
G1 X4.779S0
G1 X11.805S500
G1 X1.666S0
G1 X20.861S500
G1 X5S0
G1 X0.05Y0.1
G1 X-5
G1 X-20.911S500
G1 X-1.666S0
G1 X-11.882S500
G1 X-4.779S0
G1 X-1.378S500
G1 X-1.628S0
G1 X-9.828S500
G1 X-4.172S0
G1 X-15.031S500
G1 X-4.185S0
G1 X-7.464S500
G1 X-4.279S0
G1 X-12.824S500
G1 X-4.146S0
G1 X-9.634S500
G1 X-4.172S0
G1 X-15.031S500
G1 X-4.185S0
G1 X-8.716S500
G1 X-4.089S0
G1 X-29.143S500
G1 X-5S0
G1 X-0.05Y0.1
G1 X5
G1 X29.193S500
G1 X4.089S0
G1 X8.764S500
G1 X4.166S0
G1 X14.97S500
G1 X4.155S0
G1 X9.683S500
G1 X4.146S0
G1 X12.789S500
G1 X4.268S0
G1 X7.558S500
G1 X4.166S0
G1 X14.97S500
G1 X4.156S0
G1 X9.876S500
G1 X1.628S0
G1 X1.302S500
G1 X4.778S0
G1 X11.959S500
G1 X1.666S0
G1 X20.961S500
G1 X5S0
G1 X0.05Y0.1
G1 X-5
G1 X-21.011S500
G1 X-1.666S0
G1 X-12.035S500
G1 X-4.778S0
G1 X-1.226S500
G1 X-1.628S0
G1 X-9.925S500
G1 X-4.14S0
G1 X-14.903S500
G1 X-4.152S0
G1 X-7.659S500
G1 X-4.25S0
G1 X-12.754S500
G1 X-4.146S0
G1 X-9.732S500
G1 X-4.139S0
G1 X-14.902S500
G1 X-4.153S0
G1 X-8.812S500
G1 X-4.089S0
G1 X-29.243S500
G1 X-5S0
G1 X-0.05Y0.1
G1 X5
G1 X29.293S500
G1 X4.089S0
G1 X8.86S500
G1 X4.139S0
G1 X14.836S500
G1 X4.123S0
G1 X9.78S500
G1 X4.146S0
G1 X12.718S500
G1 X4.232S0
G1 X7.761S500
G1 X4.139S0
G1 X14.836S500
G1 X4.123S0
G1 X9.974S500
G1 X1.628S0
G1 X1.149S500
G1 X4.778S0
G1 X12.112S500
G1 X1.666S0
G1 X21.061S500
G1 X5S0
G1 X0.049Y0.1
G1 X-5
G1 X-21.11S500
G1 X-1.666S0
G1 X-12.189S500
G1 X-4.777S0
G1 X-1.073S500
G1 X-1.628S0
G1 X-10.023S500
G1 X-4.107S0
G1 X-14.769S500
G1 X-4.123S0
G1 X-7.865S500
G1 X-4.217S0
G1 X-12.679S500
G1 X-4.146S0
G1 X-9.83S500
G1 X-4.106S0
G1 X-14.769S500
G1 X-4.123S0
G1 X-8.91S500
G1 X-4.089S0
G1 X-29.343S500
G1 X-5S0
G1 X-0.05Y0.1
G1 X5
G1 X29.393S500
G1 X4.089S0
G1 X8.966S500
G1 X4.101S0
G1 X14.7S500
G1 X4.085S0
G1 X9.886S500
G1 X4.146S0
G1 X12.638S500
G1 X4.204S0
G1 X7.975S500
G1 X4.101S0
G1 X14.7S500
G1 X4.086S0
G1 X10.079S500
G1 X1.628S0
G1 X0.997S500
G1 X4.776S0
G1 X12.266S500
G1 X1.666S0
G1 X21.16S500
G1 X5S0
G1 X0.05Y0.1
G1 X-5
G1 X-21.21S500
G1 X-1.666S0
G1 X-12.342S500
G1 X-4.777S0
G1 X-0.92S500
G1 X-1.628S0
G1 X-10.135S500
G1 X-4.07S0
G1 X-14.626S500
G1 X-4.079S0
G1 X-8.085S500
G1 X-4.191S0
G1 X-12.597S500
G1 X-4.146S0
G1 X-9.942S500
G1 X-4.069S0
G1 X-14.626S500
G1 X-4.079S0
G1 X-9.022S500
G1 X-4.089S0
G1 X-29.443S500
G1 X-5S0
G1 X-0.049Y0.1
G1 X5
G1 X29.492S500
G1 X4.089S0
G1 X9.079S500
G1 X4.059S0
G1 X14.55S500
G1 X4.052S0
G1 X9.998S500
G1 X4.146S0
G1 X12.556S500
G1 X4.178S0
G1 X8.196S500
G1 X4.059S0
G1 X14.55S500
G1 X4.052S0
G1 X10.192S500
G1 X1.628S0
G1 X0.844S500
G1 X4.776S0
G1 X12.419S500
G1 X1.666S0
G1 X21.26S500
G1 X5S0
G1 X0.049Y0.1
G1 X-5
G1 X-21.309S500
G1 X-1.666S0
G1 X-12.496S500
G1 X-4.775S0
G1 X-0.768S500
G1 X-1.628S0
G1 X-10.248S500
G1 X-4.035S0
G1 X-14.472S500
G1 X-4.042S0
G1 X-8.306S500
G1 X-4.164S0
G1 X-12.516S500
G1 X-4.146S0
G1 X-10.054S500
G1 X-4.035S0
G1 X-14.472S500
G1 X-4.042S0
G1 X-9.135S500
G1 X-4.089S0
G1 X-29.539S500
G1 X-5S0
G1 X-0.048Y0.1
G1 X5
G1 X29.587S500
G1 X4.089S0
G1 X9.191S500
G1 X4.026S0
G1 X14.393S500
G1 X4.018S0
G1 X10.11S500
G1 X4.146S0
G1 X12.473S500
G1 X4.154S0
G1 X8.415S500
G1 X4.026S0
G1 X14.393S500
G1 X4.018S0
G1 X10.304S500
G1 X1.628S0
G1 X0.691S500
G1 X4.775S0
G1 X12.571S500
G1 X1.668S0
G1 X21.357S500
G1 X5S0
G1 X0.047Y0.1
G1 X-5
G1 X-21.404S500
G1 X-1.671S0
G1 X-12.644S500
G1 X-4.775S0
G1 X-0.615S500
G1 X-1.628S0
G1 X-10.36S500
G1 X-4.001S0
G1 X-14.314S500
G1 X-4.01S0
G1 X-8.527S500
G1 X-4.145S0
G1 X-12.426S500
G1 X-4.146S0
G1 X-10.166S500
G1 X-4.001S0
G1 X-14.314S500
G1 X-4.01S0
G1 X-9.247S500
G1 X-4.089S0
G1 X-29.635S500
G1 X-5S0
G1 X-0.047Y0.1
G1 X5
G1 X29.682S500
G1 X4.089S0
G1 X9.303S500
G1 X3.993S0
G1 X14.235S500
G1 X3.985S0
G1 X10.222S500
G1 X4.146S0
G1 X12.379S500
G1 X4.13S0
G1 X8.645S500
G1 X3.993S0
G1 X14.235S500
G1 X3.985S0
G1 X10.416S500
G1 X1.628S0
G1 X0.538S500
G1 X4.775S0
G1 X12.718S500
G1 X1.674S0
G1 X21.452S500
G1 X5S0
G1 X0.047Y0.1
G1 X-5
G1 X-21.496S500
G1 X-1.68S0
G1 X-12.792S500
G1 X-4.774S0
G1 X-0.462S500
G1 X-1.628S0
G1 X-10.472S500
G1 X-3.971S0
G1 X-14.153S500
G1 X-3.976S0
G1 X-8.764S500
G1 X-4.114S0
G1 X-12.333S500
G1 X-4.146S0
G1 X-10.278S500
G1 X-3.971S0
G1 X-14.153S500
G1 X-3.976S0
G1 X-9.36S500
G1 X-4.089S0
G1 X-29.73S500
G1 X-5S0
G1 X-0.048Y0.1
G1 X5
G1 X29.778S500
G1 X4.089S0
G1 X9.424S500
G1 X3.958S0
G1 X14.061S500
G1 X3.954S0
G1 X10.341S500
G1 X4.146S0
G1 X12.286S500
G1 X4.099S0
G1 X8.89S500
G1 X3.958S0
G1 X14.061S500
G1 X3.954S0
G1 X10.535S500
G1 X1.628S0
G1 X0.386S500
G1 X4.773S0
G1 X12.866S500
G1 X1.689S0
G1 X21.538S500
G1 X5S0
G1 X0.047Y0.1
G1 X-5
G1 X-21.58S500
G1 X-1.697S0
G1 X-12.939S500
G1 X-4.774S0
G1 X-0.309S500
G1 X-1.628S0
G1 X-10.6S500
G1 X-3.936S0
G1 X-13.968S500
G1 X-3.939S0
G1 X-9.017S500
G1 X-4.085S0
G1 X-12.238S500
G1 X-4.146S0
G1 X-10.406S500
G1 X-3.936S0
G1 X-13.968S500
G1 X-3.939S0
G1 X-9.489S500
G1 X-4.089S0
G1 X-29.825S500
G1 X-5S0
G1 X-0.048Y0.1
G1 X5
G1 X29.873S500
G1 X4.089S0
G1 X9.554S500
G1 X3.92S0
G1 X13.876S500
G1 X3.917S0
G1 X10.471S500
G1 X4.146S0
G1 X12.185S500
G1 X4.076S0
G1 X9.144S500
G1 X3.92S0
G1 X13.876S500
G1 X3.917S0
G1 X10.665S500
G1 X1.628S0
G1 X0.233S500
G1 X4.773S0
G1 X13.007S500
G1 X1.711S0
G1 X21.623S500
G1 X5S0
G1 X0.047Y0.1
G1 X-5
G1 X-21.664S500
G1 X-1.726S0
G1 X-13.075S500
G1 X-4.772S0
G1 X-0.157S500
G1 X-1.628S0
G1 X-10.73S500
G1 X-3.898S0
G1 X-13.785S500
G1 X-3.901S0
G1 X-9.27S500
G1 X-4.068S0
G1 X-12.131S500
G1 X-4.146S0
G1 X-10.536S500
G1 X-3.898S0
G1 X-13.785S500
G1 X-3.901S0
G1 X-9.618S500
G1 X-4.089S0
G1 X-29.921S500
G1 X-5S0
G1 X-0.047Y0.1
G1 X5
G1 X29.968S500
G1 X4.089S0
G1 X9.683S500
G1 X3.883S0
G1 X13.692S500
G1 X3.879S0
G1 X10.601S500
G1 X4.146S0
G1 X12.077S500
G1 X4.06S0
G1 X9.397S500
G1 X3.883S0
G1 X13.692S500
G1 X3.879S0
G1 X10.795S500
G1 X1.628S0
G1 X0.08S500
G1 X4.772S0
G1 X13.143S500
G1 X1.74S0
G1 X21.707S500
G1 X5S0
G1 X0.047Y0.1
G1 X-5
G1 X-21.749S500
G1 X-1.755S0
G1 X-13.21S500
G1 X-6.403S0
G1 X-10.86S500
G1 X-3.861S0
G1 X-13.593S500
G1 X-3.87S0
G1 X-9.525S500
G1 X-4.05S0
G1 X-12.024S500
G1 X-4.146S0
G1 X-10.666S500
G1 X-3.861S0
G1 X-13.593S500
G1 X-3.87S0
G1 X-9.748S500
G1 X-4.089S0
G1 X-30.016S500
G1 X-5S0
G1 X-0.048Y0.1
G1 X5
G1 X30.064S500
G1 X4.089S0
G1 X9.812S500
G1 X3.859S0
G1 X13.487S500
G1 X3.849S0
G1 X10.731S500
G1 X4.146S0
G1 X11.969S500
G1 X4.035S0
G1 X9.659S500
G1 X3.859S0
G1 X13.486S500
G1 X3.85S0
G1 X10.925S500
G1 X6.327S0
G1 X13.277S500
G1 X1.781S0
G1 X21.78S500
G1 X5S0
G1 X0.047Y0.1
G1 X-5
G1 X-21.81S500
G1 X-1.81S0
G1 X-13.342S500
G1 X-6.25S0
G1 X-10.99S500
G1 X-3.839S0
G1 X-13.379S500
G1 X-3.845S0
G1 X-9.797S500
G1 X-4.026S0
G1 X-11.907S500
G1 X-4.146S0
G1 X-10.797S500
G1 X-3.838S0
G1 X-13.379S500
G1 X-3.845S0
G1 X-9.879S500
G1 X-4.089S0
G1 X-30.112S500
G1 X-5S0
G1 X-0.047Y0.1
G1 X5
G1 X30.159S500
G1 X4.089S0
G1 X9.953S500
G1 X3.823S0
G1 X13.273S500
G1 X3.818S0
G1 X10.871S500
G1 X4.146S0
G1 X11.846S500
G1 X4.017S0
G1 X9.941S500
G1 X3.823S0
G1 X13.273S500
G1 X3.819S0
G1 X11.064S500
G1 X6.173S0
G1 X13.402S500
G1 X1.843S0
G1 X21.842S500
G1 X5S0
G1 X0.047Y0.1
G1 X-5
G1 X-21.872S500
G1 X-1.877S0
G1 X-13.462S500
G1 X-6.096S0
G1 X-11.14S500
G1 X-3.798S0
G1 X-13.162S500
G1 X-3.805S0
G1 X-10.086S500
G1 X-4.007S0
G1 X-11.785S500
G1 X-4.146S0
G1 X-10.946S500
G1 X-3.798S0
G1 X-13.162S500
G1 X-3.805S0
G1 X-10.027S500
G1 X-4.089S0
G1 X-30.207S500
G1 X-5S0
G1 X-0.048Y0.1
G1 X5
G1 X30.255S500
G1 X4.089S0
G1 X10.102S500
G1 X3.791S0
G1 X13.047S500
G1 X3.777S0
G1 X11.021S500
G1 X4.146S0
G1 X11.723S500
G1 X3.999S0
G1 X10.231S500
G1 X3.791S0
G1 X13.047S500
G1 X3.777S0
G1 X11.215S500
G1 X6.02S0
G1 X13.521S500
G1 X1.911S0
G1 X21.903S500
G1 X5S0
G1 X0.047Y0.1
G1 X-5
G1 X-21.933S500
G1 X-1.945S0
G1 X-13.581S500
G1 X-5.943S0
G1 X-11.29S500
G1 X-3.757S0
G1 X-12.932S500
G1 X-3.777S0
G1 X-10.376S500
G1 X-3.994S0
G1 X-11.657S500
G1 X-4.146S0
G1 X-11.096S500
G1 X-3.756S0
G1 X-12.933S500
G1 X-3.777S0
G1 X-10.176S500
G1 X-4.089S0
G1 X-30.302S500
G1 X-5S0
G1 X-0.047Y0.1
G1 X5
G1 X30.349S500
G1 X4.089S0
G1 X10.25S500
G1 X3.764S0
G1 X12.809S500
G1 X3.744S0
G1 X11.171S500
G1 X4.146S0
G1 X11.587S500
G1 X3.994S0
G1 X10.52S500
G1 X3.764S0
G1 X12.809S500
G1 X3.744S0
G1 X11.365S500
G1 X5.866S0
G1 X13.639S500
G1 X1.989S0
G1 X21.954S500
G1 X5S0
G1 X0.045Y0.1
G1 X-5
G1 X-21.97S500
G1 X-2.044S0
G1 X-13.69S500
G1 X-5.789S0
G1 X-11.44S500
G1 X-3.733S0
G1 X-12.685S500
G1 X-3.749S0
G1 X-10.669S500
G1 X-3.99S0
G1 X-11.517S500
G1 X-4.146S0
G1 X-11.246S500
G1 X-3.733S0
G1 X-12.685S500
G1 X-3.749S0
G1 X-10.325S500
G1 X-4.089S0
G1 X-30.395S500
G1 X-5S0
G1 X-0.046Y0.1
G1 X5
G1 X30.441S500
G1 X4.089S0
G1 X10.399S500
G1 X3.745S0
G1 X12.551S500
G1 X3.721S0
G1 X11.322S500
G1 X4.146S0
G1 X11.446S500
G1 X3.98S0
G1 X10.824S500
G1 X3.745S0
G1 X12.551S500
G1 X3.722S0
