; LightBurn Pro 2.0.05
; GRBL device profile, current position
; Bounds: X-106.34 Y-103.75 to X106.34 Y103.75
G00 G17 G40 G21 G54
G91
M4
; Scan @ 6000 mm/min, 20% power
M8
G0 X-6.878Y-103.75
; Layer C27
G1 X2.5F6000S0
G1 X8.703S200
G1 X2.5S0
G1 X1.938Y0.1
G1 X-2.5
G1 X-12.589S200
G1 X-2.5S0
G1 X-1.398Y0.1
G1 X2.5
G1 X15.481S200
G1 X2.5S0
G1 X1.265Y0.1
G1 X-2.5
G1 X-18.016S200
G1 X-2.5S0
G1 X-1.073Y0.1
G1 X2.5
G1 X20.14S200
G1 X2.5S0
G1 X0.981Y0.1
G1 X-2.5
G1 X-22.137S200
G1 X-2.5S0
G1 X-0.879Y0.1
G1 X2.5
G1 X23.922S200
G1 X2.5S0
G1 X0.802Y0.1
G1 X-2.5
G1 X-25.604S200
G1 X-2.5S0
G1 X-0.755Y0.1
G1 X2.5
G1 X27.162S200
G1 X2.5S0
G1 X0.732Y0.1
G1 X-2.5
G1 X-28.613S200
G1 X-2.5S0
G1 X-0.719Y0.1
G1 X2.5
G1 X30.012S200
G1 X2.5S0
G1 X0.681Y0.1
G1 X-2.5
G1 X-31.346S200
G1 X-2.5S0
G1 X-0.622Y0.1
G1 X2.5
G1 X32.627S200
G1 X2.5S0
G1 X0.591Y0.1
G1 X-2.5
G1 X-33.841S200
G1 X-2.5S0
G1 X-0.613Y0.1
G1 X2.5
G1 X35.045S200
G1 X2.5S0
G1 X0.592Y0.1
G1 X-2.5
G1 X-36.186S200
G1 X-2.5S0
G1 X-0.548Y0.1
G1 X2.5
G1 X37.298S200
G1 X2.5S0
G1 X0.523Y0.1
G1 X-2.5
G1 X-38.369S200
G1 X-2.5S0
G1 X-0.543Y0.1
G1 X2.5
G1 X39.435S200
G1 X2.5S0
G1 X0.523Y0.1
G1 X-2.5
G1 X-40.448S200
G1 X-2.5S0
G1 X-0.489Y0.1
G1 X2.5
G1 X41.456S200
G1 X2.5S0
G1 X0.47Y0.1
G1 X-2.5
G1 X-42.416S200
G1 X-2.5S0
G1 X-0.489Y0.1
G1 X2.5
G1 X43.374S200
G1 X2.5S0
G1 X0.47Y0.1
G1 X-2.5
G1 X-44.305S200
G1 X-2.5S0
G1 X-0.442Y0.1
G1 X2.5
G1 X45.216S200
G1 X2.5S0
G1 X0.455Y0.1
G1 X-2.5
G1 X-46.113S200
G1 X-2.5S0
G1 X-0.441Y0.1
G1 X2.5
G1 X46.971S200
G1 X2.5S0
G1 X0.417Y0.1
G1 X-2.5
G1 X-47.83S200
G1 X-2.5S0
G1 X-0.416Y0.1
G1 X2.5
G1 X48.663S200
G1 X2.5S0
G1 X0.417Y0.1
G1 X-2.5
G1 X-49.482S200
G1 X-2.5S0
G1 X-0.402Y0.1
G1 X2.5
G1 X50.298S200
G1 X2.5S0
G1 X0.383Y0.1
G1 X-2.5
G1 X-51.083S200
G1 X-2.5S0
G1 X-0.403Y0.1
G1 X2.5
G1 X51.868S200
G1 X2.5S0
G1 X0.382Y0.1
G1 X-2.5
G1 X-52.644S200
G1 X-2.5S0
G1 X-0.369Y0.1
G1 X2.5
G1 X53.396S200
G1 X2.5S0
G1 X0.382Y0.1
G1 X-2.5
G1 X-54.146S200
G1 X-2.5S0
G1 X-0.369Y0.1
G1 X2.5
G1 X54.884S200
G1 X2.5S0
G1 X0.353Y0.1
G1 X-2.5
G1 X-55.605S200
G1 X-2.5S0
G1 X-0.369Y0.1
G1 X2.5
G1 X56.326S200
G1 X2.5S0
G1 X0.352Y0.1
G1 X-2.5
G1 X-57.037S200
G1 X-2.5S0
G1 X-0.339Y0.1
G1 X2.5
G1 X57.728S200
G1 X2.5S0
G1 X0.352Y0.1
G1 X-2.5
G1 X-58.42S200
G1 X-2.5S0
G1 X-0.34Y0.1
G1 X2.5
G1 X59.104S200
G1 X2.5S0
G1 X0.326Y0.1
G1 X-2.5
G1 X-59.77S200
G1 X-2.5S0
G1 X-0.34Y0.1
G1 X2.5
G1 X60.436S200
G1 X2.5S0
G1 X0.325Y0.1
G1 X-2.5
G1 X-61.1S200
G1 X-2.5S0
G1 X-0.313Y0.1
G1 X2.5
G1 X61.739S200
G1 X2.5S0
G1 X0.326Y0.1
G1 X-2.5
G1 X-62.378S200
G1 X-2.5S0
G1 X-0.312Y0.1
G1 X2.5
G1 X63.016S200
G1 X2.5S0
G1 X0.308Y0.1
G1 X-2.5
G1 X-63.636S200
G1 X-2.5S0
G1 X-0.313Y0.1
G1 X2.5
G1 X64.251S200
G1 X2.5S0
G1 X0.303Y0.1
G1 X-2.5
G1 X-64.866S200
G1 X-2.5S0
G1 X-0.298Y0.1
G1 X2.5
G1 X65.467S200
G1 X2.5S0
G1 X0.302Y0.1
G1 X-2.5
G1 X-66.061S200
G1 X-2.5S0
G1 X-0.292Y0.1
G1 X2.5
G1 X66.656S200
G1 X2.5S0
G1 X0.302Y0.1
G1 X-2.5
G1 X-67.25S200
G1 X-2.5S0
G1 X-0.292Y0.1
G1 X2.5
G1 X67.829S200
G1 X2.5S0
G1 X0.282Y0.1
G1 X-2.5
G1 X-68.404S200
G1 X-2.5S0
G1 X-0.29Y0.1
G1 X2.5
G1 X68.976S200
G1 X2.5S0
G1 X0.282Y0.1
G1 X-2.5
G1 X-69.532S200
G1 X-2.5S0
G1 X-0.275Y0.1
G1 X2.5
G1 X70.089S200
G1 X2.5S0
G1 X0.282Y0.1
G1 X-2.5
G1 X-70.645S200
G1 X-2.5S0
G1 X-0.275Y0.1
G1 X2.5
G1 X71.202S200
G1 X2.5S0
G1 X0.277Y0.1
G1 X-2.5
G1 X-71.753S200
G1 X-2.5S0
G1 X-0.275Y0.1
G1 X2.5
G1 X72.291S200
G1 X2.5S0
G1 X0.263Y0.1
G1 X-2.5
G1 X-72.827S200
G1 X-2.5S0
G1 X-0.258Y0.1
G1 X2.5
G1 X73.349S200
G1 X2.5S0
G1 X0.263Y0.1
G1 X-2.5
G1 X-73.871S200
G1 X-2.5S0
G1 X-0.258Y0.1
G1 X2.5
G1 X74.392S200
G1 X2.5S0
G1 X0.264Y0.1
G1 X-2.5
G1 X-74.915S200
G1 X-2.5S0
G1 X-0.259Y0.1
G1 X2.5
G1 X75.437S200
G1 X2.5S0
G1 X0.258Y0.1
G1 X-2.5
G1 X-75.953S200
G1 X-2.5S0
G1 X-0.259Y0.1
G1 X2.5
G1 X76.459S200
G1 X2.5S0
G1 X0.246Y0.1
G1 X-2.5
G1 X-76.954S200
G1 X-2.5S0
G1 X-0.244Y0.1
G1 X2.5
G1 X77.445S200
G1 X2.5S0
G1 X0.246Y0.1
G1 X-2.5
G1 X-77.936S200
G1 X-2.5S0
G1 X-0.244Y0.1
G1 X2.5
G1 X78.427S200
G1 X2.5S0
G1 X0.246Y0.1
G1 X-2.5
G1 X-78.918S200
G1 X-2.5S0
G1 X-0.244Y0.1
G1 X2.5
G1 X79.409S200
G1 X2.5S0
G1 X0.246Y0.1
G1 X-2.5
G1 X-79.9S200
G1 X-2.5S0
G1 X-0.244Y0.1
G1 X2.5
G1 X80.378S200
G1 X2.5S0
G1 X0.233Y0.1
G1 X-2.5
G1 X-80.844S200
G1 X-2.5S0
G1 X-0.232Y0.1
G1 X2.5
G1 X81.308S200
G1 X2.5S0
G1 X0.232Y0.1
G1 X-2.5
G1 X-81.772S200
G1 X-2.5S0
G1 X-0.231Y0.1
G1 X2.5
G1 X82.236S200
G1 X2.5S0
G1 X0.232Y0.1
G1 X-2.5
G1 X-82.7S200
G1 X-2.5S0
G1 X-0.232Y0.1
G1 X2.5
G1 X83.164S200
G1 X2.5S0
G1 X0.233Y0.1
G1 X-2.5
G1 X-83.629S200
G1 X-2.5S0
G1 X-0.231Y0.1
G1 X2.5
G1 X84.091S200
G1 X2.5S0
G1 X0.219Y0.1
G1 X-2.5
G1 X-84.533S200
G1 X-2.5S0
G1 X-0.221Y0.1
G1 X2.5
G1 X84.974S200
G1 X2.5S0
G1 X0.22Y0.1
G1 X-2.5
G1 X-85.414S200
G1 X-2.5S0
G1 X-0.22Y0.1
G1 X2.5
G1 X85.853S200
G1 X2.5S0
G1 X0.22Y0.1
G1 X-2.5
G1 X-86.293S200
G1 X-2.5S0
G1 X-0.22Y0.1
G1 X2.5
G1 X40.264S200
G1 X6.212S0
G1 X40.256S200
G1 X2.5S0
G1 X0.22Y0.1
G1 X-2.5
G1 X-38.222S200
G1 X-10.72S0
G1 X-38.231S200
G1 X-2.5S0
G1 X-0.22Y0.1
G1 X2.5
G1 X36.931S200
G1 X13.76S0
G1 X36.921S200
G1 X2.5S0
G1 X0.22Y0.1
G1 X-2.5
G1 X-35.868S200
G1 X-16.306S0
G1 X-35.875S200
G1 X-2.5S0
G1 X-0.21Y0.1
G1 X2.5
G1 X35.007S200
G1 X18.462S0
G1 X35S200
G1 X2.5S0
G1 X0.207Y0.1
G1 X-2.5
G1 X-34.243S200
G1 X-20.39S0
G1 X-34.253S200
G1 X-2.5S0
G1 X-0.209Y0.1
G1 X2.5
G1 X33.581S200
G1 X22.152S0
G1 X33.57S200
G1 X2.5S0
G1 X0.208Y0.1
G1 X-2.5
G1 X-32.951S200
G1 X-23.806S0
G1 X-32.964S200
G1 X-2.5S0
G1 X-0.21Y0.1
G1 X2.5
G1 X32.429S200
G1 X25.296S0
G1 X32.414S200
G1 X2.5S0
G1 X0.208Y0.1
G1 X-2.5
G1 X-31.877S200
G1 X-26.786S0
G1 X-31.894S200
G1 X-2.5S0
G1 X-0.209Y0.1
G1 X2.5
G1 X31.442S200
G1 X28.108S0
G1 X31.423S200
G1 X2.5S0
G1 X0.208Y0.1
G1 X-2.5
G1 X-30.986S200
G1 X-29.398S0
G1 X-31.007S200
G1 X-2.5S0
G1 X-0.205Y0.1
G1 X2.5
G1 X30.568S200
G1 X30.687S0
G1 X30.549S200
G1 X2.5S0
G1 X0.206Y0.1
G1 X-2.5
G1 X-30.178S200
G1 X-31.842S0
G1 X-30.187S200
G1 X-2.5S0
G1 X-0.198Y0.1
G1 X2.5
G1 X29.817S200
G1 X32.978S0
G1 X29.807S200
G1 X2.5S0
G1 X0.197Y0.1
G1 X-2.5
G1 X-29.436S200
G1 X-34.113S0
G1 X-29.447S200
G1 X-2.5S0
G1 X-0.198Y0.1
G1 X2.5
G1 X29.109S200
G1 X35.184S0
G1 X29.098S200
G1 X2.5S0
G1 X0.197Y0.1
G1 X-2.5
G1 X-28.788S200
G1 X-36.198S0
G1 X-28.799S200
G1 X-2.5S0
G1 X-0.197Y0.1
G1 X2.5
G1 X28.489S200
G1 X37.212S0
G1 X28.477S200
G1 X2.5S0
G1 X0.197Y0.1
G1 X-2.5
G1 X-28.167S200
G1 X-38.226S0
G1 X-28.18S200
G1 X-2.5S0
G1 X-0.197Y0.1
G1 X2.5
G1 X27.91S200
G1 X39.16S0
G1 X27.897S200
G1 X2.5S0
G1 X0.197Y0.1
G1 X-2.5
G1 X-27.636S200
G1 X-40.076S0
G1 X-27.65S200
G1 X-2.5S0
G1 X-0.194Y0.1
G1 X2.5
G1 X27.387S200
G1 X40.99S0
G1 X27.376S200
G1 X2.5S0
G1 X0.196Y0.1
G1 X-2.5
G1 X-27.114S200
G1 X-41.906S0
G1 X-27.117S200
G1 X-2.5S0
G1 X-0.187Y0.1
G1 X2.5
G1 X26.875S200
G1 X42.764S0
G1 X26.872S200
G1 X2.5S0
G1 X0.187Y0.1
G1 X-2.5
G1 X-26.642S200
G1 X-43.598S0
G1 X-26.645S200
G1 X-2.5S0
G1 X-0.188Y0.1
G1 X2.5
G1 X26.417S200
G1 X44.43S0
G1 X26.413S200
G1 X2.5S0
G1 X0.186Y0.1
G1 X-2.5
G1 X-26.182S200
G1 X-45.264S0
G1 X-26.187S200
G1 X-2.5S0
G1 X-0.187Y0.1
G1 X2.5
G1 X25.965S200
G1 X46.082S0
G1 X25.96S200
G1 X2.5S0
G1 X0.187Y0.1
G1 X-2.5
G1 X-25.764S200
G1 X-46.848S0
G1 X-25.77S200
G1 X-2.5S0
G1 X-0.187Y0.1
G1 X2.5
G1 X25.575S200
G1 X47.612S0
G1 X25.569S200
G1 X2.5S0
G1 X0.186Y0.1
G1 X-2.5
G1 X-25.373S200
G1 X-48.376S0
G1 X-25.38S200
G1 X-2.5S0
G1 X-0.188Y0.1
G1 X2.5
G1 X25.185S200
G1 X49.142S0
G1 X25.177S200
G1 X2.5S0
G1 X0.187Y0.1
G1 X-2.5
G1 X-24.992S200
G1 X-49.886S0
G1 X-24.993S200
G1 X-2.5S0
G1 X-0.178Y0.1
G1 X2.5
G1 X24.819S200
G1 X50.59S0
G1 X24.822S200
G1 X2.5S0
G1 X0.177Y0.1
G1 X-2.5
G1 X-24.646S200
G1 X-51.296S0
G1 X-24.644S200
G1 X-2.5S0
G1 X-0.178Y0.1
G1 X2.5
G1 X24.469S200
G1 X52.002S0
G1 X24.47S200
G1 X2.5S0
G1 X0.178Y0.1
G1 X-2.5
G1 X-24.295S200
G1 X-52.708S0
G1 X-24.294S200
G1 X-2.5S0
G1 X-0.178Y0.1
G1 X2.5
G1 X24.122S200
G1 X53.408S0
G1 X24.122S200
G1 X2.5S0
G1 X0.177Y0.1
G1 X-2.5
G1 X-23.972S200
G1 X-54.062S0
G1 X-23.973S200
G1 X-2.5S0
G1 X-0.178Y0.1
G1 X2.5
G1 X23.824S200
G1 X54.716S0
G1 X23.823S200
G1 X2.5S0
G1 X0.177Y0.1
G1 X-2.5
G1 X-23.672S200
G1 X-55.371S0
G1 X-23.676S200
G1 X-2.5S0
G1 X-0.178Y0.1
G1 X2.5
G1 X23.526S200
G1 X56.026S0
G1 X23.522S200
G1 X2.5S0
G1 X0.178Y0.1
G1 X-2.5
G1 X-23.373S200
G1 X-56.68S0
G1 X-23.377S200
G1 X-2.5S0
G1 X-0.171Y0.1
G1 X2.5
G1 X23.232S200
G1 X57.312S0
G1 X23.234S200
G1 X2.5S0
G1 X0.172Y0.1
G1 X-2.5
G1 X-23.101S200
G1 X-57.922S0
G1 X-23.096S200
G1 X-2.5S0
G1 X-0.17Y0.1
G1 X2.5
G1 X22.961S200
G1 X58.532S0
G1 X22.965S200
G1 X2.5S0
G1 X0.168Y0.1
G1 X-2.5
G1 X-22.828S200
G1 X-59.142S0
G1 X-22.825S200
G1 X-2.5S0
G1 X-0.17Y0.1
G1 X2.5
G1 X22.69S200
G1 X59.752S0
G1 X22.692S200
G1 X2.5S0
G1 X0.168Y0.1
G1 X-2.5
G1 X-22.555S200
G1 X-60.362S0
G1 X-22.555S200
G1 X-2.5S0
G1 X-0.169Y0.1
G1 X2.5
G1 X22.429S200
G1 X60.952S0
G1 X22.429S200
G1 X2.499S0
G1 X0.169Y0.1
G1 X-2.5
G1 X-22.312S200
G1 X-61.522S0
G1 X-22.314S200
G1 X-2.5S0
G1 X-0.169Y0.1
G1 X2.5
G1 X22.198S200
G1 X62.092S0
G1 X22.195S200
G1 X2.5S0
G1 X0.169Y0.1
G1 X-2.5
G1 X-22.079S200
G1 X-62.662S0
G1 X-22.083S200
G1 X-2.5S0
G1 X-0.169Y0.1
G1 X2.5
G1 X21.967S200
G1 X63.232S0
G1 X21.962S200
G1 X2.5S0
G1 X0.169Y0.1
G1 X-2.5
G1 X-21.845S200
G1 X-63.804S0
G1 X-21.847S200
G1 X-2.5S0
G1 X-0.162Y0.1
G1 X2.5
G1 X21.727S200
G1 X64.368S0
G1 X21.73S200
G1 X2.5S0
G1 X0.16Y0.1
G1 X-2.5
G1 X-21.622S200
G1 X-64.904S0
G1 X-21.621S200
G1 X-2.5S0
G1 X-0.161Y0.1
G1 X2.5
G1 X21.515S200
G1 X65.438S0
G1 X21.515S200
G1 X2.5S0
G1 X0.161Y0.1
G1 X-2.5
G1 X-21.408S200
G1 X-65.974S0
G1 X-21.409S200
G1 X-2.5S0
G1 X-0.161Y0.1
G1 X2.5
G1 X21.302S200
G1 X66.51S0
G1 X21.3S200
G1 X2.5S0
G1 X0.16Y0.1
G1 X-2.5
G1 X-21.193S200
G1 X-67.044S0
G1 X-21.197S200
G1 X-2.5S0
G1 X-0.162Y0.1
G1 X2.5
G1 X21.091S200
G1 X67.58S0
G1 X21.085S200
G1 X2.5S0
G1 X0.16Y0.1
G1 X-2.5
G1 X-20.984S200
G1 X-68.102S0
G1 X-20.991S200
G1 X-2.5S0
G1 X-0.162Y0.1
G1 X2.5
G1 X20.901S200
G1 X68.606S0
G1 X20.892S200
G1 X2.5S0
G1 X0.16Y0.1
G1 X-2.5
G1 X-20.801S200
G1 X-69.108S0
G1 X-20.811S200
G1 X-2.5S0
G1 X-0.162Y0.1
G1 X2.5
G1 X20.721S200
G1 X69.612S0
G1 X20.709S200
G1 X2.5S0
G1 X0.16Y0.1
G1 X-2.5
G1 X-20.617S200
G1 X-70.116S0
G1 X-20.626S200
G1 X-2.5S0
G1 X-0.154Y0.1
G1 X2.5
G1 X20.528S200
G1 X70.62S0
G1 X20.524S200
G1 X2.5S0
G1 X0.154Y0.1
G1 X-2.5
G1 X-20.426S200
G1 X-71.124S0
G1 X-20.43S200
G1 X-2.5S0
G1 X-0.155Y0.1
G1 X2.5
G1 X20.338S200
G1 X71.618S0
G1 X20.333S200
G1 X2.5S0
G1 X0.154Y0.1
G1 X-2.5
G1 X-20.249S200
G1 X-72.094S0
G1 X-20.254S200
G1 X-2.5S0
G1 X-0.154Y0.1
G1 X2.5
G1 X20.171S200
G1 X72.568S0
G1 X20.167S200
G1 X2.5S0
G1 X0.154Y0.1
G1 X-2.5
G1 X-20.083S200
G1 X-73.044S0
G1 X-20.087S200
G1 X-2.5S0
G1 X-0.155Y0.1
G1 X2.5
G1 X20.004S200
G1 X73.519S0
G1 X19.999S200
G1 X2.5S0
G1 X0.154Y0.1
G1 X-2.5
G1 X-19.916S200
G1 X-73.994S0
G1 X-19.921S200
G1 X-2.5S0
G1 X-0.154Y0.1
G1 X2.5
G1 X19.837S200
G1 X74.47S0
G1 X19.832S200
G1 X2.5S0
G1 X0.154Y0.1
G1 X-2.5
G1 X-19.749S200
G1 X-74.944S0
G1 X-19.754S200
G1 X-2.5S0
G1 X-0.154Y0.1
G1 X2.5
G1 X19.681S200
G1 X75.398S0
G1 X19.676S200
G1 X2.5S0
G1 X0.155Y0.1
G1 X-2.5
G1 X-19.607S200
G1 X-75.846S0
G1 X-19.609S200
G1 X-2.5S0
G1 X-0.147Y0.1
G1 X2.5
G1 X19.531S200
G1 X76.296S0
G1 X19.536S200
G1 X2.5S0
G1 X0.147Y0.1
G1 X-2.5
G1 X-19.458S200
G1 X-76.746S0
G1 X-19.454S200
G1 X-2.5S0
G1 X-0.147Y0.1
G1 X2.5
G1 X19.376S200
G1 X77.196S0
G1 X19.38S200
G1 X2.5S0
G1 X0.146Y0.1
G1 X-2.5
G1 X-19.302S200
G1 X-77.644S0
G1 X-19.299S200
G1 X-2.5S0
G1 X-0.148Y0.1
G1 X2.5
G1 X19.222S200
G1 X78.094S0
G1 X19.224S200
G1 X2.5S0
G1 X0.146Y0.1
G1 X-2.5
G1 X-19.146S200
G1 X-78.542S0
G1 X-19.145S200
G1 X-2.5S0
G1 X-0.147Y0.1
G1 X2.5
G1 X19.079S200
G1 X78.968S0
G1 X19.08S200
G1 X2.5S0
G1 X0.147Y0.1
G1 X-2.5
G1 X-19.014S200
G1 X-79.394S0
G1 X-19.014S200
G1 X-2.5S0
G1 X-0.147Y0.1
G1 X2.5
G1 X18.948S200
G1 X79.82S0
G1 X18.947S200
G1 X2.5S0
G1 X0.147Y0.1
G1 X-2.5
G1 X-18.881S200
G1 X-80.246S0
G1 X-18.882S200
G1 X-2.5S0
G1 X-0.148Y0.1
G1 X2.5
G1 X18.817S200
G1 X80.672S0
G1 X18.814S200
G1 X2.5S0
G1 X0.147Y0.1
G1 X-2.5
G1 X-18.748S200
G1 X-81.098S0
G1 X-18.751S200
G1 X-2.5S0
G1 X-0.142Y0.1
G1 X2.5
G1 X18.68S200
G1 X81.524S0
G1 X18.681S200
G1 X2.5S0
G1 X0.147Y0.1
G1 X-2.5
G1 X-18.615S200
G1 X-81.95S0
G1 X-18.608S200
G1 X-2.5S0
G1 X-0.141Y0.1
G1 X2.5
G1 X18.546S200
G1 X82.356S0
G1 X18.551S200
G1 X2.5S0
G1 X0.14Y0.1
G1 X-2.5
G1 X-18.489S200
G1 X-82.76S0
G1 X-18.485S200
G1 X-2.5S0
G1 X-0.141Y0.1
G1 X2.5
G1 X18.424S200
G1 X83.164S0
G1 X18.426S200
G1 X2.5S0
G1 X0.14Y0.1
G1 X-2.5
G1 X-18.364S200
G1 X-83.568S0
G1 X-18.363S200
G1 X-2.5S0
G1 X-0.14Y0.1
G1 X2.5
G1 X18.301S200
G1 X83.972S0
G1 X18.301S200
G1 X2.5S0
G1 X0.14Y0.1
G1 X-2.5
G1 X-18.238S200
G1 X-84.378S0
G1 X-18.239S200
G1 X-2.5S0
G1 X-0.141Y0.1
G1 X2.5
G1 X18.178S200
G1 X84.782S0
G1 X18.175S200
G1 X2.5S0
G1 X0.14Y0.1
G1 X-2.5
G1 X-18.113S200
G1 X-85.186S0
G1 X-18.117S200
G1 X-2.5S0
G1 X-0.141Y0.1
G1 X2.5
G1 X18.059S200
G1 X85.583S0
G1 X18.053S200
G1 X2.5S0
G1 X0.14Y0.1
G1 X-2.5
G1 X-18.001S200
G1 X-85.968S0
G1 X-18.008S200
G1 X-2.5S0
G1 X-0.141Y0.1
G1 X2.5
G1 X17.957S200
G1 X86.352S0
G1 X17.949S200
G1 X2.5S0
G1 X0.139Y0.1
G1 X-2.5
G1 X-17.896S200
G1 X-86.736S0
G1 X-17.9S200
G1 X-2.5S0
G1 X-0.134Y0.1
G1 X2.5
G1 X17.843S200
G1 X87.12S0
G1 X17.844S200
G1 X2.5S0
G1 X0.134Y0.1
G1 X-2.5
G1 X-17.786S200
G1 X-87.504S0
G1 X-17.785S200
G1 X-2.5S0
G1 X-0.135Y0.1
G1 X2.5
G1 X17.728S200
G1 X87.888S0
G1 X17.727S200
G1 X2.5S0
G1 X0.134Y0.1
G1 X-2.5
G1 X-17.668S200
G1 X-88.274S0
G1 X-17.669S200
G1 X-2.5S0
G1 X-0.134Y0.1
G1 X2.5
G1 X17.611S200
G1 X88.658S0
G1 X17.609S200
G1 X2.5S0
G1 X0.133Y0.1
G1 X-2.5
G1 X-17.554S200
G1 X-89.034S0
G1 X-17.558S200
G1 X-2.5S0
G1 X-0.134Y0.1
G1 X2.5
G1 X17.509S200
G1 X89.4S0
G1 X17.504S200
G1 X2.5S0
G1 X0.133Y0.1
G1 X-2.5
G1 X-17.454S200
G1 X-89.766S0
G1 X-17.46S200
G1 X-2.5S0
G1 X-0.135Y0.1
G1 X2.5
G1 X17.412S200
G1 X90.132S0
G1 X17.404S200
G1 X2.5S0
G1 X0.133Y0.1
G1 X-2.5
G1 X-17.354S200
G1 X-90.497S0
G1 X-17.363S200
G1 X-2.5S0
G1 X-0.129Y0.1
G1 X2.5
G1 X17.309S200
G1 X90.862S0
G1 X17.305S200
G1 X2.5S0
G1 X0.133Y0.1
G1 X-2.5
G1 X-17.255S200
G1 X-91.228S0
G1 X-17.256S200
G1 X-2.5S0
G1 X-0.13Y0.1
G1 X2.5
G1 X17.203S200
G1 X91.594S0
G1 X17.205S200
G1 X2.5S0
G1 X0.133Y0.1
G1 X-2.5
G1 X-17.155S200
G1 X-91.96S0
G1 X-17.15S200
G1 X-2.5S0
G1 X-0.13Y0.1
G1 X2.5
G1 X17.099S200
G1 X92.322S0
G1 X17.107S200
G1 X2.5S0
G1 X0.127Y0.1
G1 X-2.5
G1 X-17.059S200
G1 X-92.672S0
G1 X-17.054S200
G1 X-2.5S0
G1 X-0.13Y0.1
G1 X2.5
G1 X17.01S200
G1 X93.02S0
G1 X17.012S200
G1 X2.5S0
G1 X0.127Y0.1
G1 X-2.5
G1 X-16.964S200
G1 X-93.37S0
G1 X-16.965S200
G1 X-2.5S0
G1 X-0.13Y0.1
G1 X2.5
G1 X16.921S200
G1 X93.718S0
G1 X16.917S200
G1 X2.5S0
G1 X0.127Y0.1
G1 X-2.5
G1 X-16.87S200
G1 X-94.066S0
G1 X-16.877S200
G1 X-2.5S0
G1 X-0.127Y0.1
G1 X2.5
G1 X16.829S200
G1 X94.416S0
G1 X16.823S200
G1 X2.5S0
G1 X0.127Y0.1
G1 X-2.5
G1 X-16.776S200
G1 X-94.764S0
G1 X-16.78S200
G1 X-2.5S0
G1 X-0.126Y0.1
G1 X2.5
G1 X16.732S200
G1 X95.112S0
G1 X16.729S200
G1 X2.5S0
G1 X0.127Y0.1
G1 X-2.5
G1 X-16.681S200
G1 X-95.462S0
G1 X-16.683S200
G1 X-2.5S0
G1 X-0.125Y0.1
G1 X2.5
G1 X16.639S200
G1 X95.8S0
G1 X16.639S200
G1 X2.5S0
G1 X0.127Y0.1
G1 X-2.5
G1 X-16.599S200
G1 X-96.134S0
G1 X-16.598S200
G1 X-2.5S0
G1 X-0.125Y0.1
G1 X2.5
G1 X16.557S200
G1 X96.466S0
G1 X16.56S200
G1 X2.5S0
G1 X0.127Y0.1
G1 X-2.5
G1 X-16.52S200
G1 X-96.799S0
G1 X-16.517S200
G1 X-2.5S0
G1 X-0.126Y0.1
G1 X2.5
G1 X16.476S200
G1 X97.132S0
G1 X16.481S200
G1 X2.5S0
G1 X0.122Y0.1
G1 X-2.5
G1 X-16.437S200
G1 X-97.464S0
G1 X-16.435S200
G1 X-2.5S0
G1 X-0.126Y0.1
G1 X2.5
G1 X16.394S200
G1 X97.798S0
G1 X16.392S200
G1 X2.5S0
G1 X0.121Y0.1
G1 X-2.5
G1 X-16.347S200
G1 X-98.13S0
G1 X-16.35S200
G1 X-2.5S0
G1 X-0.122Y0.1
G1 X2.5
G1 X16.306S200
G1 X98.462S0
G1 X16.303S200
G1 X2.5S0
G1 X0.121Y0.1
G1 X-2.5
G1 X-16.257S200
G1 X-98.796S0
G1 X-16.26S200
G1 X-2.5S0
G1 X-0.122Y0.1
G1 X2.5
G1 X16.221S200
G1 X99.118S0
G1 X16.218S200
G1 X2.5S0
G1 X0.121Y0.1
G1 X-2.5
G1 X-16.18S200
G1 X-99.436S0
G1 X-16.183S200
G1 X-2.5S0
G1 X-0.122Y0.1
G1 X2.5
G1 X16.146S200
G1 X99.754S0
G1 X16.142S200
G1 X2.5S0
G1 X0.122Y0.1
G1 X-2.5
G1 X-16.105S200
G1 X-100.072S0
G1 X-16.108S200
G1 X-2.5S0
G1 X-0.121Y0.1
G1 X2.5
G1 X16.07S200
G1 X100.39S0
G1 X16.067S200
G1 X2.5S0
G1 X0.122Y0.1
G1 X-2.5
G1 X-16.03S200
G1 X-100.708S0
G1 X-16.033S200
G1 X-2.5S0
G1 X-0.121Y0.1
G1 X2.5
G1 X15.995S200
G1 X101.026S0
G1 X15.992S200
G1 X2.5S0
G1 X0.122Y0.1
G1 X-2.5
G1 X-15.955S200
G1 X-101.344S0
G1 X-15.958S200
G1 X-2.5S0
G1 X-0.119Y0.1
G1 X2.5
G1 X15.918S200
G1 X101.662S0
G1 X15.917S200
G1 X2.5S0
G1 X0.12Y0.1
G1 X-2.5
G1 X-15.878S200
G1 X-101.98S0
G1 X-15.876S200
G1 X-2.5S0
G1 X-0.118Y0.1
G1 X2.5
G1 X15.838S200
G1 X102.292S0
G1 X15.838S200
G1 X2.5S0
G1 X0.116Y0.1
G1 X-2.5
G1 X-15.802S200
G1 X-102.596S0
G1 X-15.803S200
G1 X-2.5S0
G1 X-0.117Y0.1
G1 X2.5
G1 X15.768S200
G1 X102.9S0
G1 X15.767S200
G1 X2.5S0
G1 X0.116Y0.1
G1 X-2.5
G1 X-15.731S200
G1 X-103.204S0
G1 X-15.734S200
G1 X-2.5S0
G1 X-0.117Y0.1
G1 X2.5
G1 X15.699S200
G1 X103.508S0
G1 X15.695S200
G1 X2.5S0
G1 X0.116Y0.1
G1 X-2.5
G1 X-15.659S200
G1 X-103.812S0
G1 X-15.664S200
G1 X-2.5S0
G1 X-0.118Y0.1
G1 X2.5
G1 X15.63S200
G1 X104.116S0
G1 X15.624S200
G1 X2.5S0
G1 X0.116Y0.1
G1 X-2.5
G1 X-15.588S200
G1 X-104.42S0
G1 X-15.595S200
G1 X-2.5S0
G1 X-0.118Y0.1
G1 X2.5
G1 X15.562S200
G1 X104.722S0
G1 X15.553S200
G1 X2.5S0
G1 X0.116Y0.1
G1 X-2.5
G1 X-15.517S200
G1 X-105.026S0
G1 X-15.526S200
G1 X-2.5S0
G1 X-0.114Y0.1
G1 X2.5
G1 X15.488S200
G1 X105.33S0
G1 X15.482S200
G1 X2.5S0
G1 X0.116Y0.1
G1 X-2.5
G1 X-15.45S200
G1 X-105.626S0
G1 X-15.453S200
G1 X-2.5S0
G1 X-0.114Y0.1
G1 X2.5
G1 X15.422S200
G1 X105.916S0
G1 X15.421S200
G1 X2.5S0
G1 X0.116Y0.1
G1 X-2.5
G1 X-15.392S200
G1 X-106.206S0
G1 X-15.39S200
G1 X-2.5S0
G1 X-0.113Y0.1
G1 X2.5
G1 X15.357S200
G1 X106.498S0
G1 X15.36S200
G1 X2.5S0
G1 X0.112Y0.1
G1 X-2.5
G1 X-15.327S200
G1 X-106.788S0
G1 X-15.326S200
G1 X-2.5S0
G1 X-0.113Y0.1
G1 X2.5
G1 X15.294S200
G1 X107.078S0
G1 X15.293S200
G1 X2.5S0
G1 X0.111Y0.1
G1 X-2.5
G1 X-15.258S200
G1 X-107.37S0
G1 X-15.262S200
G1 X-2.5S0
G1 X-0.113Y0.1
G1 X2.5
G1 X15.23S200
G1 X107.66S0
G1 X15.225S200
G1 X2.5S0
G1 X0.111Y0.1
G1 X-2.5
G1 X-15.191S200
G1 X-107.95S0
G1 X-15.199S200
G1 X-2.5S0
G1 X-0.113Y0.1
G1 X2.5
G1 X15.166S200
G1 X108.242S0
G1 X15.156S200
G1 X2.5S0
G1 X0.112Y0.1
G1 X-2.5
G1 X-15.123S200
G1 X-108.532S0
G1 X-15.132S200
G1 X-2.5S0
G1 X-0.11Y0.1
G1 X2.5
G1 X15.101S200
G1 X108.814S0
G1 X15.093S200
G1 X2.5S0
G1 X0.111Y0.1
G1 X-2.5
G1 X-15.065S200
G1 X-109.092S0
G1 X-15.072S200
G1 X-2.5S0
G1 X-0.109Y0.1
G1 X2.5
G1 X15.042S200
G1 X109.37S0
G1 X15.038S200
G1 X2.5S0
G1 X0.111Y0.1
G1 X-2.5
G1 X-15.01S200
G1 X-109.648S0
G1 X-15.013S200
G1 X-2.5S0
G1 X-0.11Y0.1
G1 X2.5
G1 X14.984S200
G1 X109.926S0
G1 X14.982S200
G1 X2.5S0
G1 X0.112Y0.1
G1 X-2.5
G1 X-14.954S200
G1 X-110.205S0
G1 X-14.954S200
G1 X-2.5S0
G1 X-0.11Y0.1
G1 X2.5
G1 X14.924S200
G1 X110.484S0
G1 X14.926S200
G1 X2.5S0
G1 X0.111Y0.1
G1 X-2.5
G1 X-14.898S200
G1 X-110.762S0
G1 X-14.895S200
G1 X-2.499S0
G1 X-0.11Y0.1
G1 X2.5
G1 X14.865S200
G1 X111.04S0
G1 X14.867S200
G1 X2.5S0
G1 X0.108Y0.1
G1 X-2.5
G1 X-14.836S200
G1 X-111.318S0
G1 X-14.836S200
G1 X-2.5S0
G1 X-0.109Y0.1
G1 X2.5
G1 X14.806S200
G1 X111.596S0
G1 X14.804S200
G1 X2.5S0
G1 X0.108Y0.1
G1 X-2.5
G1 X-14.775S200
G1 X-111.87S0
G1 X-14.776S200
G1 X-2.5S0
G1 X-0.106Y0.1
G1 X2.5
G1 X14.749S200
G1 X112.136S0
G1 X14.75S200
G1 X2.5S0
G1 X0.108Y0.1
G1 X-2.5
G1 X-14.724S200
G1 X-112.404S0
G1 X-14.721S200
G1 X-2.5S0
G1 X-0.106Y0.1
G1 X2.5
G1 X14.694S200
G1 X112.67S0
G1 X14.699S200
G1 X2.5S0
G1 X0.106Y0.1
G1 X-2.5
G1 X-14.672S200
G1 X-112.936S0
G1 X-14.667S200
G1 X-2.5S0
G1 X-0.106Y0.1
G1 X2.5
G1 X14.64S200
G1 X113.202S0
G1 X14.645S200
G1 X2.5S0
G1 X0.105Y0.1
G1 X-2.5
G1 X-14.616S200
G1 X-113.469S0
G1 X-14.613S200
G1 X-2.5S0
G1 X-0.106Y0.1
G1 X2.5
G1 X14.585S200
G1 X113.736S0
G1 X14.589S200
G1 X2.5S0
G1 X0.105Y0.1
G1 X-2.5
G1 X-14.561S200
G1 X-114.002S0
G1 X-14.558S200
G1 X-2.5S0
G1 X-0.105Y0.1
G1 X2.5
G1 X14.53S200
G1 X114.268S0
G1 X14.534S200
G1 X2.5S0
G1 X0.105Y0.1
G1 X-2.5
G1 X-14.506S200
G1 X-114.534S0
G1 X-14.503S200
G1 X-2.5S0
G1 X-0.106Y0.1
G1 X2.5
G1 X14.475S200
G1 X114.802S0
G1 X14.478S200
G1 X2.5S0
G1 X0.103Y0.1
G1 X-2.5
G1 X-143.962S200
G1 X-2.5S0
G1 X-0.102Y0.1
G1 X2.5
G1 X144.167S200
G1 X2.5S0
G1 X0.102Y0.1
G1 X-2.5
G1 X-144.371S200
G1 X-2.5S0
G1 X-0.102Y0.1
G1 X2.5
G1 X144.576S200
G1 X2.5S0
G1 X0.103Y0.1
G1 X-2.5
G1 X-144.781S200
G1 X-2.5S0
G1 X-0.103Y0.1
G1 X2.5
G1 X144.986S200
G1 X2.5S0
G1 X0.103Y0.1
G1 X-2.5
G1 X-145.191S200
G1 X-2.5S0
G1 X-0.102Y0.1
G1 X2.5
G1 X145.396S200
G1 X2.5S0
G1 X0.102Y0.1
G1 X-2.5
G1 X-145.6S200
G1 X-2.5S0
G1 X-0.102Y0.1
G1 X2.5
G1 X145.805S200
G1 X2.5S0
G1 X0.103Y0.1
G1 X-2.5
G1 X-146.011S200
G1 X-2.5S0
G1 X-0.102Y0.1
G1 X2.5
G1 X146.214S200
G1 X2.5S0
G1 X0.099Y0.1
G1 X-2.5
G1 X-146.415S200
G1 X-2.5S0
G1 X-0.1Y0.1
G1 X2.5
G1 X146.615S200
G1 X2.5S0
G1 X0.099Y0.1
G1 X-2.5
G1 X-146.813S200
G1 X-2.5S0
G1 X-0.098Y0.1
G1 X2.5
G1 X147.011S200
G1 X2.5S0
G1 X0.099Y0.1
G1 X-2.5
G1 X-147.209S200
G1 X-2.5S0
G1 X-0.098Y0.1
G1 X2.5
G1 X147.407S200
G1 X2.5S0
G1 X0.099Y0.1
G1 X-2.5
G1 X-147.604S200
G1 X-2.5S0
G1 X-0.099Y0.1
G1 X2.5
G1 X147.803S200
G1 X2.5S0
G1 X0.099Y0.1
G1 X-2.5
G1 X-148S200
G1 X-2.5S0
G1 X-0.099Y0.1
G1 X2.5
G1 X148.199S200
G1 X2.5S0
G1 X0.099Y0.1
G1 X-2.5
G1 X-148.396S200
G1 X-2.5S0
G1 X-0.098Y0.1
G1 X2.5
G1 X148.591S200
G1 X2.5S0
G1 X0.096Y0.1
G1 X-2.5
G1 X-148.786S200
G1 X-2.5S0
G1 X-0.098Y0.1
G1 X2.5
G1 X148.98S200
G1 X2.5S0
G1 X0.097Y0.1
G1 X-2.5
G1 X-149.176S200
G1 X-2.5S0
G1 X-0.095Y0.1
G1 X2.5
G1 X149.367S200
G1 X2.5S0
G1 X0.097Y0.1
G1 X-2.5
G1 X-149.559S200
G1 X-2.5S0
G1 X-0.095Y0.1
G1 X2.5
G1 X149.75S200
G1 X2.5S0
G1 X0.096Y0.1
G1 X-2.5
G1 X-149.941S200
G1 X-2.5S0
G1 X-0.094Y0.1
G1 X2.5
G1 X150.132S200
G1 X2.5S0
G1 X0.096Y0.1
G1 X-2.5
G1 X-150.323S200
G1 X-2.5S0
G1 X-0.095Y0.1
G1 X2.5
G1 X150.515S200
G1 X2.5S0
G1 X0.095Y0.1
G1 X-2.5
G1 X-150.705S200
G1 X-2.5S0
G1 X-0.095Y0.1
G1 X2.5
G1 X150.893S200
G1 X2.5S0
G1 X0.094Y0.1
G1 X-2.5
G1 X-151.082S200
G1 X-2.5S0
G1 X-0.095Y0.1
G1 X2.5
G1 X151.27S200
G1 X2.5S0
G1 X0.093Y0.1
G1 X-2.5
G1 X-151.458S200
G1 X-2.5S0
G1 X-0.095Y0.1
G1 X2.5
G1 X151.647S200
G1 X2.5S0
G1 X0.093Y0.1
G1 X-2.5
G1 X-151.835S200
G1 X-2.5S0
G1 X-0.095Y0.1
G1 X2.5
G1 X152.023S200
G1 X2.5S0
G1 X0.093Y0.1
G1 X-2.5
G1 X-152.212S200
G1 X-2.5S0
G1 X-0.093Y0.1
G1 X2.5
G1 X152.398S200
G1 X2.5S0
G1 X0.094Y0.1
G1 X-2.5
G1 X-152.583S200
G1 X-2.5S0
G1 X-0.09Y0.1
G1 X2.5
G1 X152.766S200
G1 X2.5S0
G1 X0.092Y0.1
G1 X-2.5
G1 X-152.949S200
G1 X-2.5S0
G1 X-0.091Y0.1
G1 X2.5
G1 X153.13S200
G1 X2.5S0
G1 X0.091Y0.1
G1 X-2.5
G1 X-153.312S200
G1 X-2.5S0
G1 X-0.091Y0.1
G1 X2.5
G1 X153.493S200
G1 X2.5S0
G1 X0.091Y0.1
G1 X-2.5
G1 X-153.674S200
G1 X-2.5S0
G1 X-0.091Y0.1
G1 X2.5
G1 X153.855S200
G1 X2.5S0
G1 X0.091Y0.1
G1 X-2.5
G1 X-154.037S200
G1 X-2.5S0
G1 X-0.091Y0.1
G1 X2.5
G1 X154.218S200
G1 X2.5S0
G1 X0.09Y0.1
G1 X-2.5
G1 X-154.399S200
G1 X-2.5S0
G1 X-0.091Y0.1
G1 X2.5
G1 X154.581S200
G1 X2.5S0
G1 X0.09Y0.1
G1 X-2.5
G1 X-49.041S200
G1 X-0.009S0
G1 X-3.174S200
G1 X-0.113S0
G1 X-60.851S200
G1 X-0.302S0
G1 X-41.271S200
G1 X-2.5S0
G1 X-0.091Y0.1
G1 X2.5
G1 X9.304S200
G1 X1.428S0
G1 X27.038S200
G1 X0.418S0
G1 X3.174S200
G1 X0.961S0
G1 X59.547S200
G1 X0.758S0
G1 X3.174S200
G1 X0.65S0
G1 X48.491S200
G1 X2.5S0
G1 X0.088Y0.1
G1 X-2.5
G1 X-48.099S200
G1 X-1.13S0
G1 X-3.174S200
G1 X-1.243S0
G1 X-58.545S200
G1 X-1.478S0
G1 X-3.174S200
G1 X-0.906S0
G1 X-25.578S200
G1 X-3.393S0
G1 X-8.402S200
G1 X-2.5S0
G1 X-0.091Y0.1
G1 X2.5
G1 X7.986S200
G1 X4.475S0
G1 X24.582S200
G1 X1.327S0
G1 X3.174S200
G1 X1.877S0
G1 X57.744S200
G1 X1.645S0
G1 X3.174S200
G1 X1.549S0
G1 X47.768S200
G1 X2.5S0
G1 X0.088Y0.1
G1 X-2.5
G1 X-47.485S200
G1 X-1.92S0
G1 X-3.174S200
G1 X-2.02S0
G1 X-56.993S200
G1 X-2.253S0
G1 X-3.174S200
G1 X-1.677S0
G1 X-23.789S200
G1 X-5.355S0
G1 X-7.636S200
G1 X-2.5S0
G1 X-0.087Y0.1
G1 X2.5
G1 X7.394S200
G1 X6.067S0
G1 X23.08S200
G1 X2.003S0
G1 X3.174S200
G1 X2.573S0
G1 X56.366S200
G1 X2.327S0
G1 X3.174S200
G1 X2.244S0
G1 X47.248S200
G1 X2.5S0
G1 X0.088Y0.1
G1 X-2.5
G1 X-47.032S200
G1 X-2.548S0
G1 X-3.174S200
G1 X-2.633S0
G1 X-55.746S200
G1 X-2.887S0
G1 X-3.174S200
G1 X-2.294S0
G1 X-22.474S200
G1 X-6.709S0
G1 X-7.154S200
G1 X-2.5S0
G1 X-0.087Y0.1
G1 X2.5
G1 X6.999S200
G1 X7.245S0
G1 X21.902S200
G1 X2.572S0
G1 X3.174S200
G1 X3.153S0
G1 X13.084S200
G1 X13.167S0
G1 X28.965S200
G1 X2.897S0
G1 X3.174S200
G1 X2.827S0
G1 X13.36S200
G1 X11.349S0
G1 X13.495S200
G1 X1.938S0
G1 X6.699S200
G1 X2.5S0
G1 X0.087Y0.1
G1 X-2.5
G1 X-6.786S200
G1 X-2.015S0
G1 X-13.418S200
G1 X-11.349S0
G1 X-13.103S200
G1 X-3.084S0
G1 X-3.174S200
G1 X-3.154S0
G1 X-25.061S200
G1 X-0.473S0
G1 X-3.174S200
G1 X-13.167S0
G1 X-12.818S200
G1 X-3.419S0
G1 X-3.174S200
G1 X-2.821S0
G1 X-21.395S200
G1 X-7.745S0
G1 X-6.844S200
G1 X-2.5S0
G1 X-0.086Y0.1
G1 X2.5
G1 X6.692S200
G1 X8.231S0
G1 X20.899S200
G1 X3.069S0
G1 X3.174S200
G1 X3.666S0
G1 X12.571S200
G1 X13.167S0
G1 X3.174S200
G1 X1.209S0
G1 X24.081S200
G1 X3.398S0
G1 X3.174S200
G1 X3.341S0
G1 X12.846S200
G1 X11.349S0
G1 X13.342S200
G1 X2.091S0
G1 X6.874S200
G1 X2.5S0
G1 X0.087Y0.1
G1 X-2.5
G1 X-6.961S200
G1 X-2.167S0
G1 X-13.266S200
G1 X-11.349S0
G1 X-12.624S200
G1 X-3.563S0
G1 X-3.174S200
G1 X-3.618S0
G1 X-23.286S200
G1 X-1.784S0
G1 X-3.174S200
G1 X-13.167S0
G1 X-12.344S200
G1 X-3.893S0
G1 X-3.174S200
G1 X-3.289S0
G1 X-20.462S200
G1 X-8.634S0
G1 X-6.593S200
G1 X-2.5S0
G1 X-0.087Y0.1
G1 X2.5
G1 X6.493S200
G1 X9.038S0
G1 X20.029S200
G1 X3.505S0
G1 X3.174S200
G1 X4.119S0
G1 X12.118S200
G1 X13.167S0
G1 X3.174S200
G1 X2.243S0
G1 X22.606S200
G1 X3.839S0
G1 X3.174S200
G1 X3.785S0
G1 X12.402S200
G1 X11.349S0
G1 X13.189S200
G1 X2.244S0
G1 X7.049S200
G1 X2.5S0
G1 X0.088Y0.1
G1 X-2.5
G1 X-7.137S200
G1 X-2.32S0
G1 X-13.113S200
G1 X-11.349S0
G1 X-12.182S200
G1 X-4.005S0
G1 X-3.174S200
G1 X-4.046S0
G1 X-22.013S200
G1 X-2.629S0
G1 X-3.174S200
G1 X-13.167S0
G1 X-11.904S200
G1 X-4.333S0
G1 X-3.174S200
G1 X-3.719S0
G1 X-19.625S200
G1 X-9.414S0
G1 X-6.394S200
G1 X-2.5S0
G1 X-0.087Y0.1
G1 X2.5
G1 X6.313S200
G1 X9.764S0
G1 X19.253S200
G1 X3.909S0
G1 X3.174S200
G1 X4.53S0
G1 X11.707S200
G1 X13.167S0
G1 X3.174S200
G1 X2.979S0
G1 X21.47S200
G1 X4.239S0
G1 X3.174S200
G1 X4.199S0
G1 X11.988S200
G1 X11.349S0
G1 X13.037S200
G1 X2.396S0
G1 X7.224S200
G1 X2.5S0
G1 X0.086Y0.1
G1 X-2.5
G1 X-7.31S200
G1 X-2.473S0
G1 X-12.96S200
G1 X-11.349S0
G1 X-11.793S200
G1 X-4.394S0
G1 X-3.174S200
G1 X-4.432S0
G1 X-20.98S200
G1 X-3.276S0
G1 X-3.174S200
G1 X-13.167S0
G1 X-11.511S200
G1 X-4.726S0
G1 X-3.174S200
G1 X-4.1S0
G1 X-18.879S200
G1 X-10.095S0
G1 X-6.252S200
G1 X-2.5S0
G1 X-0.086Y0.1
G1 X2.5
G1 X6.19S200
G1 X10.401S0
G1 X18.531S200
G1 X4.29S0
G1 X3.174S200
G1 X4.923S0
G1 X11.314S200
G1 X13.167S0
G1 X3.174S200
G1 X3.557S0
G1 X20.511S200
G1 X4.62S0
G1 X3.174S200
G1 X4.589S0
G1 X11.598S200
G1 X11.349S0
G1 X12.884S200
G1 X2.549S0
G1 X7.395S200
G1 X2.5S0
G1 X0.085Y0.1
G1 X-2.5
G1 X-7.48S200
G1 X-2.625S0
G1 X-12.808S200
G1 X-11.349S0
G1 X-11.421S200
G1 X-4.766S0
G1 X-3.174S200
G1 X-4.79S0
G1 X-20.073S200
G1 X-3.825S0
G1 X-3.174S200
G1 X-13.167S0
G1 X-11.14S200
G1 X-4.924S0
G1 X-3.347S200
G1 X-4.46S0
G1 X-18.203S200
G1 X-10.708S0
G1 X-6.128S200
G1 X-2.5S0
G1 X-0.087Y0.1
G1 X2.5
G1 X6.074S200
G1 X3.942S0
G1 X1.36S200
G1 X5.706S0
G1 X17.874S200
G1 X4.63S0
G1 X3.848S200
G1 X4.596S0
G1 X10.967S200
G1 X13.167S0
G1 X3.174S200
G1 X4.067S0
G1 X19.661S200
G1 X4.708S0
G1 X3.739S200
G1 X4.626S0
G1 X11.248S200
G1 X11.349S0
G1 X12.731S200
G1 X2.702S0
G1 X7.565S200
G1 X2.5S0
G1 X0.085Y0.1
G1 X-2.5
G1 X-7.65S200
G1 X-2.778S0
G1 X-12.655S200
G1 X-11.349S0
G1 X-11.075S200
G1 X-4.385S0
G1 X-4.554S200
G1 X-4.478S0
G1 X-19.249S200
G1 X-4.308S0
G1 X-3.174S200
G1 X-13.167S0
G1 X-10.793S200
G1 X-4.386S0
G1 X-4.531S200
G1 X-4.5S0
G1 X-17.568S200
G1 X-5.213S0
G1 X-2.671S200
G1 X-3.381S0
G1 X-6.041S200
G1 X-2.5S0
G1 X-0.087Y0.1
G1 X2.5
G1 X6.008S200
G1 X3.083S0
G1 X3.493S200
G1 X4.947S0
G1 X17.272S200
G1 X4.329S0
G1 X5.182S200
G1 X4.234S0
G1 X10.623S200
G1 X13.167S0
G1 X3.174S200
G1 X4.531S0
G1 X18.868S200
G1 X4.349S0
G1 X5.14S200
G1 X4.256S0
G1 X10.905S200
G1 X11.349S0
G1 X12.578S200
G1 X2.855S0
G1 X7.735S200
G1 X2.5S0
G1 X0.084Y0.1
G1 X-2.5
G1 X-7.819S200
G1 X-2.931S0
G1 X-12.502S200
G1 X-11.349S0
G1 X-10.754S200
G1 X-4.129S0
G1 X-5.705S200
G1 X-4.209S0
G1 X-18.511S200
G1 X-4.741S0
G1 X-3.174S200
G1 X-13.167S0
G1 X-10.472S200
G1 X-4.109S0
G1 X-5.713S200
G1 X-4.221S0
G1 X-16.988S200
G1 X-4.803S0
G1 X-4.104S200
G1 X-2.873S0
G1 X-5.975S200
G1 X-2.5S0
G1 X-0.084Y0.1
G1 X2.5
G1 X5.939S200
G1 X2.728S0
G1 X4.637S200
G1 X4.659S0
G1 X16.716S200
G1 X4.114S0
G1 X6.211S200
G1 X4.018S0
G1 X10.32S200
G1 X13.167S0
G1 X3.174S200
G1 X4.95S0
G1 X18.154S200
G1 X4.126S0
G1 X6.204S200
G1 X4.012S0
G1 X10.603S200
G1 X11.349S0
G1 X12.426S200
G1 X3.007S0
G1 X7.904S200
G1 X2.5S0
G1 X0.085Y0.1
G1 X-2.5
G1 X-7.989S200
G1 X-3.084S0
G1 X-13.196S200
G1 X-9.899S0
G1 X-11.054S200
G1 X-3.959S0
G1 X-6.628S200
G1 X-4.054S0
G1 X-17.811S200
G1 X-5.146S0
G1 X-5.881S200
G1 X-6.951S0
G1 X-13.678S200
G1 X-3.938S0
G1 X-6.653S200
G1 X-4.05S0
G1 X-16.45S200
G1 X-4.581S0
G1 X-5.066S200
G1 X-2.609S0
G1 X-5.909S200
G1 X-2.5S0
G1 X-0.083Y0.1
G1 X2.5
G1 X5.893S200
G1 X2.501S0
G1 X5.47S200
G1 X4.504S0
G1 X16.182S200
G1 X3.997S0
G1 X7.052S200
G1 X3.891S0
G1 X13.941S200
G1 X6.064S0
G1 X6.354S200
G1 X5.329S0
G1 X17.481S200
G1 X3.984S0
G1 X7.049S200
G1 X3.906S0
G1 X11.453S200
G1 X8.664S0
G1 X13.805S200
G1 X3.16S0
G1 X8.074S200
G1 X2.5S0
G1 X0.085Y0.1
G1 X-2.5
G1 X-8.159S200
G1 X-3.236S0
G1 X-14.163S200
G1 X-7.853S0
G1 X-11.679S200
G1 X-3.853S0
G1 X-7.428S200
G1 X-3.95S0
G1 X-17.157S200
G1 X-5.512S0
G1 X-6.619S200
G1 X-5.581S0
G1 X-14.008S200
G1 X-3.845S0
G1 X-7.449S200
G1 X-3.937S0
G1 X-15.928S200
G1 X-4.449S0
G1 X-5.827S200
G1 X-2.411S0
G1 X-5.878S200
G1 X-2.5S0
G1 X-0.083Y0.1
G1 X2.5
G1 X5.863S200
G1 X2.343S0
G1 X6.142S200
G1 X4.404S0
G1 X15.697S200
G1 X3.899S0
G1 X7.785S200
G1 X3.808S0
G1 X14.029S200
G1 X5.24S0
G1 X7.073S200
G1 X5.423S0
G1 X16.851S200
G1 X3.902S0
G1 X7.779S200
G1 X3.811S0
G1 X11.828S200
G1 X7.23S0
G1 X14.426S200
G1 X3.313S0
G1 X8.244S200
G1 X2.5S0
G1 X0.084Y0.1
G1 X-2.5
G1 X-8.328S200
G1 X-3.389S0
G1 X-14.615S200
G1 X-6.728S0
G1 X-11.935S200
G1 X-3.783S0
G1 X-8.112S200
G1 X-3.854S0
G1 X-16.563S200
G1 X-5.222S0
G1 X-7.547S200
G1 X-5.033S0
G1 X-13.993S200
G1 X-3.768S0
G1 X-8.121S200
G1 X-3.862S0
G1 X-15.465S200
G1 X-4.358S0
G1 X-6.459S200
G1 X-2.274S0
G1 X-5.848S200
G1 X-2.5S0
G1 X-0.083Y0.1
G1 X2.5
G1 X5.833S200
G1 X2.234S0
G1 X6.727S200
G1 X4.331S0
G1 X15.235S200
G1 X3.825S0
G1 X8.44S200
G1 X3.743S0
G1 X13.951S200
G1 X4.842S0
G1 X7.987S200
G1 X5.046S0
G1 X16.274S200
G1 X3.83S0
G1 X8.422S200
G1 X3.756S0
G1 X12.016S200
G1 X6.287S0
G1 X14.768S200
G1 X3.465S0
G1 X8.41S200
G1 X2.5S0
G1 X0.082Y0.1
G1 X-2.5
G1 X-8.492S200
G1 X-3.542S0
G1 X-14.89S200
G1 X-5.91S0
G1 X-12.063S200
G1 X-3.73S0
G1 X-8.723S200
G1 X-3.813S0
G1 X-15.986S200
G1 X-4.944S0
G1 X-8.321S200
G1 X-4.716S0
G1 X-13.875S200
G1 X-3.725S0
G1 X-8.733S200
G1 X-3.808S0
G1 X-15.013S200
G1 X-4.309S0
G1 X-6.98S200
G1 X-2.181S0
G1 X-5.833S200
G1 X-2.5S0
G1 X-0.083Y0.1
G1 X2.5
G1 X5.835S200
G1 X2.127S0
G1 X7.232S200
G1 X4.282S0
G1 X14.795S200
G1 X3.798S0
G1 X9.015S200
G1 X3.712S0
G1 X13.798S200
G1 X4.6S0
G1 X8.646S200
G1 X4.831S0
G1 X15.709S200
G1 X3.797S0
G1 X9.016S200
G1 X3.711S0
G1 X12.097S200
G1 X5.568S0
G1 X14.991S200
G1 X3.618S0
G1 X8.574S200
G1 X2.5S0
G1 X0.082Y0.1
G1 X-2.5
G1 X-8.656S200
G1 X-3.694S0
G1 X-15.068S200
G1 X-5.264S0
G1 X-12.119S200
G1 X-3.713S0
G1 X-9.286S200
G1 X-3.771S0
G1 X-15.45S200
G1 X-4.71S0
G1 X-8.964S200
G1 X-4.51S0
G1 X-13.704S200
G1 X-3.714S0
G1 X-9.28S200
G1 X-3.776S0
G1 X-14.59S200
G1 X-4.256S0
G1 X-7.459S200
G1 X-2.095S0
G1 X-5.838S200
G1 X-2.5S0
G1 X-0.083Y0.1
G1 X2.5
G1 X5.84S200
G1 X2.064S0
G1 X7.664S200
G1 X4.253S0
G1 X14.389S200
G1 X3.75S0
G1 X9.545S200
G1 X3.699S0
G1 X13.618S200
G1 X4.451S0
G1 X9.201S200
G1 X4.647S0
G1 X15.198S200
G1 X3.755S0
G1 X9.54S200
G1 X3.698S0
G1 X12.137S200
G1 X4.982S0
G1 X15.142S200
G1 X3.771S0
G1 X8.739S200
G1 X2.5S0
G1 X0.082Y0.1
G1 X-2.5
G1 X-8.821S200
G1 X-3.847S0
G1 X-15.183S200
G1 X-4.734S0
G1 X-12.154S200
G1 X-3.685S0
G1 X-9.787S200
G1 X-3.746S0
G1 X-14.944S200
G1 X-4.588S0
G1 X-9.434S200
G1 X-4.393S0
G1 X-13.531S200
G1 X-3.685S0
G1 X-9.791S200
G1 X-3.742S0
G1 X-14.199S200
G1 X-4.239S0
G1 X-7.87S200
G1 X-2.033S0
G1 X-5.842S200
G1 X-2.5S0
G1 X-0.083Y0.1
G1 X2.5
G1 X5.847S200
G1 X2.015S0
G1 X8.059S200
G1 X4.223S0
G1 X14.011S200
G1 X3.736S0
G1 X10.023S200
G1 X3.683S0
G1 X13.429S200
G1 X4.355S0
G1 X9.664S200
G1 X4.516S0
G1 X14.703S200
G1 X3.736S0
G1 X10.023S200
G1 X3.682S0
G1 X12.154S200
G1 X4.503S0
G1 X15.225S200
G1 X3.923S0
G1 X8.903S200
G1 X2.5S0
G1 X0.082Y0.1
G1 X-2.5
G1 X-8.985S200
G1 X-4S0
G1 X-15.258S200
G1 X-4.287S0
G1 X-12.146S200
G1 X-3.69S0
G1 X-10.249S200
G1 X-3.727S0
G1 X-14.466S200
G1 X-4.44S0
G1 X-9.875S200
G1 X-4.338S0
G1 X-13.323S200
G1 X-3.69S0
G1 X-10.247S200
G1 X-3.729S0
G1 X-13.824S200
G1 X-4.208S0
G1 X-8.245S200
G1 X-1.986S0
G1 X-5.865S200
G1 X-2.5S0
G1 X-0.083Y0.1
G1 X2.5
G1 X5.883S200
G1 X1.956S0
G1 X8.414S200
G1 X4.211S0
G1 X13.636S200
G1 X3.723S0
G1 X10.47S200
G1 X3.697S0
G1 X13.218S200
G1 X4.321S0
G1 X10.051S200
G1 X4.399S0
G1 X14.23S200
G1 X3.722S0
G1 X10.471S200
G1 X3.696S0
G1 X12.139S200
G1 X4.091S0
G1 X15.272S200
G1 X4.076S0
G1 X9.067S200
G1 X2.5S0
G1 X0.082Y0.1
G1 X-2.5
G1 X-9.149S200
G1 X-4.152S0
G1 X-15.286S200
G1 X-3.908S0
G1 X-12.118S200
G1 X-3.704S0
G1 X-10.679S200
G1 X-3.725S0
G1 X-13.999S200
G1 X-4.363S0
G1 X-10.222S200
G1 X-4.308S0
G1 X-13.108S200
G1 X-3.705S0
G1 X-10.681S200
G1 X-3.722S0
G1 X-13.461S200
G1 X-4.208S0
G1 X-8.571S200
G1 X-1.938S0
G1 X-5.901S200
G1 X-2.5S0
G1 X-0.083Y0.1
G1 X2.5
G1 X5.919S200
G1 X1.925S0
G1 X8.723S200
G1 X4.2S0
G1 X13.299S200
G1 X3.717S0
G1 X10.883S200
G1 X3.705S0
G1 X13.007S200
G1 X4.306S0
G1 X10.385S200
G1 X4.321S0
G1 X13.784S200
G1 X3.719S0
G1 X10.882S200
G1 X3.704S0
G1 X12.102S200
G1 X3.734S0
G1 X15.298S200
G1 X4.229S0
G1 X9.231S200
G1 X2.5S0
G1 X0.082Y0.1
G1 X-2.5
G1 X-9.313S200
G1 X-4.305S0
G1 X-15.291S200
G1 X-3.579S0
G1 X-12.09S200
G1 X-3.713S0
G1 X-11.073S200
G1 X-3.713S0
G1 X-13.576S200
G1 X-4.271S0
G1 X-10.547S200
G1 X-4.306S0
G1 X-12.909S200
G1 X-3.713S0
G1 X-11.074S200
G1 X-3.713S0
G1 X-13.136S200
G1 X-4.192S0
G1 X-8.875S200
G1 X-1.912S0
G1 X-5.936S200
G1 X-2.5S0
G1 X-0.08Y0.1
G1 X2.5
G1 X5.953S200
G1 X1.902S0
G1 X9.015S200
G1 X4.19S0
G1 X12.975S200
G1 X3.709S0
G1 X11.263S200
G1 X3.723S0
G1 X12.81S200
G1 X4.306S0
G1 X10.708S200
G1 X4.221S0
G1 X13.369S200
G1 X3.707S0
G1 X11.265S200
G1 X3.722S0
G1 X12.073S200
G1 X3.428S0
G1 X15.284S200
G1 X4.381S0
G1 X9.394S200
G1 X2.5S0
G1 X0.079Y0.1
G1 X-2.5
G1 X-9.473S200
G1 X-4.458S0
G1 X-15.277S200
G1 X-3.287S0
G1 X-12.045S200
G1 X-3.731S0
G1 X-11.454S200
G1 X-3.705S0
G1 X-13.16S200
G1 X-4.201S0
G1 X-10.84S200
G1 X-4.306S0
G1 X-12.711S200
G1 X-3.732S0
G1 X-11.454S200
G1 X-3.704S0
G1 X-12.815S200
G1 X-4.195S0
G1 X-9.136S200
G1 X-1.89S0
G1 X-5.982S200
G1 X-2.5S0
G1 X-0.079Y0.1
G1 X2.5
G1 X6.01S200
G1 X1.878S0
G1 X9.257S200
G1 X4.192S0
G1 X12.663S200
G1 X3.712S0
G1 X11.633S200
G1 X3.74S0
G1 X12.613S200
G1 X4.306S0
G1 X10.973S200
G1 X4.18S0
G1 X12.952S200
G1 X3.713S0
G1 X11.631S200
G1 X3.74S0
G1 X12.017S200
G1 X3.155S0
G1 X15.263S200
G1 X4.534S0
G1 X9.553S200
G1 X2.5S0
G1 X0.079Y0.1
G1 X-2.5
G1 X-9.632S200
G1 X-4.61S0
G1 X-15.24S200
G1 X-3.031S0
G1 X-11.989S200
G1 X-3.757S0
G1 X-11.8S200
G1 X-3.722S0
G1 X-12.755S200
G1 X-4.149S0
G1 X-11.105S200
G1 X-4.306S0
G1 X-12.514S200
G1 X-3.758S0
G1 X-11.801S200
G1 X-3.721S0
G1 X-12.511S200
G1 X-4.189S0
G1 X-9.378S200
G1 X-1.867S0
G1 X-6.039S200
G1 X-2.5S0
G1 X-0.079Y0.1
G1 X2.5
G1 X6.067S200
G1 X1.87S0
G1 X9.485S200
G1 X4.185S0
G1 X12.368S200
G1 X3.722S0
G1 X11.964S200
G1 X3.779S0
G1 X12.417S200
G1 X4.306S0
G1 X11.219S200
G1 X4.136S0
G1 X12.565S200
G1 X3.723S0
G1 X11.964S200
G1 X3.779S0
G1 X11.953S200
G1 X2.916S0
G1 X15.216S200
G1 X4.687S0
G1 X9.712S200
G1 X2.5S0
G1 X0.08Y0.1
G1 X-2.5
G1 X-9.792S200
G1 X-4.763S0
G1 X-15.193S200
G1 X-2.807S0
G1 X-11.923S200
G1 X-3.789S0
G1 X-12.128S200
G1 X-3.719S0
G1 X-12.38S200
G1 X-4.124S0
G1 X-11.332S200
G1 X-4.306S0
G1 X-12.331S200
G1 X-3.788S0
G1 X-12.128S200
G1 X-3.719S0
G1 X-12.228S200
G1 X-4.189S0
G1 X-9.584S200
G1 X-1.873S0
G1 X-6.097S200
G1 X-2.5S0
G1 X-0.079Y0.1
G1 X2.5
G1 X6.125S200
G1 X1.876S0
G1 X9.678S200
G1 X4.193S0
G1 X12.093S200
G1 X3.716S0
G1 X12.292S200
G1 X3.798S0
G1 X12.245S200
G1 X4.306S0
G1 X11.445S200
G1 X4.112S0
G1 X12.195S200
G1 X3.716S0
G1 X12.292S200
G1 X3.798S0
G1 X11.894S200
G1 X2.703S0
G1 X15.164S200
G1 X4.839S0
G1 X9.871S200
G1 X2.5S0
G1 X0.08Y0.1
G1 X-2.5
G1 X-9.951S200
G1 X-4.916S0
G1 X-15.126S200
G1 X-2.607S0
G1 X-11.866S200
G1 X-3.807S0
G1 X-12.449S200
G1 X-3.719S0
G1 X-12.013S200
G1 X-4.107S0
G1 X-11.548S200
G1 X-4.306S0
G1 X-12.159S200
G1 X-3.808S0
G1 X-12.448S200
G1 X-3.72S0
G1 X-11.963S200
G1 X-4.193S0
G1 X-9.764S200
G1 X-1.875S0
G1 X-6.165S200
G1 X-2.5S0
G1 X-0.08Y0.1
G1 X2.5
G1 X6.207S200
G1 X1.88S0
G1 X9.843S200
G1 X4.194S0
G1 X11.832S200
G1 X3.729S0
G1 X12.595S200
G1 X3.822S0
G1 X12.073S200
G1 X4.306S0
G1 X11.645S200
G1 X4.1S0
G1 X11.839S200
G1 X3.728S0
G1 X12.596S200
G1 X3.821S0
G1 X11.826S200
G1 X2.521S0
G1 X15.09S200
G1 X4.992S0
G1 X10.03S200
G1 X2.5S0
G1 X0.08Y0.1
G1 X-2.5
G1 X-10.11S200
G1 X-5.068S0
G1 X-15.053S200
G1 X-2.438S0
G1 X-11.784S200
G1 X-3.842S0
G1 X-12.736S200
G1 X-3.737S0
G1 X-11.664S200
G1 X-4.094S0
G1 X-11.742S200
G1 X-4.306S0
G1 X-11.987S200
G1 X-3.843S0
G1 X-12.736S200
G1 X-3.737S0
G1 X-11.701S200
G1 X-4.196S0
G1 X-9.922S200
G1 X-1.884S0
G1 X-6.248S200
G1 X-2.5S0
G1 X-0.079Y0.1
G1 X2.5
G1 X6.289S200
G1 X1.889S0
G1 X10.001S200
G1 X4.196S0
G1 X11.571S200
G1 X3.746S0
G1 X12.876S200
G1 X3.864S0
G1 X11.901S200
G1 X4.306S0
G1 X11.839S200
G1 X4.087S0
G1 X11.49S200
G1 X3.745S0
G1 X12.877S200
G1 X3.863S0
G1 X11.743S200
G1 X2.354S0
G1 X15.015S200
G1 X5.145S0
G1 X10.189S200
G1 X2.5S0
G1 X0.08Y0.1
G1 X-2.5
G1 X-10.269S200
G1 X-5.221S0
G1 X-14.967S200
G1 X-2.282S0
G1 X-11.701S200
G1 X-3.884S0
G1 X-13.011S200
G1 X-3.756S0
G1 X-11.32S200
G1 X-4.093S0
G1 X-11.923S200
G1 X-4.306S0
G1 X-11.815S200
G1 X-3.884S0
G1 X-13.011S200
G1 X-3.757S0
G1 X-11.451S200
G1 X-4.201S0
G1 X-10.056S200
G1 X-1.906S0
G1 X-6.332S200
G1 X-2.5S0
G1 X-0.079Y0.1
G1 X2.5
G1 X6.373S200
G1 X1.924S0
G1 X10.11S200
G1 X4.205S0
G1 X11.339S200
G1 X3.767S0
G1 X13.14S200
G1 X3.895S0
G1 X11.739S200
G1 X4.306S0
G1 X12.007S200
G1 X4.096S0
G1 X11.159S200
G1 X3.766S0
G1 X13.14S200
G1 X3.896S0
G1 X11.658S200
G1 X2.22S0
G1 X14.919S200
G1 X5.297S0
G1 X10.349S200
G1 X2.5S0
G1 X0.079Y0.1
G1 X-2.5
G1 X-10.428S200
G1 X-5.374S0
G1 X-14.871S200
G1 X-2.158S0
G1 X-11.617S200
G1 X-3.905S0
G1 X-13.269S200
G1 X-3.775S0
G1 X-11.005S200
G1 X-4.094S0
G1 X-12.09S200
G1 X-4.306S0
G1 X-11.664S200
G1 X-3.905S0
G1 X-13.269S200
G1 X-3.776S0
G1 X-11.227S200
G1 X-4.209S0
G1 X-10.164S200
G1 X-1.939S0
G1 X-6.418S200
G1 X-2.5S0
G1 X-0.08Y0.1
G1 X2.5
G1 X6.472S200
G1 X1.949S0
G1 X10.215S200
G1 X4.212S0
G1 X11.115S200
G1 X3.785S0
G1 X13.393S200
G1 X3.921S0
G1 X11.589S200
G1 X4.306S0
G1 X12.173S200
G1 X4.092S0
G1 X10.85S200
G1 X3.785S0
G1 X13.393S200
G1 X3.92S0
G1 X11.575S200
G1 X2.097S0
G1 X14.823S200
G1 X5.45S0
G1 X10.508S200
G1 X2.5S0
G1 X0.079Y0.1
G1 X-2.5
G1 X-10.587S200
G1 X-5.526S0
G1 X-14.772S200
G1 X-2.039S0
G1 X-11.533S200
G1 X-3.939S0
G1 X-13.512S200
G1 X-3.795S0
G1 X-10.696S200
G1 X-4.101S0
G1 X-12.245S200
G1 X-4.306S0
G1 X-11.515S200
G1 X-3.939S0
G1 X-13.511S200
G1 X-3.796S0
G1 X-11.004S200
G1 X-4.215S0
G1 X-10.257S200
G1 X-1.968S0
G1 X-6.525S200
G1 X-2.5S0
G1 X-0.08Y0.1
G1 X2.5
G1 X6.579S200
G1 X1.988S0
G1 X10.296S200
G1 X4.213S0
G1 X10.899S200
G1 X3.815S0
G1 X13.622S200
G1 X3.958S0
G1 X11.44S200
G1 X4.306S0
G1 X12.317S200
G1 X4.109S0
G1 X10.542S200
G1 X3.814S0
G1 X13.623S200
G1 X3.958S0
G1 X11.483S200
G1 X1.995S0
G1 X14.714S200
G1 X5.603S0
G1 X10.667S200
G1 X2.5S0
G1 X0.079Y0.1
G1 X-2.5
G1 X-10.746S200
G1 X-5.679S0
G1 X-14.656S200
G1 X-1.955S0
G1 X-11.43S200
G1 X-3.978S0
G1 X-13.733S200
G1 X-3.833S0
G1 X-10.389S200
G1 X-4.117S0
G1 X-12.388S200
G1 X-4.306S0
G1 X-11.365S200
G1 X-3.977S0
G1 X-13.733S200
G1 X-3.834S0
G1 X-10.795S200
G1 X-4.218S0
G1 X-10.327S200
G1 X-2.008S0
G1 X-6.63S200
G1 X-2.5S0
G1 X-0.076Y0.1
G1 X2.5
G1 X6.68S200
G1 X2.033S0
G1 X10.353S200
G1 X4.224S0
G1 X10.691S200
G1 X3.852S0
G1 X13.843S200
G1 X3.997S0
G1 X11.29S200
G1 X4.306S0
G1 X12.46S200
G1 X4.116S0
G1 X10.245S200
G1 X3.851S0
G1 X13.844S200
G1 X3.996S0
G1 X11.379S200
G1 X1.913S0
G1 X14.598S200
G1 X5.756S0
G1 X10.822S200
G1 X2.5S0
G1 X0.076Y0.1
G1 X-2.5
G1 X-10.898S200
G1 X-5.832S0
G1 X-14.541S200
G1 X-1.871S0
G1 X-11.328S200
G1 X-4.014S0
G1 X-13.955S200
G1 X-3.864S0
G1 X-10.105S200
G1 X-4.124S0
G1 X-12.524S200
G1 X-4.306S0
G1 X-11.217S200
G1 X-4.014S0
G1 X-13.954S200
G1 X-3.865S0
G1 X-10.592S200
G1 X-4.23S0
G1 X-10.372S200
G1 X-2.064S0
G1 X-6.731S200
G1 X-2.5S0
G1 X-0.076Y0.1
G1 X2.5
G1 X6.786S200
G1 X2.09S0
G1 X10.393S200
G1 X4.234S0
G1 X10.497S200
G1 X3.878S0
G1 X14.06S200
G1 X4.025S0
G1 X11.152S200
G1 X4.306S0
G1 X12.586S200
G1 X4.134S0
G1 X9.968S200
G1 X3.877S0
G1 X14.06S200
G1 X4.026S0
G1 X11.281S200
G1 X1.837S0
G1 X14.481S200
G1 X5.908S0
G1 X10.974S200
G1 X2.5S0
G1 X0.076Y0.1
G1 X-2.5
G1 X-11.05S200
G1 X-5.985S0
G1 X-14.415S200
G1 X-1.813S0
G1 X-11.229S200
G1 X-4.043S0
G1 X-14.155S200
G1 X-3.894S0
G1 X-9.832S200
G1 X-4.145S0
G1 X-12.647S200
G1 X-4.306S0
G1 X-11.087S200
G1 X-4.043S0
G1 X-14.154S200
G1 X-3.895S0
G1 X-10.41S200
G1 X-4.232S0
G1 X-10.402S200
G1 X-2.121S0
G1 X-6.847S200
G1 X-2.5S0
G1 X-0.076Y0.1
G1 X2.5
G1 X6.908S200
G1 X2.155S0
G1 X10.408S200
G1 X4.23S0
G1 X10.323S200
G1 X3.912S0
G1 X14.249S200
G1 X4.06S0
G1 X11.022S200
G1 X4.306S0
G1 X12.708S200
G1 X4.155S0
G1 X9.697S200
G1 X3.911S0
G1 X14.25S200
G1 X4.06S0
G1 X11.177S200
G1 X1.79S0
G1 X14.349S200
G1 X6.061S0
G1 X11.127S200
G1 X2.5S0
G1 X0.076Y0.1
G1 X-2.5
G1 X-11.203S200
G1 X-6.137S0
G1 X-14.284S200
G1 X-1.766S0
G1 X-11.125S200
G1 X-4.077S0
G1 X-14.345S200
G1 X-3.929S0
G1 X-9.568S200
G1 X-4.159S0
G1 X-12.768S200
G1 X-4.306S0
G1 X-10.957S200
G1 X-4.077S0
G1 X-14.344S200
G1 X-3.93S0
G1 X-10.235S200
G1 X-4.235S0
G1 X-10.398S200
G1 X-2.198S0
G1 X-6.968S200
G1 X-2.5S0
G1 X-0.076Y0.1
G1 X2.5
G1 X7.029S200
G1 X2.249S0
G1 X10.379S200
G1 X4.242S0
G1 X10.147S200
G1 X3.946S0
G1 X14.44S200
G1 X4.094S0
G1 X10.892S200
G1 X4.306S0
G1 X12.821S200
G1 X4.17S0
G1 X9.44S200
G1 X3.946S0
G1 X14.44S200
G1 X4.094S0
G1 X11.073S200
G1 X1.743S0
G1 X14.217S200
G1 X6.214S0
G1 X11.279S200
G1 X2.5S0
G1 X0.076Y0.1
G1 X-2.5
G1 X-11.355S200
G1 X-6.29S0
G1 X-14.152S200
G1 X-1.727S0
G1 X-11.013S200
G1 X-4.111S0
G1 X-14.534S200
G1 X-3.964S0
G1 X-9.313S200
G1 X-4.181S0
G1 X-12.873S200
G1 X-4.306S0
G1 X-10.827S200
G1 X-4.111S0
G1 X-14.533S200
G1 X-3.966S0
G1 X-10.059S200
G1 X-4.248S0
G1 X-10.344S200
G1 X-2.316S0
G1 X-7.09S200
G1 X-2.5S0
G1 X-0.076Y0.1
G1 X2.5
G1 X7.151S200
G1 X2.394S0
G1 X1.678S200
G1 X1.184S0
G1 X7.436S200
G1 X4.247S0
G1 X9.979S200
G1 X3.989S0
G1 X14.622S200
G1 X4.128S0
G1 X10.762S200
G1 X4.306S0
G1 X12.926S200
G1 X4.191S0
G1 X9.185S200
G1 X3.988S0
G1 X14.622S200
G1 X4.129S0
G1 X10.952S200
G1 X1.718S0
G1 X14.081S200
G1 X6.366S0
G1 X11.431S200
G1 X2.5S0
G1 X0.076Y0.1
G1 X-2.5
G1 X-11.507S200
G1 X-6.443S0
G1 X-14.007S200
G1 X-1.711S0
G1 X-10.891S200
G1 X-4.149S0
G1 X-14.707S200
G1 X-4.01S0
G1 X-9.059S200
G1 X-4.203S0
G1 X-12.978S200
G1 X-4.306S0
G1 X-10.697S200
G1 X-4.149S0
G1 X-14.706S200
G1 X-4.011S0
G1 X-9.9S200
G1 X-4.248S0
G1 X-7.179S200
G1 X-1.827S0
G1 X-1.219S200
G1 X-2.495S0
G1 X-7.215S200
G1 X-2.5S0
G1 X-0.076Y0.1
G1 X2.5
G1 X7.286S200
G1 X2.635S0
G1 X0.727S200
G1 X2.376S0
G1 X7.004S200
G1 X4.247S0
G1 X9.828S200
G1 X4.027S0
G1 X14.787S200
G1 X4.165S0
G1 X10.64S200
G1 X4.306S0
G1 X13.028S200
G1 X4.213S0
G1 X8.943S200
G1 X4.026S0
G1 X14.788S200
G1 X4.165S0
G1 X10.838S200
G1 X1.704S0
G1 X13.934S200
G1 X6.519S0
G1 X11.583S200
G1 X2.5S0
G1 X0.076Y0.1
G1 X-2.5
G1 X-11.659S200
G1 X-6.595S0
G1 X-13.861S200
G1 X-1.698S0
G1 X-10.785S200
G1 X-4.18S0
G1 X-14.87S200
G1 X-4.041S0
G1 X-8.832S200
G1 X-4.224S0
G1 X-13.072S200
G1 X-4.306S0
G1 X-10.584S200
G1 X-4.18S0
G1 X-14.869S200
G1 X-4.043S0
G1 X-9.755S200
G1 X-4.247S0
G1 X-6.865S200
G1 X-5.897S0
G1 X-7.358S200
G1 X-2.5S0
G1 X-0.075Y0.1
G1 X2.5
G1 X7.428S200
G1 X6.036S0
G1 X6.741S200
G1 X4.253S0
G1 X9.683S200
G1 X4.059S0
G1 X14.95S200
G1 X4.195S0
G1 X10.528S200
G1 X4.306S0
G1 X13.117S200
G1 X4.235S0
G1 X8.719S200
G1 X4.058S0
G1 X14.951S200
G1 X4.195S0
G1 X10.729S200
G1 X1.694S0
G1 X13.788S200
G1 X6.672S0
G1 X11.735S200
G1 X2.5S0
G1 X0.076Y0.1
G1 X-2.5
G1 X-11.811S200
G1 X-6.748S0
G1 X-13.715S200
G1 X-1.691S0
G1 X-10.673S200
G1 X-4.21S0
G1 X-15.028S200
G1 X-4.078S0
G1 X-8.608S200
G1 X-4.246S0
G1 X-13.161S200
G1 X-4.306S0
G1 X-10.471S200
G1 X-4.211S0
G1 X-15.027S200
G1 X-4.079S0
G1 X-9.615S200
G1 X-4.256S0
G1 X-6.629S200
G1 X-6.162S0
G1 X-7.499S200
G1 X-2.5S0
G1 X-0.076Y0.1
G1 X2.5
G1 X7.57S200
G1 X6.27S0
G1 X6.536S200
G1 X4.255S0
G1 X9.55S200
G1 X4.1S0
G1 X15.103S200
G1 X4.226S0
G1 X10.415S200
G1 X4.306S0
G1 X13.206S200
G1 X4.257S0
G1 X8.496S200
G1 X4.099S0
G1 X15.104S200
G1 X4.226S0
G1 X10.616S200
G1 X1.691S0
G1 X13.639S200
G1 X5.03S0
G1 X0.064S200
G1 X1.73S0
G1 X11.887S200
G1 X2.5S0
G1 X0.076Y0.1
G1 X-2.5
G1 X-11.963S200
G1 X-1.73S0
G1 X-0.141S200
G1 X-5.03S0
G1 X-13.562S200
G1 X-1.691S0
G1 X-10.56S200
G1 X-4.241S0
G1 X-15.179S200
G1 X-4.121S0
G1 X-8.385S200
G1 X-4.269S0
G1 X-13.249S200
G1 X-4.306S0
G1 X-10.359S200
G1 X-4.241S0
G1 X-15.178S200
G1 X-4.122S0
G1 X-9.484S200
G1 X-4.256S0
G1 X-6.445S200
G1 X-6.375S0
G1 X-7.641S200
G1 X-2.5S0
G1 X-0.076Y0.1
G1 X2.5
G1 X7.713S200
G1 X6.461S0
G1 X6.373S200
G1 X4.255S0
G1 X9.418S200
G1 X4.144S0
G1 X15.253S200
G1 X4.257S0
G1 X10.303S200
G1 X4.306S0
G1 X13.286S200
G1 X4.283S0
G1 X8.278S200
G1 X4.142S0
G1 X15.254S200
G1 X4.257S0
G1 X10.504S200
G1 X1.691S0
G1 X13.486S200
G1 X5.029S0
G1 X0.218S200
G1 X1.73S0
G1 X12.039S200
G1 X2.5S0
G1 X0.076Y0.1
G1 X-2.5
G1 X-12.115S200
G1 X-1.73S0
G1 X-0.295S200
G1 X-5.028S0
G1 X-13.41S200
G1 X-1.691S0
G1 X-10.448S200
G1 X-4.278S0
G1 X-15.323S200
G1 X-4.165S0
G1 X-8.173S200
G1 X-4.294S0
G1 X-13.323S200
G1 X-4.306S0
G1 X-10.246S200
G1 X-4.279S0
G1 X-15.322S200
G1 X-4.166S0
G1 X-9.352S200
G1 X-4.256S0
G1 X-6.3S200
G1 X-6.542S0
G1 X-7.789S200
G1 X-2.5S0
G1 X-0.072Y0.1
G1 X2.5
G1 X7.865S200
G1 X6.606S0
G1 X6.242S200
G1 X4.253S0
G1 X9.292S200
G1 X4.184S0
G1 X15.392S200
G1 X4.298S0
G1 X10.192S200
G1 X4.306S0
G1 X13.361S200
G1 X4.304S0
G1 X8.073S200
G1 X4.182S0
G1 X15.393S200
G1 X4.298S0
G1 X10.393S200
G1 X1.691S0
G1 X13.333S200
G1 X5.028S0
G1 X0.372S200
G1 X1.73S0
G1 X12.187S200
G1 X2.5S0
G1 X0.073Y0.1
G1 X-2.5
G1 X-12.26S200
G1 X-1.73S0
G1 X-0.448S200
G1 X-5.028S0
G1 X-13.257S200
G1 X-1.691S0
G1 X-10.345S200
G1 X-4.312S0
G1 X-15.457S200
G1 X-4.2S0
G1 X-7.976S200
G1 X-4.316S0
G1 X-13.398S200
G1 X-4.306S0
G1 X-10.144S200
G1 X-4.311S0
G1 X-15.457S200
G1 X-4.201S0
G1 X-9.242S200
G1 X-4.253S0
G1 X-6.178S200
G1 X-6.67S0
G1 X-7.94S200
G1 X-2.5S0
G1 X-0.073Y0.1
G1 X2.5
G1 X8.016S200
G1 X6.724S0
G1 X6.124S200
G1 X4.253S0
G1 X9.191S200
G1 X4.219S0
G1 X15.522S200
G1 X4.325S0
G1 X10.095S200
G1 X4.306S0
G1 X13.435S200
G1 X4.327S0
G1 X7.88S200
G1 X4.218S0
G1 X15.522S200
G1 X4.325S0
G1 X10.297S200
G1 X1.691S0
G1 X13.181S200
G1 X5.027S0
G1 X0.525S200
G1 X1.73S0
G1 X12.332S200
G1 X2.5S0
G1 X0.073Y0.1
G1 X-2.5
G1 X-12.405S200
G1 X-1.73S0
G1 X-0.602S200
G1 X-5.027S0
G1 X-13.104S200
G1 X-1.691S0
G1 X-10.248S200
G1 X-4.339S0
G1 X-15.586S200
G1 X-4.237S0
G1 X-7.784S200
G1 X-4.338S0
G1 X-13.472S200
G1 X-4.306S0
G1 X-10.047S200
G1 X-4.339S0
G1 X-15.585S200
G1 X-4.238S0
G1 X-9.14S200
G1 X-4.253S0
G1 X-6.072S200
G1 X-6.775S0
G1 X-8.092S200
G1 X-2.5S0
G1 X-0.073Y0.1
G1 X2.5
G1 X8.17S200
G1 X6.818S0
G1 X6.027S200
G1 X4.254S0
G1 X9.088S200
G1 X4.257S0
G1 X15.649S200
G1 X4.352S0
G1 X9.999S200
G1 X4.306S0
G1 X13.509S200
G1 X4.344S0
G1 X7.694S200
G1 X4.255S0
G1 X15.65S200
G1 X4.352S0
G1 X10.2S200
G1 X1.691S0
G1 X13.028S200
G1 X5.026S0
G1 X0.679S200
G1 X1.73S0
G1 X12.478S200
G1 X2.5S0
G1 X0.072Y0.1
G1 X-2.5
G1 X-12.55S200
G1 X-1.73S0
G1 X-0.755S200
G1 X-5.026S0
G1 X-12.952S200
G1 X-1.691S0
G1 X-10.152S200
G1 X-4.365S0
G1 X-15.714S200
G1 X-4.274S0
G1 X-7.605S200
G1 X-4.353S0
G1 X-13.541S200
G1 X-4.306S0
G1 X-9.951S200
G1 X-4.365S0
G1 X-15.714S200
G1 X-4.274S0
G1 X-9.038S200
G1 X-4.254S0
G1 X-5.988S200
G1 X-6.85S0
G1 X-8.252S200
G1 X-2.5S0
G1 X-0.073Y0.1
G1 X2.5
G1 X8.336S200
G1 X6.881S0
G1 X5.949S200
G1 X4.251S0
G1 X8.99S200
G1 X4.293S0
G1 X15.776S200
G1 X4.381S0
G1 X9.902S200
G1 X4.306S0
G1 X13.57S200
G1 X4.366S0
G1 X7.515S200
G1 X4.292S0
G1 X15.776S200
G1 X4.381S0
G1 X10.104S200
G1 X1.691S0
G1 X12.875S200
G1 X5.026S0
G1 X0.832S200
G1 X1.73S0
G1 X12.623S200
G1 X2.5S0
G1 X0.073Y0.1
G1 X-2.5
G1 X-12.696S200
G1 X-1.73S0
G1 X-0.909S200
G1 X-5.025S0
G1 X-12.799S200
G1 X-1.691S0
G1 X-10.055S200
G1 X-4.402S0
G1 X-15.831S200
G1 X-4.313S0
G1 X-7.426S200
G1 X-4.377S0
G1 X-13.6S200
G1 X-4.306S0
G1 X-9.854S200
G1 X-4.401S0
G1 X-15.831S200
G1 X-4.314S0
G1 X-8.942S200
G1 X-4.248S0
G1 X-5.921S200
G1 X-6.902S0
G1 X-8.418S200
G1 X-2.5S0
G1 X-0.073Y0.1
G1 X2.5
G1 X8.501S200
G1 X6.924S0
G1 X5.891S200
G1 X4.246S0
G1 X8.894S200
G1 X4.337S0
G1 X15.884S200
G1 X4.421S0
G1 X9.806S200
G1 X4.306S0
G1 X13.629S200
G1 X4.389S0
G1 X7.337S200
G1 X4.336S0
G1 X15.885S200
G1 X4.421S0
G1 X10.007S200
G1 X1.691S0
G1 X12.723S200
G1 X5.024S0
G1 X0.986S200
G1 X1.73S0
G1 X12.768S200
G1 X2.5S0
G1 X0.073Y0.1
G1 X-2.5
G1 X-12.841S200
G1 X-1.73S0
G1 X-1.062S200
G1 X-5.025S0
G1 X-12.646S200
G1 X-1.691S0
G1 X-9.96S200
G1 X-4.44S0
G1 X-15.938S200
G1 X-4.357S0
G1 X-7.249S200
G1 X-4.401S0
G1 X-13.659S200
G1 X-4.306S0
G1 X-9.758S200
G1 X-4.441S0
G1 X-15.937S200
G1 X-4.359S0
G1 X-8.847S200
G1 X-4.246S0
G1 X-5.865S200
G1 X-6.939S0
G1 X-8.584S200
G1 X-2.5S0
G1 X-0.073Y0.1
G1 X2.5
G1 X8.676S200
G1 X6.941S0
G1 X5.844S200
G1 X4.246S0
G1 X8.807S200
G1 X4.375S0
G1 X15.989S200
G1 X4.453S0
G1 X9.718S200
G1 X4.306S0
G1 X13.689S200
G1 X4.408S0
G1 X7.171S200
G1 X4.374S0
G1 X15.99S200
G1 X4.453S0
G1 X9.919S200
G1 X1.691S0
G1 X12.57S200
G1 X5.024S0
G1 X1.139S200
G1 X1.73S0
G1 X12.913S200
G1 X2.5S0
G1 X0.073Y0.1
G1 X-2.5
G1 X-12.986S200
G1 X-1.73S0
G1 X-1.216S200
G1 X-5.023S0
G1 X-12.494S200
G1 X-1.691S0
G1 X-9.878S200
G1 X-4.466S0
G1 X-16.043S200
G1 X-4.389S0
G1 X-7.095S200
G1 X-4.415S0
G1 X-13.718S200
G1 X-4.306S0
G1 X-9.677S200
G1 X-4.466S0
G1 X-16.042S200
G1 X-4.39S0
G1 X-8.767S200
G1 X-4.246S0
G1 X-5.822S200
G1 X-6.945S0
G1 X-8.766S200
G1 X-2.5S0
G1 X-0.073Y0.1
G1 X2.5
G1 X8.857S200
G1 X6.94S0
G1 X5.809S200
G1 X4.246S0
G1 X8.726S200
G1 X4.406S0
G1 X16.095S200
G1 X4.478S0
G1 X9.637S200
G1 X4.306S0
G1 X13.748S200
G1 X4.421S0
G1 X7.019S200
G1 X4.404S0
G1 X16.096S200
G1 X4.478S0
G1 X9.838S200
G1 X1.691S0
G1 X12.417S200
G1 X5.023S0
G1 X1.293S200
G1 X1.73S0
G1 X13.059S200
G1 X2.5S0
G1 X0.072Y0.1
G1 X-2.5
G1 X-13.131S200
G1 X-1.73S0
G1 X-1.369S200
G1 X-5.023S0
G1 X-12.341S200
G1 X-1.691S0
G1 X-9.797S200
G1 X-4.491S0
G1 X-16.148S200
G1 X-4.421S0
G1 X-6.943S200
G1 X-4.431S0
G1 X-13.773S200
G1 X-4.306S0
G1 X-9.596S200
G1 X-4.491S0
G1 X-16.147S200
G1 X-4.422S0
G1 X-8.686S200
G1 X-4.246S0
G1 X-5.797S200
G1 X-6.934S0
G1 X-8.947S200
G1 X-2.5S0
G1 X-0.073Y0.1
G1 X2.5
G1 X9.04S200
G1 X6.925S0
G1 X5.786S200
G1 X4.246S0
G1 X8.646S200
G1 X4.44S0
G1 X16.197S200
G1 X4.504S0
G1 X9.555S200
G1 X4.306S0
G1 X13.797S200
G1 X4.443S0
G1 X6.867S200
G1 X4.439S0
G1 X16.198S200
G1 X4.503S0
G1 X9.757S200
G1 X1.691S0
G1 X12.264S200
G1 X5.023S0
G1 X1.446S200
G1 X1.73S0
G1 X13.204S200
G1 X2.5S0
G1 X0.072Y0.1
G1 X-2.5
G1 X-13.276S200
G1 X-1.73S0
G1 X-1.523S200
G1 X-5.022S0
G1 X-12.188S200
G1 X-1.691S0
G1 X-9.716S200
G1 X-4.521S0
G1 X-16.242S200
G1 X-4.458S0
G1 X-6.791S200
G1 X-4.456S0
G1 X-13.82S200
G1 X-4.306S0
G1 X-9.515S200
G1 X-4.521S0
G1 X-16.241S200
G1 X-4.46S0
G1 X-8.605S200
G1 X-4.246S0
G1 X-5.782S200
G1 X-6.902S0
G1 X-9.139S200
G1 X-2.5S0
G1 X-0.073Y0.1
G1 X2.5
G1 X9.239S200
G1 X6.879S0
G1 X5.778S200
G1 X4.246S0
G1 X8.565S200
G1 X4.48S0
G1 X16.283S200
G1 X4.54S0
G1 X9.474S200
G1 X4.306S0
G1 X13.843S200
G1 X4.469S0
G1 X6.714S200
G1 X4.478S0
G1 X16.285S200
G1 X4.54S0
G1 X9.675S200
G1 X1.691S0
G1 X12.112S200
G1 X5.021S0
G1 X1.6S200
G1 X1.73S0
G1 X13.349S200
G1 X2.5S0
G1 X0.073Y0.1
G1 X-2.5
G1 X-13.422S200
G1 X-1.73S0
G1 X-1.677S200
G1 X-5.021S0
G1 X-12.035S200
G1 X-1.691S0
G1 X-9.635S200
G1 X-4.558S0
G1 X-16.327S200
G1 X-4.498S0
G1 X-6.639S200
G1 X-4.481S0
G1 X-13.866S200
G1 X-4.306S0
G1 X-9.433S200
G1 X-4.559S0
G1 X-16.326S200
G1 X-4.499S0
G1 X-8.525S200
G1 X-4.246S0
G1 X-5.777S200
G1 X-6.853S0
G1 X-9.338S200
G1 X-2.5S0
G1 X-0.069Y0.1
G1 X2.5
G1 X9.434S200
G1 X6.822S0
G1 X5.781S200
G1 X4.246S0
G1 X8.484S200
G1 X4.519S0
G1 X16.37S200
G1 X4.576S0
G1 X9.393S200
G1 X4.306S0
G1 X13.889S200
G1 X4.491S0
G1 X6.565S200
G1 X4.518S0
G1 X16.37S200
G1 X4.577S0
G1 X9.594S200
G1 X1.691S0
G1 X11.959S200
G1 X5.021S0
G1 X1.753S200
G1 X1.73S0
G1 X13.491S200
G1 X2.5S0
G1 X0.07Y0.1
G1 X-2.5
G1 X-13.561S200
G1 X-1.73S0
G1 X-1.83S200
G1 X-5.02S0
G1 X-11.883S200
G1 X-1.691S0
G1 X-9.559S200
G1 X-4.589S0
G1 X-16.413S200
G1 X-4.534S0
G1 X-6.499S200
G1 X-4.498S0
G1 X-13.912S200
G1 X-4.306S0
G1 X-9.358S200
G1 X-4.589S0
G1 X-16.412S200
G1 X-4.535S0
G1 X-8.448S200
G1 X-4.246S0
G1 X-5.785S200
G1 X-6.786S0
G1 X-9.536S200
G1 X-2.5S0
G1 X-0.069Y0.1
G1 X2.5
G1 X9.642S200
G1 X6.745S0
G1 X5.789S200
G1 X4.246S0
G1 X8.415S200
G1 X4.547S0
G1 X16.455S200
G1 X4.601S0
G1 X9.324S200
G1 X4.306S0
G1 X13.935S200
G1 X4.505S0
G1 X6.436S200
G1 X4.546S0
G1 X16.456S200
G1 X4.601S0
G1 X9.525S200
G1 X1.691S0
G1 X11.806S200
G1 X5.02S0
G1 X1.907S200
G1 X1.73S0
G1 X13.63S200
G1 X2.5S0
G1 X0.069Y0.1
G1 X-2.5
G1 X-13.699S200
G1 X-1.73S0
G1 X-1.984S200
G1 X-5.019S0
G1 X-11.73S200
G1 X-1.691S0
G1 X-9.492S200
G1 X-4.612S0
G1 X-16.496S200
G1 X-4.561S0
G1 X-6.373S200
G1 X-4.512S0
G1 X-13.958S200
G1 X-4.306S0
G1 X-9.291S200
G1 X-4.612S0
G1 X-16.495S200
G1 X-4.562S0
G1 X-8.382S200
G1 X-4.246S0
G1 X-5.802S200
G1 X-6.695S0
G1 X-9.748S200
G1 X-2.5S0
G1 X-0.069Y0.1
G1 X2.5
G1 X9.854S200
G1 X6.644S0
G1 X5.816S200
G1 X4.246S0
G1 X8.348S200
G1 X4.579S0
G1 X16.534S200
G1 X4.623S0
G1 X9.258S200
G1 X4.306S0
G1 X13.977S200
G1 X4.523S0
G1 X6.31S200
G1 X4.577S0
G1 X16.535S200
G1 X4.623S0
G1 X9.459S200
G1 X1.691S0
G1 X11.654S200
G1 X5.019S0
G1 X2.06S200
G1 X1.73S0
G1 X13.768S200
G1 X2.5S0
G1 X0.07Y0.1
G1 X-2.5
G1 X-13.838S200
G1 X-1.73S0
G1 X-2.137S200
G1 X-5.019S0
G1 X-11.577S200
G1 X-1.691S0
G1 X-9.425S200
G1 X-4.635S0
G1 X-16.574S200
G1 X-4.594S0
G1 X-6.246S200
G1 X-4.535S0
G1 X-13.995S200
G1 X-4.306S0
G1 X-9.224S200
G1 X-4.634S0
G1 X-16.574S200
G1 X-4.595S0
G1 X-8.315S200
G1 X-4.246S0
G1 X-5.829S200
G1 X-6.592S0
G1 X-9.962S200
G1 X-2.5S0
G1 X-0.07Y0.1
G1 X2.5
G1 X10.081S200
G1 X6.522S0
G1 X5.85S200
G1 X4.246S0
G1 X8.282S200
G1 X4.611S0
G1 X16.608S200
G1 X4.65S0
G1 X9.191S200
G1 X4.306S0
G1 X14.012S200
G1 X4.548S0
G1 X6.183S200
G1 X4.61S0
G1 X16.609S200
G1 X4.65S0
G1 X9.392S200
G1 X1.691S0
G1 X11.501S200
G1 X5.018S0
G1 X2.214S200
G1 X1.73S0
G1 X13.907S200
G1 X2.5S0
G1 X0.069Y0.1
G1 X-2.5
G1 X-13.976S200
G1 X-1.73S0
G1 X-2.291S200
G1 X-5.017S0
G1 X-11.425S200
G1 X-1.691S0
G1 X-9.358S200
G1 X-4.667S0
G1 X-16.643S200
G1 X-4.626S0
G1 X-6.12S200
G1 X-4.56S0
G1 X-14.03S200
G1 X-4.306S0
G1 X-9.157S200
G1 X-4.667S0
G1 X-16.642S200
G1 X-4.627S0
G1 X-8.249S200
G1 X-4.246S0
G1 X-5.874S200
G1 X-6.45S0
G1 X-10.198S200
G1 X-2.5S0
G1 X-0.069Y0.1
G1 X2.5
G1 X10.315S200
G1 X6.379S0
G1 X5.897S200
G1 X4.246S0
G1 X8.215S200
G1 X4.644S0
G1 X16.676S200
G1 X4.683S0
G1 X9.124S200
G1 X4.306S0
G1 X14.047S200
G1 X4.573S0
G1 X6.056S200
G1 X4.643S0
G1 X16.677S200
G1 X4.683S0
G1 X9.325S200
G1 X1.691S0
G1 X11.348S200
G1 X5.018S0
G1 X2.367S200
G1 X1.73S0
G1 X14.045S200
G1 X2.5S0
G1 X0.07Y0.1
G1 X-2.5
G1 X-14.115S200
G1 X-1.73S0
G1 X-2.444S200
G1 X-5.017S0
G1 X-11.272S200
G1 X-1.691S0
G1 X-9.292S200
G1 X-4.699S0
G1 X-16.711S200
G1 X-4.659S0
G1 X-5.999S200
G1 X-4.579S0
G1 X-14.065S200
G1 X-4.306S0
G1 X-9.091S200
G1 X-4.699S0
G1 X-16.71S200
G1 X-4.66S0
G1 X-8.182S200
G1 X-4.246S0
G1 X-5.929S200
G1 X-6.297S0
G1 X-10.434S200
G1 X-2.5S0
G1 X-0.069Y0.1
G1 X2.5
G1 X10.564S200
G1 X6.202S0
G1 X5.963S200
G1 X4.246S0
G1 X8.149S200
G1 X4.676S0
G1 X16.744S200
G1 X4.715S0
G1 X9.058S200
G1 X4.306S0
G1 X14.082S200
G1 X4.587S0
G1 X5.941S200
G1 X4.675S0
G1 X16.745S200
G1 X4.715S0
G1 X9.259S200
G1 X1.691S0
G1 X11.196S200
G1 X5.016S0
G1 X2.521S200
G1 X1.73S0
G1 X14.184S200
G1 X2.5S0
G1 X0.069Y0.1
G1 X-2.5
G1 X-14.253S200
G1 X-1.73S0
G1 X-2.598S200
G1 X-5.016S0
G1 X-11.119S200
G1 X-1.691S0
G1 X-9.232S200
G1 X-4.725S0
G1 X-16.775S200
G1 X-4.69S0
G1 X-5.888S200
G1 X-4.594S0
G1 X-14.1S200
G1 X-4.306S0
G1 X-9.031S200
G1 X-4.725S0
G1 X-16.774S200
G1 X-4.691S0
G1 X-8.121S200
G1 X-4.246S0
G1 X-5.998S200
G1 X-6.105S0
G1 X-10.696S200
G1 X-2.5S0
G1 X-0.069Y0.1
G1 X2.5
G1 X10.826S200
G1 X5.998S0
G1 X6.044S200
G1 X4.246S0
G1 X8.095S200
G1 X4.703S0
G1 X16.806S200
G1 X4.733S0
G1 X9.005S200
G1 X4.306S0
G1 X14.117S200
G1 X4.601S0
G1 X5.838S200
G1 X4.702S0
G1 X16.806S200
G1 X4.734S0
G1 X9.206S200
G1 X1.691S0
G1 X11.043S200
G1 X5.016S0
G1 X2.674S200
G1 X1.73S0
G1 X14.323S200
G1 X2.499S0
G1 X0.07Y0.1
G1 X-2.5
G1 X-14.392S200
G1 X-1.73S0
G1 X-2.751S200
G1 X-5.015S0
G1 X-10.967S200
G1 X-1.691S0
G1 X-9.179S200
G1 X-4.744S0
G1 X-16.836S200
G1 X-4.716S0
G1 X-5.786S200
G1 X-4.609S0
G1 X-14.134S200
G1 X-4.306S0
G1 X-8.978S200
G1 X-4.743S0
G1 X-16.836S200
G1 X-4.717S0
G1 X-8.068S200
G1 X-4.246S0
G1 X-6.09S200
G1 X-5.886S0
G1 X-10.961S200
G1 X-2.5S0
G1 X-0.069Y0.1
G1 X2.5
G1 X11.107S200
G1 X5.758S0
G1 X6.141S200
G1 X4.246S0
G1 X8.042S200
G1 X4.729S0
G1 X16.867S200
G1 X4.752S0
G1 X8.952S200
G1 X4.306S0
G1 X14.147S200
G1 X4.621S0
G1 X5.734S200
G1 X4.729S0
G1 X16.867S200
G1 X4.753S0
G1 X9.153S200
G1 X1.691S0
G1 X10.89S200
G1 X5.015S0
G1 X2.828S200
G1 X1.73S0
G1 X14.461S200
G1 X2.5S0
G1 X0.069Y0.1
G1 X-2.5
G1 X-14.53S200
G1 X-1.73S0
G1 X-2.905S200
G1 X-5.014S0
G1 X-10.814S200
G1 X-1.691S0
G1 X-9.126S200
G1 X-4.764S0
G1 X-16.897S200
G1 X-4.741S0
G1 X-5.683S200
G1 X-4.634S0
G1 X-14.159S200
G1 X-4.306S0
G1 X-8.925S200
G1 X-4.764S0
G1 X-16.896S200
G1 X-4.742S0
G1 X-8.015S200
G1 X-4.246S0
G1 X-6.201S200
G1 X-5.622S0
G1 X-11.252S200
G1 X-2.5S0
G1 X-0.07Y0.1
G1 X2.5
G1 X11.399S200
G1 X5.486S0
G1 X6.26S200
G1 X4.246S0
G1 X7.988S200
G1 X4.756S0
G1 X16.922S200
G1 X4.778S0
G1 X8.898S200
G1 X4.306S0
G1 X14.172S200
G1 X4.645S0
G1 X5.632S200
G1 X4.755S0
G1 X16.923S200
G1 X4.777S0
G1 X9.1S200
G1 X1.691S0
G1 X10.738S200
G1 X5.014S0
G1 X2.981S200
G1 X1.73S0
G1 X14.6S200
G1 X2.5S0
G1 X0.069Y0.1
G1 X-2.5
G1 X-14.669S200
G1 X-1.73S0
G1 X-3.058S200
G1 X-5.014S0
G1 X-10.661S200
G1 X-1.691S0
G1 X-9.073S200
G1 X-4.792S0
G1 X-16.949S200
G1 X-4.767S0
G1 X-5.583S200
G1 X-4.655S0
G1 X-14.185S200
G1 X-4.306S0
G1 X-8.872S200
G1 X-4.792S0
G1 X-16.948S200
G1 X-4.768S0
G1 X-7.962S200
G1 X-4.246S0
G1 X-6.332S200
G1 X-5.324S0
G1 X-11.558S200
G1 X-2.5S0
G1 X-0.068Y0.1
G1 X2.5
G1 X11.719S200
G1 X5.155S0
G1 X6.408S200
G1 X4.246S0
G1 X7.935S200
G1 X4.782S0
G1 X16.974S200
G1 X4.806S0
G1 X8.845S200
G1 X4.306S0
G1 X14.198S200
G1 X4.661S0
G1 X5.537S200
G1 X4.781S0
G1 X16.975S200
G1 X4.806S0
G1 X9.046S200
G1 X1.691S0
G1 X10.585S200
G1 X5.013S0
G1 X3.135S200
G1 X1.73S0
G1 X14.737S200
G1 X2.5S0
G1 X0.066Y0.1
G1 X-2.5
G1 X-14.803S200
G1 X-1.73S0
G1 X-3.212S200
G1 X-5.012S0
G1 X-10.509S200
G1 X-1.69S0
G1 X-9.02S200
G1 X-4.82S0
G1 X-16.998S200
G1 X-4.796S0
G1 X-5.491S200
G1 X-4.669S0
G1 X-14.21S200
G1 X-4.306S0
G1 X-8.819S200
G1 X-4.82S0
G1 X-16.996S200
G1 X-4.798S0
G1 X-7.909S200
G1 X-4.246S0
G1 X-6.49S200
G1 X-4.98S0
G1 X-11.879S200
G1 X-2.5S0
G1 X-0.066Y0.1
G1 X2.5
G1 X12.052S200
G1 X4.78S0
G1 X6.583S200
G1 X4.246S0
G1 X7.882S200
G1 X4.814S0
G1 X17.02S200
G1 X4.832S0
G1 X8.794S200
G1 X4.306S0
G1 X14.223S200
G1 X4.675S0
G1 X5.445S200
G1 X4.813S0
G1 X17.021S200
G1 X4.832S0
G1 X8.995S200
G1 X1.691S0
G1 X10.432S200
G1 X5.012S0
G1 X3.289S200
G1 X1.73S0
G1 X14.869S200
G1 X2.5S0
G1 X0.066Y0.1
G1 X-2.5
G1 X-14.935S200
G1 X-1.73S0
G1 X-3.365S200
G1 X-5.012S0
G1 X-10.356S200
G1 X-1.69S0
G1 X-8.974S200
G1 X-4.841S0
G1 X-17.044S200
G1 X-4.823S0
G1 X-5.404S200
G1 X-4.682S0
G1 X-14.236S200
G1 X-4.306S0
G1 X-8.773S200
G1 X-4.841S0
G1 X-17.043S200
G1 X-4.824S0
G1 X-7.861S200
G1 X-4.246S0
G1 X-6.678S200
G1 X-4.572S0
G1 X-12.231S200
G1 X-2.5S0
G1 X-0.067Y0.1
G1 X2.5
G1 X12.412S200
G1 X4.347S0
G1 X6.789S200
G1 X4.246S0
G1 X7.841S200
G1 X4.834S0
G1 X17.066S200
G1 X4.848S0
G1 X8.753S200
G1 X4.306S0
G1 X14.249S200
G1 X4.689S0
G1 X5.364S200
G1 X4.833S0
G1 X17.067S200
G1 X4.848S0
G1 X8.954S200
G1 X1.691S0
G1 X10.28S200
G1 X5.011S0
G1 X3.442S200
G1 X1.73S0
G1 X15.001S200
G1 X2.5S0
G1 X0.066Y0.1
G1 X-2.5
G1 X-15.067S200
G1 X-1.73S0
G1 X-3.519S200
G1 X-5.011S0
G1 X-10.203S200
G1 X-1.69S0
G1 X-8.934S200
G1 X-4.856S0
G1 X-17.09S200
G1 X-4.843S0
G1 X-5.324S200
G1 X-4.696S0
G1 X-14.261S200
G1 X-4.306S0
G1 X-8.733S200
G1 X-4.856S0
G1 X-17.089S200
G1 X-4.843S0
G1 X-7.821S200
G1 X-4.246S0
G1 X-6.901S200
G1 X-4.096S0
G1 X-12.617S200
G1 X-2.5S0
G1 X-0.066Y0.1
G1 X2.5
G1 X12.824S200
G1 X3.819S0
G1 X7.037S200
G1 X4.246S0
G1 X7.801S200
G1 X4.852S0
G1 X17.113S200
G1 X4.863S0
G1 X8.713S200
G1 X4.306S0
G1 X14.27S200
G1 X4.707S0
G1 X5.284S200
G1 X4.852S0
G1 X17.114S200
G1 X4.863S0
G1 X8.914S200
G1 X1.69S0
G1 X10.128S200
G1 X5.01S0
G1 X3.596S200
G1 X1.73S0
G1 X15.133S200
G1 X2.5S0
G1 X0.066Y0.1
G1 X-2.5
G1 X-15.199S200
G1 X-1.73S0
G1 X-3.672S200
G1 X-5.01S0
G1 X-10.052S200
G1 X-1.69S0
G1 X-8.894S200
G1 X-4.871S0
G1 X-17.136S200
G1 X-4.862S0
G1 X-5.244S200
G1 X-4.719S0
G1 X-14.278S200
G1 X-4.306S0
G1 X-8.693S200
G1 X-4.871S0
G1 X-17.135S200
G1 X-4.863S0
G1 X-7.78S200
G1 X-4.246S0
G1 X-7.183S200
G1 X-3.509S0
G1 X-13.055S200
G1 X-2.5S0
G1 X-0.066Y0.1
G1 X2.5
G1 X13.303S200
G1 X3.157S0
G1 X7.353S200
G1 X4.246S0
G1 X7.76S200
G1 X4.872S0
G1 X17.154S200
G1 X4.883S0
G1 X8.673S200
G1 X4.306S0
G1 X14.287S200
G1 X4.727S0
G1 X5.207S200
G1 X4.871S0
G1 X17.155S200
G1 X4.883S0
G1 X8.874S200
G1 X1.69S0
G1 X9.975S200
G1 X5.01S0
G1 X3.749S200
G1 X1.73S0
G1 X15.265S200
G1 X2.5S0
G1 X0.066Y0.1
G1 X-2.5
G1 X-15.331S200
G1 X-1.73S0
G1 X-3.826S200
G1 X-5.009S0
G1 X-9.899S200
G1 X-1.69S0
G1 X-8.854S200
G1 X-4.894S0
G1 X-17.172S200
G1 X-4.883S0
G1 X-5.172S200
G1 X-4.734S0
G1 X-14.295S200
G1 X-4.306S0
G1 X-8.653S200
G1 X-4.894S0
G1 X-17.171S200
G1 X-4.884S0
G1 X-7.74S200
G1 X-4.246S0
G1 X-7.562S200
G1 X-2.724S0
G1 X-13.593S200
G1 X-2.5S0
G1 X-0.067Y0.1
G1 X2.5
G1 X13.928S200
G1 X2.195S0
G1 X7.823S200
G1 X4.246S0
G1 X7.72S200
G1 X4.896S0
G1 X17.187S200
G1 X4.906S0
G1 X8.633S200
G1 X4.306S0
G1 X14.304S200
G1 X4.739S0
G1 X5.138S200
G1 X4.895S0
G1 X17.188S200
G1 X4.906S0
G1 X8.834S200
G1 X1.69S0
G1 X9.823S200
G1 X5.008S0
G1 X3.903S200
G1 X1.73S0
G1 X15.397S200
G1 X2.5S0
G1 X0.066Y0.1
G1 X-2.5
G1 X-15.463S200
G1 X-1.73S0
G1 X-3.979S200
G1 X-5.009S0
G1 X-9.746S200
G1 X-1.69S0
G1 X-8.813S200
G1 X-4.919S0
G1 X-17.204S200
G1 X-4.908S0
G1 X-5.102S200
G1 X-4.746S0
G1 X-14.312S200
G1 X-4.306S0
G1 X-8.612S200
G1 X-4.918S0
G1 X-17.204S200
G1 X-4.908S0
G1 X-7.7S200
G1 X-4.246S0
G1 X-8.201S200
G1 X-1.418S0
G1 X-14.393S200
G1 X-2.5S0
G1 X-0.066Y0.1
G1 X2.5
G1 X24.078S200
G1 X4.246S0
G1 X7.68S200
G1 X4.921S0
G1 X17.219S200
G1 X4.929S0
G1 X8.593S200
G1 X4.306S0
G1 X14.321S200
G1 X4.752S0
G1 X5.067S200
G1 X4.92S0
G1 X17.221S200
G1 X4.929S0
G1 X8.794S200
G1 X1.69S0
G1 X9.67S200
G1 X5.008S0
G1 X4.056S200
G1 X1.73S0
G1 X15.529S200
G1 X2.5S0
G1 X0.066Y0.1
G1 X-2.5
G1 X-15.595S200
G1 X-1.73S0
G1 X-4.133S200
G1 X-5.008S0
G1 X-9.593S200
G1 X-1.69S0
G1 X-8.78S200
G1 X-4.935S0
G1 X-17.237S200
G1 X-4.929S0
G1 X-5.035S200
G1 X-4.758S0
G1 X-14.33S200
G1 X-4.306S0
G1 X-8.579S200
G1 X-4.934S0
G1 X-17.236S200
G1 X-4.93S0
G1 X-7.663S200
G1 X-4.246S0
G1 X-24.145S200
G1 X-2.5S0
G1 X-0.066Y0.1
G1 X2.5
G1 X24.211S200
G1 X4.246S0
G1 X7.649S200
G1 X4.936S0
G1 X17.252S200
G1 X4.94S0
G1 X8.565S200
G1 X4.306S0
G1 X14.338S200
G1 X4.765S0
G1 X5.006S200
G1 X4.936S0
G1 X17.253S200
G1 X4.94S0
G1 X8.766S200
G1 X1.69S0
G1 X9.517S200
G1 X5.007S0
G1 X4.21S200
G1 X1.73S0
G1 X15.661S200
G1 X2.5S0
G1 X0.066Y0.1
G1 X-2.5
G1 X-15.727S200
G1 X-1.73S0
G1 X-4.286S200
G1 X-5.007S0
G1 X-9.441S200
G1 X-1.69S0
G1 X-8.752S200
G1 X-4.946S0
G1 X-17.269S200
G1 X-4.942S0
G1 X-4.977S200
G1 X-4.771S0
G1 X-14.347S200
G1 X-4.306S0
G1 X-8.551S200
G1 X-4.946S0
G1 X-17.268S200
G1 X-4.942S0
G1 X-7.635S200
G1 X-4.246S0
G1 X-24.277S200
G1 X-2.5S0
G1 X-0.067Y0.1
G1 X2.5
G1 X24.344S200
G1 X4.246S0
G1 X7.621S200
G1 X4.948S0
G1 X17.285S200
G1 X4.951S0
G1 X8.537S200
G1 X4.306S0
G1 X14.355S200
G1 X4.778S0
G1 X4.948S200
G1 X4.948S0
G1 X17.286S200
G1 X4.951S0
G1 X8.738S200
G1 X1.69S0
G1 X9.364S200
G1 X5.007S0
G1 X4.363S200
G1 X1.73S0
G1 X15.793S200
G1 X2.5S0
G1 X0.067Y0.1
G1 X-2.5
G1 X-15.86S200
G1 X-1.73S0
G1 X-4.44S200
G1 X-5.006S0
G1 X-9.288S200
G1 X-1.69S0
G1 X-8.724S200
G1 X-4.957S0
G1 X-17.301S200
G1 X-4.955S0
G1 X-4.921S200
G1 X-4.787S0
G1 X-14.359S200
G1 X-4.306S0
G1 X-8.523S200
G1 X-4.957S0
G1 X-17.3S200
G1 X-4.955S0
G1 X-7.607S200
G1 X-4.246S0
G1 X-24.41S200
G1 X-2.5S0
G1 X-0.064Y0.1
G1 X2.5
G1 X24.474S200
G1 X4.246S0
G1 X7.593S200
G1 X4.964S0
G1 X17.313S200
G1 X4.963S0
G1 X8.509S200
G1 X4.306S0
G1 X14.364S200
G1 X4.792S0
G1 X4.897S200
G1 X4.963S0
G1 X17.314S200
G1 X4.964S0
G1 X8.71S200
G1 X1.69S0
G1 X9.212S200
G1 X5.005S0
G1 X4.517S200
G1 X1.73S0
G1 X15.926S200
G1 X2.5S0
G1 X0.064Y0.1
G1 X-2.5
G1 X-15.99S200
G1 X-1.73S0
G1 X-4.594S200
G1 X-5.005S0
G1 X-9.135S200
G1 X-1.69S0
G1 X-8.696S200
G1 X-4.973S0
G1 X-17.324S200
G1 X-4.972S0
G1 X-4.873S200
G1 X-4.797S0
G1 X-14.369S200
G1 X-4.306S0
G1 X-8.495S200
G1 X-4.973S0
G1 X-17.323S200
G1 X-4.972S0
G1 X-7.579S200
G1 X-4.246S0
G1 X-24.537S200
G1 X-2.5S0
G1 X-0.064Y0.1
G1 X2.5
G1 X24.601S200
G1 X4.246S0
G1 X7.564S200
G1 X4.982S0
G1 X17.333S200
G1 X4.982S0
G1 X8.481S200
G1 X4.306S0
G1 X14.374S200
G1 X4.803S0
G1 X4.848S200
G1 X4.98S0
G1 X17.335S200
G1 X4.982S0
G1 X8.682S200
G1 X1.691S0
G1 X9.058S200
G1 X5.005S0
G1 X4.67S200
G1 X1.73S0
G1 X16.053S200
G1 X2.5S0
G1 X0.063Y0.1
G1 X-2.5
G1 X-16.116S200
G1 X-1.73S0
G1 X-4.747S200
G1 X-5.004S0
G1 X-8.982S200
G1 X-1.691S0
G1 X-8.668S200
G1 X-4.991S0
G1 X-17.345S200
G1 X-4.989S0
G1 X-4.824S200
G1 X-4.808S0
G1 X-14.379S200
G1 X-4.306S0
G1 X-8.467S200
G1 X-4.991S0
G1 X-17.344S200
G1 X-4.99S0
G1 X-7.55S200
G1 X-4.246S0
G1 X-24.664S200
G1 X-2.5S0
G1 X-0.063Y0.1
G1 X2.5
G1 X24.727S200
G1 X4.246S0
G1 X7.536S200
G1 X4.999S0
G1 X17.354S200
G1 X5S0
G1 X8.453S200
G1 X4.306S0
G1 X14.383S200
G1 X4.814S0
G1 X4.8S200
G1 X4.998S0
G1 X17.355S200
G1 X5S0
G1 X8.654S200
G1 X1.69S0
G1 X8.906S200
G1 X5.004S0
G1 X4.824S200
G1 X1.73S0
G1 X16.179S200
G1 X2.5S0
G1 X0.063Y0.1
G1 X-2.5
G1 X-16.242S200
G1 X-1.73S0
G1 X-4.901S200
G1 X-5.003S0
G1 X-8.83S200
G1 X-1.69S0
G1 X-8.643S200
G1 X-5.007S0
G1 X-17.365S200
G1 X-5.006S0
G1 X-4.775S200
G1 X-4.82S0
G1 X-14.388S200
G1 X-4.306S0
G1 X-8.442S200
G1 X-5.006S0
G1 X-17.364S200
G1 X-5.007S0
G1 X-7.523S200
G1 X-4.246S0
G1 X-24.791S200
G1 X-2.5S0
G1 X-0.063Y0.1
G1 X2.5
G1 X24.854S200
G1 X4.246S0
G1 X7.514S200
G1 X5.01S0
G1 X17.374S200
G1 X5.01S0
G1 X8.434S200
G1 X4.306S0
G1 X14.393S200
G1 X4.825S0
G1 X4.757S200
G1 X5.009S0
G1 X17.375S200
G1 X5.01S0
G1 X8.635S200
G1 X1.69S0
G1 X8.754S200
G1 X5.003S0
G1 X4.977S200
G1 X1.73S0
G1 X16.305S200
G1 X2.5S0
G1 X0.062Y0.1
G1 X-2.5
G1 X-16.367S200
G1 X-1.73S0
G1 X-5.054S200
G1 X-5.003S0
G1 X-8.677S200
G1 X-1.69S0
G1 X-8.627S200
G1 X-5.013S0
G1 X-17.386S200
G1 X-5.011S0
G1 X-4.739S200
G1 X-4.83S0
G1 X-14.398S200
G1 X-4.306S0
G1 X-8.426S200
G1 X-5.013S0
G1 X-17.384S200
G1 X-5.013S0
G1 X-7.506S200
G1 X-4.246S0
G1 X-24.917S200
G1 X-2.5S0
G1 X-0.064Y0.1
G1 X2.5
G1 X24.981S200
G1 X4.246S0
G1 X7.498S200
G1 X5.016S0
G1 X17.394S200
G1 X5.016S0
G1 X8.418S200
G1 X4.306S0
G1 X14.403S200
G1 X4.836S0
G1 X4.719S200
G1 X5.016S0
G1 X17.395S200
G1 X5.017S0
G1 X8.618S200
G1 X1.69S0
G1 X8.601S200
G1 X5.002S0
G1 X5.131S200
G1 X1.73S0
G1 X16.43S200
G1 X2.5S0
G1 X0.063Y0.1
G1 X-2.5
G1 X-16.493S200
G1 X-1.73S0
G1 X-5.208S200
G1 X-5.001S0
G1 X-8.525S200
G1 X-1.69S0
G1 X-8.61S200
G1 X-5.02S0
G1 X-17.403S200
G1 X-5.021S0
G1 X-4.705S200
G1 X-4.837S0
G1 X-14.408S200
G1 X-4.306S0
G1 X-8.41S200
G1 X-5.019S0
G1 X-17.402S200
G1 X-5.021S0
G1 X-7.49S200
G1 X-4.246S0
G1 X-25.044S200
G1 X-2.5S0
G1 X-0.063Y0.1
G1 X2.5
G1 X25.107S200
G1 X4.246S0
G1 X7.481S200
G1 X5.027S0
G1 X17.41S200
G1 X5.023S0
G1 X8.401S200
G1 X4.306S0
G1 X14.41S200
G1 X4.841S0
G1 X4.691S200
G1 X5.026S0
G1 X17.41S200
G1 X5.024S0
G1 X8.602S200
G1 X1.69S0
G1 X8.448S200
G1 X5.002S0
G1 X5.284S200
G1 X1.73S0
G1 X16.556S200
G1 X2.5S0
G1 X0.063Y0.1
G1 X-2.5
G1 X-16.619S200
G1 X-1.73S0
G1 X-5.361S200
G1 X-5.001S0
G1 X-8.372S200
G1 X-1.69S0
G1 X-8.594S200
G1 X-5.027S0
G1 X-17.419S200
G1 X-5.03S0
G1 X-4.677S200
G1 X-4.845S0
G1 X-14.412S200
G1 X-4.306S0
G1 X-8.393S200
G1 X-5.026S0
G1 X-17.418S200
G1 X-5.032S0
G1 X-7.473S200
G1 X-4.246S0
G1 X-25.171S200
G1 X-2.5S0
G1 X-0.063Y0.1
G1 X2.5
G1 X25.234S200
G1 X4.246S0
G1 X7.465S200
G1 X5.037S0
G1 X17.422S200
G1 X5.033S0
G1 X8.385S200
G1 X4.306S0
G1 X14.413S200
G1 X4.85S0
G1 X4.662S200
G1 X5.036S0
G1 X17.424S200
G1 X5.033S0
G1 X8.586S200
G1 X1.69S0
G1 X8.296S200
G1 X5S0
G1 X5.438S200
G1 X1.73S0
G1 X16.682S200
G1 X2.5S0
G1 X0.062Y0.1
G1 X-2.5
G1 X-16.744S200
G1 X-1.73S0
G1 X-5.515S200
G1 X-5S0
G1 X-8.219S200
G1 X-1.69S0
G1 X-8.578S200
G1 X-5.039S0
G1 X-17.429S200
G1 X-5.041S0
G1 X-4.648S200
G1 X-4.854S0
G1 X-14.415S200
G1 X-4.306S0
G1 X-8.377S200
G1 X-5.039S0
G1 X-17.427S200
G1 X-5.042S0
G1 X-7.457S200
G1 X-4.246S0
G1 X-25.297S200
G1 X-2.5S0
G1 X-0.064Y0.1
G1 X2.5
G1 X25.361S200
G1 X4.246S0
G1 X7.448S200
G1 X5.047S0
G1 X17.432S200
G1 X5.046S0
G1 X8.369S200
G1 X4.306S0
G1 X14.417S200
G1 X4.858S0
G1 X4.634S200
G1 X5.046S0
G1 X17.433S200
G1 X5.047S0
G1 X8.569S200
G1 X1.69S0
G1 X8.143S200
G1 X5S0
G1 X5.591S200
G1 X1.73S0
G1 X16.807S200
G1 X2.5S0
G1 X0.063Y0.1
G1 X-2.5
G1 X-16.87S200
G1 X-1.73S0
G1 X-5.668S200
G1 X-4.999S0
G1 X-8.067S200
G1 X-1.69S0
G1 X-8.561S200
G1 X-5.053S0
G1 X-17.438S200
G1 X-5.051S0
G1 X-4.62S200
G1 X-4.863S0
G1 X-14.418S200
G1 X-4.306S0
G1 X-8.36S200
G1 X-5.053S0
G1 X-17.437S200
G1 X-5.052S0
G1 X-7.44S200
G1 X-4.246S0
G1 X-25.424S200
G1 X-2.5S0
G1 X-0.063Y0.1
G1 X2.5
G1 X25.487S200
G1 X4.246S0
G1 X7.434S200
G1 X5.055S0
G1 X17.441S200
G1 X5.055S0
G1 X8.357S200
G1 X4.306S0
G1 X14.42S200
G1 X4.867S0
G1 X4.607S200
G1 X5.055S0
G1 X17.442S200
G1 X5.055S0
G1 X8.558S200
G1 X1.691S0
G1 X7.989S200
G1 X4.999S0
G1 X5.745S200
G1 X1.73S0
G1 X16.933S200
G1 X2.5S0
G1 X0.063Y0.1
G1 X-2.5
G1 X-16.996S200
G1 X-1.73S0
G1 X-5.822S200
G1 X-4.998S0
G1 X-7.913S200
G1 X-1.691S0
G1 X-8.555S200
G1 X-5.056S0
G1 X-17.447S200
G1 X-5.055S0
G1 X-4.598S200
G1 X-4.872S0
G1 X-14.421S200
G1 X-4.306S0
G1 X-8.355S200
G1 X-5.055S0
G1 X-17.446S200
G1 X-5.055S0
G1 X-7.431S200
G1 X-4.246S0
G1 X-25.55S200
G1 X-2.5S0
G1 X-0.061Y0.1
G1 X2.5
G1 X25.611S200
G1 X4.246S0
G1 X7.428S200
G1 X5.057S0
G1 X17.448S200
G1 X5.057S0
G1 X8.352S200
G1 X4.306S0
G1 X14.423S200
G1 X4.875S0
G1 X4.591S200
G1 X5.056S0
G1 X17.449S200
G1 X5.057S0
G1 X8.553S200
G1 X1.69S0
G1 X7.838S200
G1 X4.997S0
G1 X5.899S200
G1 X1.73S0
G1 X17.059S200
G1 X2.5S0
G1 X0.063Y0.1
G1 X-2.5
G1 X-17.122S200
G1 X-1.73S0
G1 X-5.975S200
G1 X-4.998S0
G1 X-7.761S200
G1 X-1.69S0
G1 X-8.55S200
G1 X-5.058S0
G1 X-17.452S200
G1 X-5.058S0
G1 X-4.586S200
G1 X-4.876S0
G1 X-14.424S200
G1 X-4.306S0
G1 X-8.349S200
G1 X-5.058S0
G1 X-17.451S200
G1 X-5.058S0
G1 X-7.426S200
G1 X-4.246S0
G1 X-25.671S200
G1 X-2.5S0
G1 X-0.061Y0.1
G1 X2.5
G1 X25.732S200
G1 X4.246S0
G1 X7.423S200
G1 X5.06S0
G1 X17.453S200
G1 X5.059S0
G1 X8.347S200
G1 X4.306S0
G1 X14.426S200
G1 X4.876S0
G1 X4.581S200
G1 X5.06S0
G1 X17.454S200
G1 X5.06S0
G1 X8.547S200
G1 X1.69S0
G1 X7.685S200
G1 X4.997S0
G1 X6.052S200
G1 X1.73S0
G1 X17.184S200
G1 X2.5S0
G1 X0.059Y0.1
G1 X-2.5
G1 X-17.243S200
G1 X-1.73S0
G1 X-6.129S200
G1 X-4.996S0
G1 X-7.609S200
G1 X-1.69S0
G1 X-8.545S200
G1 X-5.06S0
G1 X-17.457S200
G1 X-5.061S0
G1 X-4.577S200
G1 X-4.877S0
G1 X-14.427S200
G1 X-4.306S0
G1 X-8.344S200
G1 X-5.06S0
G1 X-17.456S200
G1 X-5.062S0
G1 X-7.42S200
G1 X-4.246S0
G1 X-25.792S200
G1 X-2.5S0
G1 X-0.061Y0.1
G1 X2.5
G1 X25.853S200
G1 X4.246S0
G1 X7.418S200
G1 X5.063S0
G1 X17.459S200
G1 X5.061S0
G1 X8.341S200
G1 X4.306S0
G1 X14.428S200
G1 X4.878S0
G1 X4.572S200
G1 X5.063S0
G1 X17.459S200
G1 X5.062S0
G1 X8.542S200
G1 X1.69S0
G1 X7.532S200
G1 X4.996S0
G1 X6.206S200
G1 X1.73S0
G1 X17.303S200
G1 X2.5S0
G1 X0.06Y0.1
G1 X-2.5
G1 X-17.363S200
G1 X-1.73S0
G1 X-6.282S200
G1 X-4.996S0
G1 X-7.456S200
G1 X-1.69S0
G1 X-8.539S200
G1 X-5.063S0
G1 X-17.462S200
G1 X-5.065S0
G1 X-4.567S200
G1 X-4.881S0
G1 X-14.427S200
G1 X-4.306S0
G1 X-8.339S200
G1 X-5.062S0
G1 X-17.461S200
G1 X-5.065S0
G1 X-7.415S200
G1 X-4.246S0
G1 X-25.913S200
G1 X-2.5S0
G1 X-0.061Y0.1
G1 X2.5
G1 X25.974S200
G1 X4.246S0
G1 X7.412S200
G1 X5.067S0
G1 X17.461S200
G1 X5.066S0
G1 X8.336S200
G1 X4.306S0
G1 X14.426S200
G1 X4.884S0
G1 X4.563S200
G1 X5.066S0
G1 X17.462S200
G1 X5.066S0
G1 X8.537S200
G1 X1.69S0
G1 X7.38S200
G1 X4.995S0
G1 X6.359S200
G1 X1.73S0
G1 X17.423S200
G1 X2.5S0
G1 X0.059Y0.1
G1 X-2.5
G1 X-17.482S200
G1 X-1.73S0
G1 X-6.436S200
G1 X-4.995S0
G1 X-7.303S200
G1 X-1.69S0
G1 X-8.534S200
G1 X-5.071S0
G1 X-17.461S200
G1 X-5.068S0
G1 X-4.558S200
G1 X-4.888S0
G1 X-14.424S200
G1 X-4.306S0
G1 X-8.333S200
G1 X-5.07S0
G1 X-17.461S200
G1 X-5.068S0
G1 X-7.41S200
G1 X-4.246S0
G1 X-26.034S200
G1 X-2.5S0
G1 X-0.061Y0.1
G1 X2.5
G1 X26.095S200
G1 X4.246S0
G1 X7.407S200
G1 X5.07S0
G1 X17.46S200
G1 X5.074S0
G1 X8.331S200
G1 X4.306S0
G1 X14.423S200
G1 X4.891S0
G1 X4.553S200
G1 X5.07S0
G1 X17.461S200
G1 X5.075S0
G1 X8.531S200
G1 X1.69S0
G1 X7.227S200
G1 X4.994S0
G1 X6.513S200
G1 X1.73S0
G1 X17.542S200
G1 X2.5S0
G1 X0.06Y0.1
G1 X-2.5
G1 X-17.602S200
G1 X-1.73S0
G1 X-6.589S200
G1 X-4.995S0
G1 X-7.15S200
G1 X-1.69S0
G1 X-8.534S200
G1 X-5.073S0
G1 X-17.461S200
G1 X-5.07S0
G1 X-4.55S200
G1 X-4.894S0
G1 X-14.422S200
G1 X-4.306S0
G1 X-8.333S200
G1 X-5.073S0
G1 X-17.46S200
G1 X-5.07S0
G1 X-7.406S200
G1 X-4.246S0
G1 X-26.155S200
G1 X-2.5S0
G1 X-0.061Y0.1
G1 X2.5
G1 X26.216S200
G1 X4.246S0
G1 X7.409S200
G1 X5.068S0
G1 X17.458S200
G1 X5.072S0
G1 X8.335S200
G1 X4.306S0
G1 X14.421S200
G1 X4.895S0
G1 X4.553S200
G1 X5.068S0
G1 X17.458S200
G1 X5.073S0
G1 X8.536S200
G1 X1.691S0
G1 X7.073S200
G1 X4.994S0
G1 X6.666S200
G1 X1.73S0
G1 X17.662S200
G1 X2.5S0
G1 X0.059Y0.1
G1 X-2.5
G1 X-17.721S200
G1 X-1.73S0
G1 X-6.743S200
G1 X-4.993S0
G1 X-6.997S200
G1 X-1.691S0
G1 X-8.539S200
G1 X-5.071S0
G1 X-17.456S200
G1 X-5.067S0
G1 X-4.557S200
G1 X-4.894S0
G1 X-14.42S200
G1 X-4.306S0
G1 X-8.338S200
G1 X-5.071S0
G1 X-17.455S200
G1 X-5.067S0
G1 X-7.411S200
G1 X-4.246S0
G1 X-26.276S200
G1 X-2.5S0
G1 X-0.061Y0.1
G1 X2.5
G1 X26.337S200
G1 X4.246S0
G1 X7.414S200
G1 X5.065S0
G1 X17.453S200
G1 X5.069S0
G1 X8.341S200
G1 X4.306S0
G1 X14.419S200
G1 X4.892S0
G1 X4.563S200
G1 X5.065S0
G1 X17.454S200
G1 X5.069S0
G1 X8.542S200
G1 X1.691S0
G1 X6.92S200
G1 X4.993S0
G1 X6.82S200
G1 X1.73S0
G1 X17.781S200
G1 X2.5S0
G1 X0.06Y0.1
G1 X-2.5
G1 X-17.841S200
G1 X-1.73S0
G1 X-6.896S200
G1 X-4.993S0
G1 X-6.844S200
G1 X-1.691S0
G1 X-8.544S200
G1 X-5.068S0
G1 X-17.452S200
G1 X-5.063S0
G1 X-4.569S200
G1 X-4.891S0
G1 X-14.417S200
G1 X-4.306S0
G1 X-8.343S200
G1 X-5.068S0
G1 X-17.451S200
G1 X-5.064S0
G1 X-7.416S200
G1 X-4.246S0
G1 X-26.397S200
G1 X-2.5S0
G1 X-0.061Y0.1
G1 X2.5
G1 X26.458S200
G1 X4.246S0
G1 X7.419S200
G1 X5.062S0
G1 X17.449S200
G1 X5.066S0
G1 X8.346S200
G1 X4.306S0
G1 X14.414S200
G1 X4.891S0
G1 X4.574S200
G1 X5.062S0
G1 X17.449S200
G1 X5.067S0
G1 X8.547S200
G1 X1.691S0
G1 X6.768S200
G1 X4.992S0
G1 X6.973S200
G1 X1.73S0
G1 X17.901S200
G1 X2.5S0
G1 X0.059Y0.1
G1 X-2.5
G1 X-17.96S200
G1 X-1.73S0
G1 X-7.05S200
G1 X-4.992S0
G1 X-6.691S200
G1 X-1.691S0
G1 X-8.55S200
G1 X-5.065S0
G1 X-17.447S200
G1 X-5.06S0
G1 X-4.579S200
G1 X-4.893S0
G1 X-14.41S200
G1 X-4.306S0
G1 X-8.349S200
G1 X-5.065S0
G1 X-17.446S200
G1 X-5.06S0
G1 X-7.422S200
G1 X-4.246S0
G1 X-26.518S200
G1 X-2.5S0
G1 X-0.061Y0.1
G1 X2.5
G1 X26.579S200
G1 X4.246S0
G1 X7.424S200
G1 X5.06S0
G1 X17.443S200
G1 X5.064S0
G1 X8.351S200
G1 X4.306S0
G1 X14.407S200
G1 X4.893S0
G1 X4.585S200
G1 X5.058S0
G1 X17.445S200
G1 X5.064S0
G1 X8.552S200
G1 X1.691S0
G1 X6.615S200
G1 X4.991S0
G1 X7.127S200
G1 X1.73S0
G1 X18.02S200
G1 X2.5S0
G1 X0.06Y0.1
G1 X-2.5
G1 X-18.08S200
G1 X-1.73S0
G1 X-7.203S200
G1 X-4.991S0
G1 X-6.539S200
G1 X-1.69S0
G1 X-8.555S200
G1 X-5.063S0
G1 X-17.442S200
G1 X-5.057S0
G1 X-4.59S200
G1 X-4.893S0
G1 X-14.404S200
G1 X-4.306S0
G1 X-8.354S200
G1 X-5.062S0
G1 X-17.441S200
G1 X-5.058S0
G1 X-7.427S200
G1 X-4.246S0
G1 X-26.638S200
G1 X-2.5S0
G1 X-0.058Y0.1
G1 X2.5
G1 X26.696S200
G1 X4.246S0
G1 X7.43S200
G1 X5.056S0
G1 X17.438S200
G1 X5.061S0
G1 X8.357S200
G1 X4.306S0
G1 X14.4S200
G1 X4.895S0
G1 X4.595S200
G1 X5.056S0
G1 X17.439S200
G1 X5.061S0
G1 X8.558S200
G1 X1.691S0
G1 X6.462S200
G1 X4.991S0
G1 X7.28S200
G1 X1.73S0
G1 X18.14S200
G1 X2.5S0
G1 X0.059Y0.1
G1 X-2.5
G1 X-18.199S200
G1 X-1.73S0
G1 X-7.357S200
G1 X-4.99S0
G1 X-6.386S200
G1 X-1.691S0
G1 X-8.56S200
G1 X-5.063S0
G1 X-17.432S200
G1 X-5.056S0
G1 X-4.601S200
G1 X-4.895S0
G1 X-14.397S200
G1 X-4.306S0
G1 X-8.359S200
G1 X-5.063S0
G1 X-17.431S200
G1 X-5.057S0
G1 X-7.432S200
G1 X-4.246S0
G1 X-26.754S200
G1 X-2.5S0
G1 X-0.058Y0.1
G1 X2.5
G1 X26.812S200
G1 X4.246S0
G1 X7.438S200
G1 X5.054S0
G1 X17.424S200
G1 X5.059S0
G1 X8.367S200
G1 X4.306S0
G1 X14.393S200
G1 X4.896S0
G1 X4.609S200
G1 X5.054S0
G1 X17.425S200
G1 X5.059S0
G1 X8.568S200
G1 X1.691S0
G1 X6.31S200
G1 X4.989S0
G1 X7.434S200
G1 X1.73S0
G1 X18.259S200
G1 X2.5S0
G1 X0.06Y0.1
G1 X-2.5
G1 X-18.319S200
G1 X-1.73S0
G1 X-7.511S200
G1 X-4.989S0
G1 X-6.233S200
G1 X-1.691S0
G1 X-8.576S200
G1 X-5.055S0
G1 X-17.418S200
G1 X-5.049S0
G1 X-4.62S200
G1 X-4.896S0
G1 X-14.39S200
G1 X-4.306S0
G1 X-8.376S200
G1 X-5.054S0
G1 X-17.416S200
G1 X-5.05S0
G1 X-7.446S200
G1 X-4.246S0
G1 X-26.869S200
G1 X-2.5S0
G1 X-0.058Y0.1
G1 X2.5
G1 X26.927S200
G1 X4.246S0
G1 X7.454S200
G1 X5.045S0
G1 X17.409S200
G1 X5.05S0
G1 X8.384S200
G1 X4.306S0
G1 X14.385S200
G1 X4.897S0
G1 X4.632S200
G1 X5.045S0
G1 X17.41S200
G1 X5.05S0
G1 X8.585S200
G1 X1.691S0
G1 X6.157S200
G1 X4.989S0
G1 X7.587S200
G1 X1.73S0
G1 X18.376S200
G1 X2.5S0
G1 X0.057Y0.1
G1 X-2.5
G1 X-18.433S200
G1 X-1.73S0
G1 X-7.664S200
G1 X-4.988S0
G1 X-6.081S200
G1 X-1.691S0
G1 X-8.593S200
G1 X-5.047S0
G1 X-17.402S200
G1 X-5.04S0
G1 X-4.649S200
G1 X-4.894S0
G1 X-14.379S200
G1 X-4.306S0
G1 X-8.392S200
G1 X-5.046S0
G1 X-17.402S200
G1 X-5.04S0
G1 X-7.462S200
G1 X-4.246S0
G1 X-26.985S200
G1 X-2.5S0
G1 X-0.058Y0.1
G1 X2.5
G1 X27.043S200
G1 X4.246S0
G1 X7.47S200
G1 X5.035S0
G1 X17.395S200
G1 X5.042S0
G1 X8.4S200
G1 X4.306S0
G1 X14.374S200
G1 X4.891S0
G1 X4.665S200
G1 X5.035S0
G1 X17.395S200
G1 X5.043S0
G1 X8.601S200
G1 X1.691S0
G1 X6.004S200
G1 X4.988S0
G1 X7.741S200
G1 X1.73S0
G1 X18.49S200
G1 X2.5S0
G1 X0.057Y0.1
G1 X-2.5
G1 X-18.547S200
G1 X-1.73S0
G1 X-7.818S200
G1 X-4.987S0
G1 X-5.928S200
G1 X-1.691S0
G1 X-8.609S200
G1 X-5.039S0
G1 X-17.388S200
G1 X-5.029S0
G1 X-4.683S200
G1 X-4.888S0
G1 X-14.368S200
G1 X-4.306S0
G1 X-8.408S200
G1 X-5.038S0
G1 X-17.387S200
G1 X-5.031S0
G1 X-7.478S200
G1 X-4.246S0
G1 X-27.1S200
G1 X-2.5S0
G1 X-0.058Y0.1
G1 X2.5
G1 X27.158S200
G1 X4.246S0
G1 X7.486S200
G1 X5.026S0
G1 X17.379S200
G1 X5.034S0
G1 X8.417S200
G1 X4.306S0
G1 X14.362S200
G1 X4.886S0
G1 X4.699S200
G1 X5.025S0
G1 X17.38S200
G1 X5.035S0
G1 X8.617S200
G1 X1.691S0
G1 X5.852S200
G1 X4.987S0
G1 X7.894S200
G1 X1.73S0
G1 X18.603S200
G1 X2.5S0
G1 X0.057Y0.1
G1 X-2.5
G1 X-18.66S200
G1 X-1.73S0
G1 X-7.971S200
G1 X-4.987S0
G1 X-5.775S200
G1 X-1.691S0
G1 X-8.626S200
G1 X-5.03S0
G1 X-17.372S200
G1 X-5.021S0
G1 X-4.716S200
G1 X-4.883S0
G1 X-14.356S200
G1 X-4.306S0
G1 X-8.425S200
G1 X-5.03S0
G1 X-17.371S200
G1 X-5.021S0
G1 X-7.495S200
G1 X-4.246S0
G1 X-27.216S200
G1 X-2.5S0
G1 X-0.058Y0.1
G1 X2.5
G1 X27.274S200
G1 X4.246S0
G1 X7.503S200
G1 X5.019S0
G1 X17.361S200
G1 X5.026S0
G1 X8.433S200
G1 X4.306S0
G1 X14.35S200
G1 X4.881S0
G1 X4.732S200
G1 X5.018S0
G1 X17.363S200
G1 X5.026S0
G1 X8.634S200
G1 X1.691S0
G1 X5.699S200
G1 X4.986S0
G1 X8.048S200
G1 X1.73S0
G1 X18.717S200
G1 X2.5S0
G1 X0.056Y0.1
G1 X-2.5
G1 X-18.773S200
G1 X-1.73S0
G1 X-8.125S200
G1 X-4.985S0
G1 X-5.623S200
G1 X-1.691S0
G1 X-8.642S200
G1 X-5.022S0
G1 X-17.353S200
G1 X-5.016S0
G1 X-4.749S200
G1 X-4.878S0
G1 X-14.344S200
G1 X-4.306S0
G1 X-8.441S200
G1 X-5.022S0
G1 X-17.352S200
G1 X-5.016S0
G1 X-7.511S200
G1 X-4.246S0
G1 X-27.331S200
G1 X-2.5S0
G1 X-0.058Y0.1
G1 X2.5
G1 X27.389S200
G1 X4.246S0
G1 X7.519S200
G1 X5.014S0
G1 X17.342S200
G1 X5.016S0
G1 X8.451S200
G1 X4.306S0
G1 X14.338S200
G1 X4.876S0
G1 X4.765S200
G1 X5.014S0
G1 X17.342S200
G1 X5.017S0
G1 X8.652S200
G1 X1.691S0
G1 X5.546S200
G1 X4.986S0
G1 X8.201S200
G1 X1.73S0
G1 X18.83S200
G1 X2.5S0
G1 X0.057Y0.1
G1 X-2.5
G1 X-18.887S200
G1 X-1.73S0
G1 X-8.278S200
G1 X-4.985S0
G1 X-5.47S200
G1 X-1.691S0
G1 X-8.666S200
G1 X-5.009S0
G1 X-17.331S200
G1 X-5.005S0
G1 X-4.788S200
G1 X-4.875S0
G1 X-14.33S200
G1 X-4.306S0
G1 X-8.465S200
G1 X-5.008S0
G1 X-17.33S200
G1 X-5.007S0
G1 X-7.532S200
G1 X-4.246S0
G1 X-27.447S200
G1 X-2.5S0
G1 X-0.058Y0.1
G1 X2.5
G1 X27.505S200
G1 X4.246S0
G1 X7.546S200
G1 X4.998S0
G1 X17.317S200
G1 X5.002S0
G1 X8.479S200
G1 X4.306S0
G1 X14.321S200
G1 X4.876S0
G1 X4.81S200
G1 X4.997S0
G1 X17.318S200
G1 X5.002S0
G1 X8.68S200
G1 X1.691S0
G1 X5.394S200
G1 X4.984S0
G1 X8.355S200
G1 X1.73S0
G1 X18.944S200
G1 X2.5S0
G1 X0.056Y0.1
G1 X-2.5
G1 X-19S200
G1 X-1.73S0
G1 X-8.432S200
G1 X-4.984S0
G1 X-5.317S200
G1 X-1.691S0
G1 X-8.694S200
G1 X-4.996S0
G1 X-17.304S200
G1 X-4.99S0
G1 X-4.832S200
G1 X-4.876S0
G1 X-14.312S200
G1 X-4.306S0
G1 X-8.493S200
G1 X-4.995S0
G1 X-17.304S200
G1 X-4.99S0
G1 X-7.56S200
G1 X-4.246S0
G1 X-27.562S200
G1 X-2.5S0
G1 X-0.058Y0.1
G1 X2.5
G1 X27.62S200
G1 X4.246S0
G1 X7.574S200
G1 X4.982S0
G1 X17.291S200
G1 X4.988S0
G1 X8.507S200
G1 X4.306S0
G1 X14.304S200
G1 X4.871S0
G1 X4.859S200
G1 X4.981S0
G1 X17.292S200
G1 X4.989S0
G1 X8.708S200
G1 X1.691S0
G1 X5.241S200
G1 X4.984S0
G1 X8.508S200
G1 X1.73S0
G1 X19.057S200
G1 X2.5S0
G1 X0.057Y0.1
G1 X-2.5
G1 X-19.114S200
G1 X-1.73S0
G1 X-8.585S200
G1 X-4.983S0
G1 X-5.165S200
G1 X-1.691S0
G1 X-8.722S200
G1 X-4.982S0
G1 X-17.279S200
G1 X-4.973S0
G1 X-4.887S200
G1 X-4.866S0
G1 X-14.295S200
G1 X-4.306S0
G1 X-8.521S200
G1 X-4.982S0
G1 X-17.278S200
G1 X-4.973S0
G1 X-7.588S200
G1 X-4.246S0
G1 X-27.677S200
G1 X-2.5S0
G1 X-0.056Y0.1
G1 X2.5
G1 X27.733S200
G1 X4.246S0
G1 X7.602S200
G1 X4.967S0
G1 X17.263S200
G1 X4.975S0
G1 X8.535S200
G1 X4.306S0
G1 X14.287S200
G1 X4.859S0
G1 X4.916S200
G1 X4.967S0
G1 X17.263S200
G1 X4.976S0
G1 X8.736S200
G1 X1.691S0
G1 X5.088S200
G1 X4.983S0
G1 X8.662S200
G1 X1.73S0
G1 X19.171S200
G1 X2.5S0
G1 X0.056Y0.1
G1 X-2.5
G1 X-19.227S200
G1 X-1.73S0
G1 X-8.739S200
G1 X-4.982S0
G1 X-5.012S200
G1 X-1.691S0
G1 X-8.75S200
G1 X-4.969S0
G1 X-17.248S200
G1 X-4.961S0
G1 X-4.945S200
G1 X-4.853S0
G1 X-14.278S200
G1 X-4.306S0
G1 X-8.549S200
G1 X-4.969S0
G1 X-17.246S200
G1 X-4.962S0
G1 X-7.616S200
G1 X-4.246S0
G1 X-27.788S200
G1 X-2.5S0
G1 X-0.055Y0.1
G1 X2.5
G1 X27.843S200
G1 X4.246S0
G1 X7.63S200
G1 X4.956S0
G1 X17.231S200
G1 X4.962S0
G1 X8.563S200
G1 X4.306S0
G1 X14.269S200
G1 X4.848S0
G1 X4.973S200
G1 X4.956S0
G1 X17.232S200
G1 X4.962S0
G1 X8.764S200
G1 X1.691S0
G1 X4.936S200
G1 X4.981S0
G1 X8.816S200
G1 X1.73S0
G1 X19.284S200
G1 X2.5S0
G1 X0.057Y0.1
G1 X-2.5
G1 X-19.341S200
G1 X-1.73S0
G1 X-8.892S200
G1 X-4.982S0
G1 X-4.859S200
G1 X-1.691S0
G1 X-8.778S200
G1 X-4.956S0
G1 X-17.216S200
G1 X-4.95S0
G1 X-5.002S200
G1 X-4.843S0
G1 X-14.259S200
G1 X-4.306S0
G1 X-8.577S200
G1 X-4.955S0
G1 X-17.216S200
G1 X-4.95S0
G1 X-7.644S200
G1 X-4.246S0
G1 X-27.898S200
G1 X-2.5S0
G1 X-0.055Y0.1
G1 X2.5
G1 X27.953S200
G1 X4.246S0
G1 X7.658S200
G1 X4.944S0
G1 X17.2S200
G1 X4.949S0
G1 X8.591S200
G1 X4.306S0
G1 X14.247S200
G1 X4.84S0
G1 X5.031S200
G1 X4.944S0
G1 X17.201S200
G1 X4.949S0
G1 X8.792S200
G1 X1.691S0
G1 X4.783S200
G1 X4.981S0
G1 X8.969S200
G1 X1.73S0
G1 X19.397S200
G1 X2.5S0
G1 X0.057Y0.1
G1 X-2.5
G1 X-19.454S200
G1 X-1.73S0
G1 X-9.046S200
G1 X-4.98S0
G1 X-4.707S200
G1 X-1.691S0
G1 X-8.811S200
G1 X-4.937S0
G1 X-17.186S200
G1 X-4.934S0
G1 X-5.063S200
G1 X-4.837S0
G1 X-14.236S200
G1 X-4.306S0
G1 X-8.611S200
G1 X-4.936S0
G1 X-17.185S200
G1 X-4.935S0
G1 X-7.675S200
G1 X-4.246S0
G1 X-28.008S200
G1 X-2.5S0
G1 X-0.055Y0.1
G1 X2.5
G1 X28.063S200
G1 X4.246S0
G1 X7.695S200
G1 X4.924S0
G1 X17.168S200
G1 X4.924S0
G1 X8.631S200
G1 X4.306S0
G1 X14.224S200
G1 X4.834S0
G1 X5.098S200
G1 X4.922S0
G1 X17.17S200
G1 X4.924S0
G1 X8.832S200
G1 X1.691S0
G1 X4.63S200
G1 X4.98S0
G1 X9.123S200
G1 X1.73S0
G1 X19.509S200
G1 X2.5S0
G1 X0.054Y0.1
G1 X-2.5
G1 X-19.563S200
G1 X-1.73S0
G1 X-9.199S200
G1 X-4.98S0
G1 X-4.554S200
G1 X-1.691S0
G1 X-8.852S200
G1 X-4.915S0
G1 X-17.15S200
G1 X-4.911S0
G1 X-5.133S200
G1 X-4.83S0
G1 X-14.213S200
G1 X-4.306S0
G1 X-8.651S200
G1 X-4.915S0
G1 X-17.149S200
G1 X-4.912S0
G1 X-7.715S200
G1 X-4.246S0
G1 X-28.118S200
G1 X-2.5S0
G1 X-0.055Y0.1
G1 X2.5
G1 X28.173S200
G1 X4.246S0
G1 X7.735S200
G1 X4.903S0
G1 X17.127S200
G1 X4.906S0
G1 X8.671S200
G1 X4.306S0
G1 X14.201S200
G1 X4.828S0
G1 X5.167S200
G1 X4.901S0
G1 X17.129S200
G1 X4.906S0
G1 X8.872S200
G1 X1.691S0
G1 X4.477S200
G1 X4.98S0
G1 X9.276S200
G1 X1.73S0
G1 X19.618S200
G1 X2.5S0
G1 X0.055Y0.1
G1 X-2.5
G1 X-19.673S200
G1 X-1.73S0
G1 X-9.353S200
G1 X-4.979S0
G1 X-4.401S200
G1 X-1.691S0
G1 X-8.892S200
G1 X-4.897S0
G1 X-17.107S200
G1 X-4.892S0
G1 X-5.206S200
G1 X-4.82S0
G1 X-14.19S200
G1 X-4.306S0
G1 X-8.691S200
G1 X-4.897S0
G1 X-17.105S200
G1 X-4.894S0
G1 X-7.755S200
G1 X-4.246S0
G1 X-28.228S200
G1 X-2.5S0
G1 X-0.056Y0.1
G1 X2.5
G1 X28.284S200
G1 X4.246S0
G1 X7.775S200
G1 X4.885S0
G1 X17.083S200
G1 X4.887S0
G1 X8.712S200
G1 X4.306S0
G1 X14.178S200
G1 X4.811S0
G1 X5.247S200
G1 X4.883S0
G1 X17.085S200
G1 X4.887S0
G1 X8.913S200
G1 X1.691S0
G1 X4.325S200
G1 X4.978S0
G1 X9.43S200
G1 X1.73S0
G1 X19.727S200
G1 X2.5S0
G1 X0.055Y0.1
G1 X-2.5
G1 X-19.782S200
G1 X-1.73S0
G1 X-9.506S200
G1 X-4.979S0
G1 X-4.248S200
G1 X-1.691S0
G1 X-8.933S200
G1 X-4.878S0
G1 X-17.063S200
G1 X-4.875S0
G1 X-5.288S200
G1 X-4.803S0
G1 X-14.164S200
G1 X-4.306S0
G1 X-8.732S200
G1 X-4.878S0
G1 X-17.061S200
G1 X-4.876S0
G1 X-7.795S200
G1 X-4.246S0
G1 X-28.339S200
G1 X-2.5S0
G1 X-0.055Y0.1
G1 X2.5
G1 X28.394S200
G1 X4.246S0
G1 X7.815S200
G1 X4.867S0
G1 X17.039S200
G1 X4.869S0
G1 X8.752S200
G1 X4.306S0
G1 X14.15S200
G1 X4.796S0
G1 X5.329S200
G1 X4.866S0
G1 X17.041S200
G1 X4.869S0
G1 X8.953S200
G1 X1.691S0
G1 X4.172S200
G1 X4.978S0
G1 X9.583S200
G1 X1.73S0
G1 X19.837S200
G1 X2.5S0
G1 X0.055Y0.1
G1 X-2.5
G1 X-19.892S200
G1 X-1.73S0
G1 X-9.66S200
G1 X-4.977S0
G1 X-4.096S200
G1 X-1.691S0
G1 X-8.973S200
G1 X-4.86S0
G1 X-17.019S200
G1 X-4.857S0
G1 X-5.37S200
G1 X-4.79S0
G1 X-14.135S200
G1 X-4.306S0
G1 X-8.772S200
G1 X-4.86S0
G1 X-17.017S200
G1 X-4.858S0
G1 X-7.835S200
G1 X-4.246S0
G1 X-28.449S200
G1 X-2.5S0
G1 X-0.055Y0.1
G1 X2.5
G1 X28.504S200
G1 X4.246S0
G1 X7.855S200
G1 X4.849S0
G1 X16.995S200
G1 X4.851S0
G1 X8.792S200
G1 X4.306S0
G1 X14.12S200
G1 X4.783S0
G1 X5.412S200
G1 X4.848S0
G1 X16.997S200
G1 X4.851S0
G1 X8.993S200
G1 X1.691S0
G1 X4.019S200
G1 X4.977S0
G1 X9.737S200
G1 X1.73S0
G1 X19.946S200
G1 X2.5S0
G1 X0.055Y0.1
G1 X-2.5
G1 X-20.001S200
G1 X-1.73S0
G1 X-9.813S200
G1 X-4.977S0
G1 X-3.943S200
G1 X-1.691S0
G1 X-9.018S200
G1 X-4.837S0
G1 X-16.974S200
G1 X-4.836S0
G1 X-5.457S200
G1 X-4.777S0
G1 X-14.105S200
G1 X-4.306S0
G1 X-8.817S200
G1 X-4.837S0
G1 X-16.973S200
G1 X-4.836S0
G1 X-7.879S200
G1 X-4.246S0
G1 X-28.559S200
G1 X-2.5S0
G1 X-0.055Y0.1
G1 X2.5
G1 X28.614S200
G1 X4.246S0
G1 X7.906S200
G1 X4.823S0
G1 X16.948S200
G1 X4.821S0
G1 X8.844S200
G1 X4.306S0
G1 X14.091S200
G1 X4.77S0
G1 X5.505S200
G1 X4.823S0
G1 X16.949S200
G1 X4.821S0
G1 X9.045S200
G1 X1.691S0
G1 X3.867S200
G1 X4.976S0
G1 X9.89S200
G1 X1.73S0
G1 X20.056S200
G1 X2.5S0
G1 X0.054Y0.1
G1 X-2.5
G1 X-20.11S200
G1 X-1.73S0
G1 X-9.967S200
G1 X-4.976S0
G1 X-3.79S200
G1 X-1.691S0
G1 X-9.072S200
G1 X-4.806S0
G1 X-16.923S200
G1 X-4.811S0
G1 X-5.552S200
G1 X-4.764S0
G1 X-14.076S200
G1 X-4.306S0
G1 X-8.871S200
G1 X-4.806S0
G1 X-16.922S200
G1 X-4.811S0
G1 X-7.932S200
G1 X-4.246S0
G1 X-28.669S200
G1 X-2.5S0
G1 X-0.053Y0.1
G1 X2.5
G1 X28.722S200
G1 X4.246S0
G1 X7.958S200
G1 X4.799S0
G1 X16.893S200
G1 X4.795S0
G1 X8.897S200
G1 X4.306S0
G1 X14.061S200
G1 X4.757S0
G1 X5.601S200
G1 X4.798S0
G1 X16.893S200
G1 X4.795S0
G1 X9.099S200
G1 X1.691S0
G1 X3.714S200
G1 X4.975S0
G1 X10.044S200
G1 X1.73S0
G1 X20.165S200
G1 X2.5S0
G1 X0.055Y0.1
G1 X-2.5
G1 X-20.22S200
G1 X-1.73S0
G1 X-10.12S200
G1 X-4.975S0
G1 X-3.638S200
G1 X-1.691S0
G1 X-9.125S200
G1 X-4.784S0
G1 X-16.864S200
G1 X-4.786S0
G1 X-5.648S200
G1 X-4.754S0
G1 X-14.043S200
G1 X-4.306S0
G1 X-8.924S200
G1 X-4.783S0
G1 X-16.864S200
G1 X-4.786S0
G1 X-7.985S200
G1 X-4.246S0
G1 X-28.775S200
G1 X-2.5S0
G1 X-0.052Y0.1
G1 X2.5
G1 X28.827S200
G1 X4.246S0
G1 X8.011S200
G1 X4.774S0
G1 X16.835S200
G1 X4.771S0
G1 X8.951S200
G1 X4.306S0
G1 X14.025S200
G1 X4.744S0
G1 X5.702S200
G1 X4.774S0
G1 X16.835S200
G1 X4.772S0
G1 X9.152S200
G1 X1.691S0
G1 X3.561S200
G1 X4.975S0
G1 X10.197S200
G1 X1.73S0
G1 X20.274S200
G1 X2.5S0
G1 X0.055Y0.1
G1 X-2.5
G1 X-20.329S200
G1 X-1.73S0
G1 X-10.274S200
G1 X-4.974S0
G1 X-3.485S200
G1 X-1.691S0
G1 X-9.179S200
G1 X-4.76S0
G1 X-16.806S200
G1 X-4.761S0
G1 X-5.757S200
G1 X-4.734S0
G1 X-14.007S200
G1 X-4.306S0
G1 X-8.978S200
G1 X-4.76S0
G1 X-16.805S200
G1 X-4.761S0
G1 X-8.038S200
G1 X-4.246S0
G1 X-28.88S200
G1 X-2.5S0
G1 X-0.052Y0.1
G1 X2.5
G1 X28.932S200
G1 X4.246S0
G1 X8.064S200
G1 X4.749S0
G1 X16.776S200
G1 X4.749S0
G1 X9.004S200
G1 X4.306S0
G1 X13.989S200
G1 X4.723S0
G1 X5.812S200
G1 X4.749S0
G1 X16.777S200
G1 X4.749S0
G1 X9.205S200
G1 X1.691S0
G1 X3.409S200
G1 X4.973S0
G1 X10.351S200
G1 X1.73S0
G1 X20.383S200
G1 X2.5S0
G1 X0.052Y0.1
G1 X-2.5
G1 X-20.435S200
G1 X-1.73S0
G1 X-10.428S200
G1 X-4.973S0
G1 X-3.332S200
G1 X-1.691S0
G1 X-9.232S200
G1 X-4.737S0
G1 X-16.746S200
G1 X-4.738S0
G1 X-5.867S200
G1 X-4.713S0
G1 X-13.971S200
G1 X-4.306S0
G1 X-9.031S200
G1 X-4.737S0
G1 X-16.745S200
G1 X-4.739S0
G1 X-8.09S200
G1 X-4.246S0
G1 X-28.985S200
G1 X-2.5S0
G1 X-0.052Y0.1
G1 X2.5
G1 X29.037S200
G1 X4.246S0
G1 X8.117S200
G1 X4.73S0
G1 X16.712S200
G1 X4.725S0
G1 X9.058S200
G1 X4.306S0
G1 X13.952S200
G1 X4.703S0
G1 X5.922S200
G1 X4.73S0
G1 X16.712S200
G1 X4.726S0
G1 X9.259S200
G1 X1.691S0
G1 X3.256S200
G1 X4.973S0
G1 X10.504S200
G1 X1.73S0
G1 X20.488S200
G1 X2.5S0
G1 X0.052Y0.1
G1 X-2.5
G1 X-20.54S200
G1 X-1.73S0
G1 X-10.581S200
G1 X-4.972S0
G1 X-3.18S200
G1 X-1.691S0
G1 X-9.292S200
G1 X-4.708S0
G1 X-16.68S200
G1 X-4.715S0
G1 X-5.982S200
G1 X-4.693S0
G1 X-13.934S200
G1 X-4.306S0
G1 X-9.091S200
G1 X-4.707S0
G1 X-16.68S200
G1 X-4.715S0
G1 X-8.149S200
G1 X-4.246S0
G1 X-29.09S200
G1 X-2.5S0
G1 X-0.052Y0.1
G1 X2.5
G1 X29.142S200
G1 X4.246S0
G1 X8.182S200
G1 X4.7S0
G1 X16.647S200
G1 X4.689S0
G1 X9.124S200
G1 X4.306S0
G1 X13.913S200
G1 X4.686S0
G1 X6.044S200
G1 X4.698S0
G1 X16.648S200
G1 X4.69S0
G1 X9.325S200
G1 X1.691S0
G1 X3.103S200
G1 X4.972S0
G1 X10.658S200
G1 X1.73S0
G1 X20.592S200
G1 X2.5S0
G1 X0.052Y0.1
G1 X-2.5
G1 X-20.644S200
G1 X-1.73S0
G1 X-10.735S200
G1 X-4.971S0
G1 X-3.027S200
G1 X-1.691S0
G1 X-9.359S200
G1 X-4.672S0
G1 X-16.614S200
G1 X-4.683S0
G1 X-6.106S200
G1 X-4.679S0
G1 X-13.891S200
G1 X-4.306S0
G1 X-9.158S200
G1 X-4.672S0
G1 X-16.613S200
G1 X-4.683S0
G1 X-8.216S200
G1 X-4.246S0
G1 X-29.195S200
G1 X-2.5S0
G1 X-0.053Y0.1
G1 X2.5
G1 X29.248S200
G1 X4.246S0
G1 X8.249S200
G1 X4.667S0
G1 X16.576S200
G1 X4.658S0
G1 X9.192S200
G1 X4.306S0
G1 X13.87S200
G1 X4.672S0
G1 X6.167S200
G1 X4.667S0
G1 X16.577S200
G1 X4.658S0
G1 X9.393S200
G1 X1.691S0
G1 X2.951S200
G1 X4.971S0
G1 X10.811S200
G1 X1.73S0
G1 X20.697S200
G1 X2.5S0
G1 X0.052Y0.1
G1 X-2.5
G1 X-20.749S200
G1 X-1.73S0
G1 X-10.888S200
G1 X-4.971S0
G1 X-2.874S200
G1 X-1.691S0
G1 X-9.426S200
G1 X-4.645S0
G1 X-16.54S200
G1 X-4.651S0
G1 X-6.229S200
G1 X-4.665S0
G1 X-13.848S200
G1 X-4.306S0
G1 X-9.225S200
G1 X-4.645S0
G1 X-16.538S200
G1 X-4.652S0
G1 X-8.282S200
G1 X-4.246S0
G1 X-29.3S200
G1 X-2.5S0
G1 X-0.053Y0.1
G1 X2.5
G1 X29.353S200
G1 X4.246S0
G1 X8.315S200
G1 X4.638S0
G1 X16.499S200
G1 X4.631S0
G1 X9.259S200
G1 X4.306S0
G1 X13.826S200
G1 X4.654S0
G1 X6.295S200
G1 X4.638S0
G1 X16.5S200
G1 X4.631S0
G1 X9.46S200
G1 X1.691S0
G1 X2.798S200
G1 X4.97S0
G1 X10.965S200
G1 X1.73S0
G1 X20.801S200
G1 X2.5S0
G1 X0.052Y0.1
G1 X-2.5
G1 X-20.853S200
G1 X-1.73S0
G1 X-11.042S200
G1 X-4.969S0
G1 X-2.722S200
G1 X-1.691S0
G1 X-9.494S200
G1 X-4.617S0
G1 X-16.459S200
G1 X-4.625S0
G1 X-6.365S200
G1 X-4.64S0
G1 X-13.804S200
G1 X-4.306S0
G1 X-9.292S200
G1 X-4.618S0
G1 X-16.458S200
G1 X-4.626S0
G1 X-8.348S200
G1 X-4.246S0
G1 X-29.405S200
G1 X-2.5S0
G1 X-0.053Y0.1
G1 X2.5
G1 X29.458S200
G1 X4.246S0
G1 X8.382S200
G1 X4.613S0
G1 X16.417S200
G1 X4.604S0
G1 X9.326S200
G1 X4.306S0
G1 X13.782S200
G1 X4.626S0
G1 X6.434S200
G1 X4.613S0
G1 X16.418S200
G1 X4.604S0
G1 X9.527S200
G1 X1.691S0
G1 X2.645S200
G1 X4.97S0
G1 X11.118S200
G1 X1.73S0
G1 X20.905S200
G1 X2.5S0
G1 X0.053Y0.1
G1 X-2.5
G1 X-20.958S200
G1 X-1.73S0
G1 X-11.195S200
G1 X-4.969S0
G1 X-2.569S200
G1 X-1.691S0
G1 X-9.561S200
G1 X-4.59S0
G1 X-16.377S200
G1 X-4.601S0
G1 X-6.503S200
G1 X-4.615S0
G1 X-13.757S200
G1 X-4.306S0
G1 X-9.36S200
G1 X-4.59S0
G1 X-16.376S200
G1 X-4.601S0
G1 X-8.415S200
G1 X-4.246S0
G1 X-29.51S200
G1 X-2.5S0
G1 X-0.053Y0.1
G1 X2.5
G1 X29.563S200
G1 X4.246S0
G1 X8.451S200
G1 X4.586S0
G1 X16.335S200
G1 X4.574S0
G1 X9.396S200
G1 X4.306S0
G1 X13.731S200
G1 X4.605S0
G1 X6.575S200
G1 X4.586S0
G1 X16.336S200
G1 X4.574S0
G1 X9.597S200
G1 X1.691S0
G1 X2.493S200
G1 X4.968S0
G1 X11.272S200
G1 X1.73S0
G1 X21.01S200
G1 X2.5S0
G1 X0.052Y0.1
G1 X-2.5
G1 X-21.062S200
G1 X-1.73S0
G1 X-11.349S200
G1 X-4.968S0
G1 X-2.416S200
G1 X-1.691S0
G1 X-9.638S200
G1 X-4.553S0
G1 X-16.295S200
G1 X-4.567S0
G1 X-6.652S200
G1 X-4.594S0
G1 X-13.705S200
G1 X-4.306S0
G1 X-9.437S200
G1 X-4.553S0
G1 X-16.294S200
G1 X-4.567S0
G1 X-8.491S200
G1 X-4.246S0
G1 X-29.615S200
G1 X-2.5S0
G1 X-0.052Y0.1
G1 X2.5
G1 X29.667S200
G1 X4.246S0
G1 X8.531S200
G1 X4.548S0
G1 X16.253S200
G1 X4.532S0
G1 X9.478S200
G1 X4.306S0
G1 X13.679S200
G1 X4.584S0
G1 X6.729S200
G1 X4.547S0
G1 X16.254S200
G1 X4.532S0
G1 X9.679S200
G1 X1.691S0
G1 X2.34S200
G1 X4.968S0
G1 X11.425S200
G1 X1.73S0
G1 X21.114S200
G1 X2.5S0
G1 X0.053Y0.1
G1 X-2.5
G1 X-21.167S200
G1 X-1.73S0
G1 X-11.502S200
G1 X-4.967S0
G1 X-2.264S200
G1 X-1.691S0
G1 X-9.72S200
G1 X-4.516S0
G1 X-16.206S200
G1 X-4.53S0
G1 X-6.805S200
G1 X-4.574S0
G1 X-13.653S200
G1 X-4.306S0
G1 X-9.519S200
G1 X-4.516S0
G1 X-16.205S200
G1 X-4.53S0
G1 X-8.572S200
G1 X-4.246S0
G1 X-29.717S200
G1 X-2.5S0
G1 X-0.05Y0.1
G1 X2.5
G1 X29.767S200
G1 X4.246S0
G1 X8.612S200
G1 X4.515S0
G1 X16.155S200
G1 X4.5S0
G1 X9.56S200
G1 X4.306S0
G1 X13.628S200
G1 X4.563S0
G1 X6.881S200
G1 X4.515S0
G1 X16.155S200
G1 X4.501S0
G1 X9.761S200
G1 X1.691S0
G1 X2.187S200
G1 X4.967S0
G1 X11.579S200
G1 X1.73S0
G1 X21.219S200
G1 X2.5S0
G1 X0.052Y0.1
G1 X-2.5
G1 X-21.271S200
G1 X-1.73S0
G1 X-11.656S200
G1 X-4.966S0
G1 X-2.111S200
G1 X-1.691S0
G1 X-9.802S200
G1 X-4.486S0
G1 X-16.104S200
G1 X-4.499S0
G1 X-6.959S200
G1 X-4.553S0
G1 X-13.601S200
G1 X-4.306S0
G1 X-9.601S200
G1 X-4.485S0
G1 X-16.104S200
G1 X-4.499S0
G1 X-8.653S200
G1 X-4.246S0
G1 X-29.817S200
G1 X-2.5S0
G1 X-0.051Y0.1
G1 X2.5
G1 X29.868S200
G1 X4.246S0
G1 X8.693S200
G1 X4.484S0
G1 X16.053S200
G1 X4.47S0
G1 X9.642S200
G1 X4.306S0
G1 X13.57S200
G1 X4.543S0
G1 X7.04S200
G1 X4.484S0
G1 X16.054S200
G1 X4.47S0
G1 X9.843S200
G1 X1.691S0
G1 X2.035S200
G1 X4.966S0
G1 X11.732S200
G1 X1.73S0
G1 X21.32S200
G1 X2.5S0
G1 X0.05Y0.1
G1 X-2.5
G1 X-21.37S200
G1 X-1.73S0
G1 X-11.809S200
G1 X-4.966S0
G1 X-1.958S200
G1 X-1.691S0
G1 X-9.884S200
G1 X-4.455S0
G1 X-16.003S200
G1 X-4.468S0
G1 X-7.126S200
G1 X-4.528S0
G1 X-13.54S200
G1 X-4.306S0
G1 X-9.682S200
G1 X-4.455S0
G1 X-16.003S200
G1 X-4.469S0
G1 X-8.733S200
G1 X-4.246S0
G1 X-29.918S200
G1 X-2.5S0
G1 X-0.05Y0.1
G1 X2.5
G1 X29.968S200
G1 X4.246S0
G1 X8.774S200
G1 X4.453S0
G1 X15.952S200
G1 X4.44S0
G1 X9.723S200
G1 X4.306S0
G1 X13.51S200
G1 X4.514S0
G1 X7.21S200
G1 X4.453S0
G1 X15.952S200
G1 X4.44S0
G1 X9.925S200
G1 X1.691S0
G1 X1.882S200
G1 X4.965S0
G1 X11.886S200
G1 X1.73S0
G1 X21.42S200
G1 X2.5S0
G1 X0.05Y0.1
G1 X-2.5
G1 X-21.47S200
G1 X-1.73S0
G1 X-11.963S200
G1 X-4.965S0
G1 X-1.805S200
G1 X-1.691S0
G1 X-9.966S200
G1 X-4.424S0
G1 X-15.901S200
G1 X-4.437S0
G1 X-7.297S200
G1 X-4.5S0
G1 X-13.479S200
G1 X-4.306S0
G1 X-9.765S200
G1 X-4.424S0
G1 X-15.9S200
G1 X-4.437S0
G1 X-8.816S200
G1 X-4.246S0
G1 X-30.018S200
G1 X-2.5S0
G1 X-0.05Y0.1
G1 X2.5
G1 X30.068S200
G1 X4.246S0
G1 X8.864S200
G1 X4.418S0
G1 X15.846S200
G1 X4.401S0
G1 X9.813S200
G1 X4.306S0
G1 X13.449S200
G1 X4.485S0
G1 X7.39S200
G1 X4.419S0
G1 X15.845S200
G1 X4.401S0
G1 X10.015S200
G1 X1.691S0
G1 X1.729S200
G1 X4.964S0
G1 X12.04S200
G1 X1.73S0
G1 X21.52S200
G1 X2.5S0
G1 X0.05Y0.1
G1 X-2.5
G1 X-21.57S200
G1 X-1.73S0
G1 X-12.116S200
G1 X-4.964S0
G1 X-1.653S200
G1 X-1.691S0
G1 X-10.063S200
G1 X-4.381S0
G1 X-15.788S200
G1 X-4.4S0
G1 X-7.482S200
G1 X-4.471S0
G1 X-13.419S200
G1 X-4.306S0
G1 X-9.862S200
G1 X-4.38S0
G1 X-15.788S200
G1 X-4.4S0
G1 X-8.912S200
G1 X-4.246S0
G1 X-30.118S200
G1 X-2.5S0
G1 X-0.05Y0.1
G1 X2.5
G1 X30.168S200
G1 X4.246S0
G1 X8.96S200
G1 X4.381S0
G1 X15.726S200
G1 X4.363S0
G1 X9.911S200
G1 X4.306S0
G1 X13.384S200
G1 X4.461S0
G1 X7.575S200
G1 X4.381S0
G1 X15.727S200
G1 X4.364S0
G1 X10.112S200
G1 X1.691S0
G1 X1.576S200
G1 X4.964S0
G1 X12.193S200
G1 X1.73S0
G1 X21.619S200
G1 X2.5S0
G1 X0.05Y0.1
G1 X-2.5
G1 X-21.669S200
G1 X-1.73S0
G1 X-12.27S200
G1 X-4.963S0
G1 X-1.5S200
G1 X-1.691S0
G1 X-10.161S200
G1 X-4.348S0
G1 X-15.664S200
G1 X-4.363S0
G1 X-7.668S200
G1 X-4.451S0
G1 X-13.349S200
G1 X-4.306S0
G1 X-9.96S200
G1 X-4.347S0
G1 X-15.665S200
G1 X-4.362S0
G1 X-9.008S200
G1 X-4.246S0
G1 X-30.218S200
G1 X-2.5S0
G1 X-0.05Y0.1
G1 X2.5
G1 X30.268S200
G1 X4.246S0
G1 X9.056S200
G1 X4.344S0
G1 X15.603S200
G1 X4.33S0
G1 X10.009S200
G1 X4.306S0
G1 X13.314S200
G1 X4.442S0
G1 X7.76S200
G1 X4.344S0
G1 X15.603S200
G1 X4.331S0
G1 X10.21S200
G1 X1.691S0
G1 X1.424S200
G1 X4.962S0
G1 X12.347S200
G1 X1.73S0
G1 X21.719S200
G1 X2.5S0
G1 X0.05Y0.1
G1 X-2.5
G1 X-21.769S200
G1 X-1.73S0
G1 X-12.423S200
G1 X-4.963S0
G1 X-1.347S200
G1 X-1.691S0
G1 X-10.258S200
G1 X-4.315S0
G1 X-15.541S200
G1 X-4.326S0
G1 X-7.854S200
G1 X-4.432S0
G1 X-13.278S200
G1 X-4.306S0
G1 X-10.057S200
G1 X-4.315S0
G1 X-15.54S200
G1 X-4.326S0
G1 X-9.104S200
G1 X-4.246S0
G1 X-30.318S200
G1 X-2.5S0
G1 X-0.05Y0.1
G1 X2.5
G1 X30.368S200
G1 X4.246S0
G1 X9.152S200
G1 X4.312S0
G1 X15.474S200
G1 X4.298S0
G1 X10.106S200
G1 X4.306S0
G1 X13.243S200
G1 X4.413S0
G1 X7.956S200
G1 X4.312S0
G1 X15.474S200
G1 X4.299S0
G1 X10.307S200
G1 X1.691S0
G1 X1.271S200
G1 X4.962S0
G1 X12.5S200
G1 X1.73S0
G1 X21.819S200
G1 X2.5S0
G1 X0.05Y0.1
G1 X-2.5
G1 X-21.869S200
G1 X-1.73S0
G1 X-12.577S200
G1 X-4.961S0
G1 X-1.195S200
G1 X-1.691S0
G1 X-10.356S200
G1 X-4.282S0
G1 X-15.408S200
G1 X-4.298S0
G1 X-8.058S200
G1 X-4.394S0
G1 X-13.208S200
G1 X-4.306S0
G1 X-10.155S200
G1 X-4.281S0
G1 X-15.408S200
G1 X-4.298S0
G1 X-9.2S200
G1 X-4.246S0
G1 X-30.418S200
G1 X-2.5S0
G1 X-0.05Y0.1
G1 X2.5
G1 X30.468S200
G1 X4.246S0
G1 X9.25S200
G1 X4.282S0
G1 X15.341S200
G1 X4.265S0
G1 X10.204S200
G1 X4.306S0
G1 X13.168S200
G1 X4.38S0
G1 X8.162S200
G1 X4.282S0
G1 X15.341S200
G1 X4.266S0
G1 X10.405S200
G1 X1.691S0
G1 X1.118S200
G1 X4.961S0
G1 X12.654S200
G1 X1.73S0
G1 X21.918S200
G1 X2.5S0
G1 X0.05Y0.1
G1 X-2.5
G1 X-21.968S200
G1 X-1.73S0
G1 X-12.73S200
G1 X-4.961S0
G1 X-1.042S200
G1 X-1.691S0
G1 X-10.461S200
G1 X-4.245S0
G1 X-15.272S200
G1 X-4.26S0
G1 X-8.271S200
G1 X-4.367S0
G1 X-13.128S200
G1 X-4.306S0
G1 X-10.26S200
G1 X-4.244S0
G1 X-15.272S200
G1 X-4.26S0
G1 X-9.306S200
G1 X-4.246S0
G1 X-30.518S200
G1 X-2.5S0
G1 X-0.05Y0.1
G1 X2.5
G1 X30.568S200
G1 X4.246S0
G1 X9.362S200
G1 X4.239S0
G1 X15.198S200
G1 X4.227S0
G1 X10.316S200
G1 X4.306S0
G1 X13.087S200
G1 X4.354S0
G1 X8.381S200
G1 X4.239S0
G1 X15.198S200
G1 X4.228S0
G1 X10.517S200
G1 X1.691S0
G1 X0.966S200
G1 X4.96S0
G1 X12.807S200
G1 X1.73S0
G1 X22.018S200
G1 X2.5S0
G1 X0.05Y0.1
G1 X-2.5
G1 X-22.068S200
G1 X-1.73S0
G1 X-12.884S200
G1 X-4.96S0
G1 X-0.889S200
G1 X-1.691S0
G1 X-10.573S200
G1 X-4.211S0
G1 X-15.124S200
G1 X-4.218S0
G1 X-8.491S200
G1 X-4.341S0
G1 X-13.046S200
G1 X-4.306S0
G1 X-10.372S200
G1 X-4.211S0
G1 X-15.123S200
G1 X-4.218S0
G1 X-9.418S200
G1 X-4.246S0
G1 X-30.617S200
G1 X-2.5S0
G1 X-0.048Y0.1
G1 X2.5
G1 X30.665S200
G1 X4.246S0
G1 X9.474S200
G1 X4.202S0
G1 X15.044S200
G1 X4.194S0
G1 X10.428S200
G1 X4.306S0
G1 X13.005S200
G1 X4.328S0
G1 X8.602S200
G1 X4.201S0
G1 X15.044S200
G1 X4.195S0
G1 X10.629S200
G1 X1.691S0
G1 X0.813S200
G1 X4.959S0
G1 X12.961S200
G1 X1.73S0
G1 X22.118S200
G1 X2.5S0
G1 X0.047Y0.1
G1 X-2.5
